/* XPM */
static char * MSP_icon_256_xpm[] = {
"256 256 2878 2",
"  	c None",
". 	c #B5B7B9",
"+ 	c #95979A",
"@ 	c #8A8C8E",
"# 	c #7C7E81",
"$ 	c #7A7C7E",
"% 	c #6F7173",
"& 	c #707274",
"* 	c #6D6E71",
"= 	c #68696C",
"- 	c #696A6C",
"; 	c #696A6D",
"> 	c #686A6C",
", 	c #6F7072",
"' 	c #707174",
") 	c #7A7C7F",
"! 	c #7D7F81",
"~ 	c #8A8C8F",
"{ 	c #949698",
"] 	c #BBBDBF",
"^ 	c #A7A9AC",
"/ 	c #9C9FA1",
"( 	c #818285",
"_ 	c #727376",
": 	c #636467",
"< 	c #5F6062",
"[ 	c #5F6063",
"} 	c #646567",
"| 	c #656769",
"1 	c #67686A",
"2 	c #67686B",
"3 	c #666769",
"4 	c #656668",
"5 	c #656568",
"6 	c #626264",
"7 	c #636465",
"8 	c #646465",
"9 	c #636365",
"0 	c #656567",
"a 	c #646466",
"b 	c #646568",
"c 	c #6B6C6E",
"d 	c #717275",
"e 	c #898A8D",
"f 	c #9FA1A3",
"g 	c #A6A8AB",
"h 	c #919395",
"i 	c #848588",
"j 	c #7B7C7F",
"k 	c #6A6B6E",
"l 	c #616264",
"m 	c #5F5F62",
"n 	c #636466",
"o 	c #606061",
"p 	c #5D5D5F",
"q 	c #5C5B5D",
"r 	c #59595B",
"s 	c #59595A",
"t 	c #59585A",
"u 	c #585859",
"v 	c #595859",
"w 	c #585759",
"x 	c #5B5A5B",
"y 	c #5F5F60",
"z 	c #616163",
"A 	c #626263",
"B 	c #606063",
"C 	c #78797C",
"D 	c #838587",
"E 	c #8F9194",
"F 	c #737577",
"G 	c #656669",
"H 	c #565557",
"I 	c #575657",
"J 	c #585758",
"K 	c #575758",
"L 	c #575658",
"M 	c #5A595A",
"N 	c #5E5E5F",
"O 	c #5F5F61",
"P 	c #616162",
"Q 	c #636567",
"R 	c #747679",
"S 	c #999B9E",
"T 	c #9B9D9F",
"U 	c #7E8083",
"V 	c #626466",
"W 	c #5B5B5C",
"X 	c #565657",
"Y 	c #5A5A5C",
"Z 	c #5E5D5F",
"` 	c #616062",
" .	c #66686A",
"..	c #808285",
"+.	c #727476",
"@.	c #606164",
"#.	c #626265",
"$.	c #5D5D5E",
"%.	c #5C5B5C",
"&.	c #585657",
"*.	c #555456",
"=.	c #535253",
"-.	c #504F50",
";.	c #4E4D4E",
">.	c #464647",
",.	c #434243",
"'.	c #3D3B3C",
").	c #3E3C3D",
"!.	c #363436",
"~.	c #323031",
"{.	c #323032",
"].	c #312F30",
"^.	c #272526",
"/.	c #272426",
"(.	c #312F31",
"_.	c #302F30",
":.	c #353435",
"<.	c #3D3C3D",
"[.	c #3C3B3C",
"}.	c #464546",
"|.	c #515052",
"1.	c #545354",
"2.	c #5A595B",
"3.	c #606062",
"4.	c #626365",
"5.	c #606163",
"6.	c #808284",
"7.	c #B8BABD",
"8.	c #7F8183",
"9.	c #67696B",
"0.	c #5F5E60",
"a.	c #5A5A5B",
"b.	c #535354",
"c.	c #4F4E4F",
"d.	c #424041",
"e.	c #3A393A",
"f.	c #353334",
"g.	c #2D2B2C",
"h.	c #201D1F",
"i.	c #1C191B",
"j.	c #1D1A1C",
"k.	c #1F1C1D",
"l.	c #1F1C1E",
"m.	c #201D1E",
"n.	c #1F1D1E",
"o.	c #1D1A1B",
"p.	c #1C191A",
"q.	c #282627",
"r.	c #2C2A2B",
"s.	c #343233",
"t.	c #424042",
"u.	c #4D4C4D",
"v.	c #8B8D8F",
"w.	c #8C8E91",
"x.	c #5C5C5D",
"y.	c #454344",
"z.	c #3A3839",
"A.	c #302E30",
"B.	c #2B292A",
"C.	c #1A1718",
"D.	c #1E1C1D",
"E.	c #201E1F",
"F.	c #221F20",
"G.	c #221F21",
"H.	c #222021",
"I.	c #232021",
"J.	c #211E1F",
"K.	c #1E1A1C",
"L.	c #1C181A",
"M.	c #302E2F",
"N.	c #454445",
"O.	c #5E5F62",
"P.	c #6E6F72",
"Q.	c #8E9093",
"R.	c #95989A",
"S.	c #434142",
"T.	c #211F20",
"U.	c #211E20",
"V.	c #1E1B1D",
"W.	c #333133",
"X.	c #414041",
"Y.	c #4C4B4D",
"Z.	c #565556",
"`.	c #717375",
" +	c #9C9EA0",
".+	c #86888B",
"++	c #5D5C5E",
"@+	c #444344",
"#+	c #383637",
"$+	c #242122",
"%+	c #242123",
"&+	c #232022",
"*+	c #232122",
"=+	c #383638",
"-+	c #605F61",
";+	c #898B8D",
">+	c #9EA0A3",
",+	c #787A7C",
"'+	c #616265",
")+	c #5E5E60",
"!+	c #3E3D3E",
"~+	c #262425",
"{+	c #252223",
"]+	c #1F1D1F",
"^+	c #1D1B1D",
"/+	c #4C4B4C",
"(+	c #A3A6A8",
"_+	c #9D9FA1",
":+	c #575556",
"<+	c #2D2A2C",
"[+	c #252224",
"}+	c #242223",
"|+	c #201E20",
"1+	c #2E2A2A",
"2+	c #332E2D",
"3+	c #252324",
"4+	c #3F3D3E",
"5+	c #4B4A4B",
"6+	c #5B5A5C",
"7+	c #6B6C6F",
"8+	c #929497",
"9+	c #3F3E3F",
"0+	c #1A181B",
"a+	c #282526",
"b+	c #9C5746",
"c+	c #B65844",
"d+	c #393231",
"e+	c #1A191B",
"f+	c #3E3C3E",
"g+	c #9A9C9F",
"h+	c #8D8F92",
"i+	c #6A6C6E",
"j+	c #555556",
"k+	c #484648",
"l+	c #343234",
"m+	c #19181A",
"n+	c #2D2929",
"o+	c #995646",
"p+	c #EE3F32",
"q+	c #EE3A30",
"r+	c #B35744",
"s+	c #36302F",
"t+	c #161518",
"u+	c #474647",
"v+	c #545355",
"w+	c #555455",
"x+	c #5E5F61",
"y+	c #989A9D",
"z+	c #504F51",
"A+	c #413F41",
"B+	c #262325",
"C+	c #1A191C",
"D+	c #393232",
"E+	c #B65745",
"F+	c #EF3F33",
"G+	c #EF4837",
"H+	c #F04938",
"I+	c #B55644",
"J+	c #3C3433",
"K+	c #19181B",
"L+	c #272425",
"M+	c #262324",
"N+	c #4E4E4F",
"O+	c #9B9DA0",
"P+	c #6E7072",
"Q+	c #616365",
"R+	c #383738",
"S+	c #232123",
"T+	c #161618",
"U+	c #50413D",
"V+	c #C25542",
"W+	c #EF4235",
"X+	c #EF4838",
"Y+	c #F04939",
"Z+	c #F04A39",
"`+	c #EF4033",
" @	c #C25642",
".@	c #4C3E3B",
"+@	c #121215",
"@@	c #5D5E61",
"#@	c #A3A5A7",
"$@	c #75777A",
"%@	c #292728",
"&@	c #1E1D1F",
"*@	c #201F21",
"=@	c #6A4C44",
"-@	c #DD4E3B",
";@	c #EF4133",
">@	c #D1523F",
",@	c #5D4741",
"'@	c #77787B",
")@	c #828487",
"!@	c #484748",
"~@	c #323132",
"{@	c #282527",
"]@	c #1C1B1D",
"^@	c #342F2F",
"/@	c #935747",
"(@	c #F04737",
"_@	c #EF4335",
":@	c #EF4938",
"<@	c #EF4435",
"[@	c #E04B3A",
"}@	c #7C5246",
"|@	c #1F1E20",
"1@	c #454446",
"2@	c #999C9E",
"3@	c #68696B",
"4@	c #1E1D20",
"5@	c #1D1C1E",
"6@	c #5B4641",
"7@	c #C25742",
"8@	c #EF4636",
"9@	c #A45746",
"0@	c #3D3534",
"a@	c #1A1A1C",
"b@	c #242224",
"c@	c #1E1B1C",
"d@	c #333132",
"e@	c #151518",
"f@	c #413837",
"g@	c #945545",
"h@	c #EA4B39",
"i@	c #EF4134",
"j@	c #F04838",
"k@	c #EF4637",
"l@	c #F04234",
"m@	c #CE523F",
"n@	c #664A43",
"o@	c #212021",
"p@	c #1D1C1F",
"q@	c #343334",
"r@	c #757679",
"s@	c #8E9193",
"t@	c #3B393A",
"u@	c #292628",
"v@	c #252425",
"w@	c #363131",
"x@	c #CE513E",
"y@	c #EC4837",
"z@	c #A15746",
"A@	c #493D3A",
"B@	c #18181B",
"C@	c #242324",
"D@	c #393738",
"E@	c #424142",
"F@	c #2A2729",
"G@	c #2A2829",
"H@	c #795045",
"I@	c #CB5541",
"J@	c #EF4234",
"K@	c #EF3D32",
"L@	c #D8513D",
"M@	c #825447",
"N@	c #383332",
"O@	c #1A1A1D",
"P@	c #232224",
"Q@	c #282628",
"R@	c #292627",
"S@	c #5C5D60",
"T@	c #737477",
"U@	c #939698",
"V@	c #1D1D1F",
"W@	c #463C3A",
"X@	c #795146",
"Y@	c #CC5440",
"Z@	c #EF4436",
"`@	c #C55541",
" #	c #724F45",
".#	c #383232",
"+#	c #151519",
"@#	c #262526",
"##	c #2E2C2D",
"$#	c #494849",
"%#	c #757779",
"&#	c #3B3A3B",
"*#	c #211F21",
"=#	c #292729",
"-#	c #252325",
";#	c #272627",
">#	c #5B4741",
",#	c #995848",
"'#	c #CF5340",
")#	c #EF4034",
"!#	c #BD5643",
"~#	c #815346",
"{#	c #3C3534",
"]#	c #242325",
"^#	c #2A282A",
"/#	c #545455",
"(#	c #5D5F61",
"_#	c #ADAFB1",
":#	c #141316",
"<#	c #654A42",
"[#	c #A65645",
"}#	c #654942",
"|#	c #3A3332",
"1#	c #2D2A2B",
"2#	c #19191C",
"3#	c #282728",
"4#	c #1D1D20",
"5#	c #17171B",
"6#	c #393433",
"7#	c #52423E",
"8#	c #885447",
"9#	c #C65642",
"0#	c #E34B39",
"a#	c #D6523F",
"b#	c #9A5747",
"c#	c #51423E",
"d#	c #1B1B1D",
"e#	c #262527",
"f#	c #222022",
"g#	c #19171A",
"h#	c #454345",
"i#	c #5C5C5E",
"j#	c #898B8E",
"k#	c #EE372F",
"l#	c #DD4F3C",
"m#	c #AA5846",
"n#	c #825347",
"o#	c #624A43",
"p#	c #493D3B",
"q#	c #2E2B2C",
"r#	c #17171A",
"s#	c #1E1E20",
"t#	c #262426",
"u#	c #252426",
"v#	c #202022",
"w#	c #1C1C1F",
"x#	c #16171B",
"y#	c #3F3837",
"z#	c #584641",
"A#	c #745046",
"B#	c #CB5440",
"C#	c #EF4536",
"D#	c #EF4737",
"E#	c #BC5844",
"F#	c #594641",
"G#	c #353131",
"H#	c #1C1C1E",
"I#	c #1F1F21",
"J#	c #131216",
"K#	c #2C292A",
"L#	c #4F403C",
"M#	c #2F2B2C",
"N#	c #363536",
"O#	c #797A7D",
"P#	c #636264",
"Q#	c #D15340",
"R#	c #EE3C31",
"S#	c #F04A38",
"T#	c #D0533F",
"U#	c #B95945",
"V#	c #AC5946",
"W#	c #8C5547",
"X#	c #765045",
"Y#	c #694D44",
"Z#	c #4F413D",
"`#	c #4E413D",
" $	c #373232",
".$	c #50423E",
"+$	c #4D3F3C",
"@$	c #604943",
"#$	c #6E4E45",
"$$	c #885548",
"%$	c #9D5847",
"&$	c #B45744",
"*$	c #C55641",
"=$	c #DE4F3C",
"-$	c #EF3C31",
";$	c #EF3E33",
">$	c #EF3A31",
",$	c #E24D3B",
"'$	c #BF5744",
")$	c #9B5848",
"!$	c #493E3B",
"~$	c #272628",
"{$	c #212123",
"]$	c #222123",
"^$	c #212022",
"/$	c #232223",
"($	c #3D3635",
"_$	c #654A43",
":$	c #925647",
"<$	c #B85542",
"[$	c #D3523E",
"}$	c #2A2728",
"|$	c #464446",
"1$	c #5C5D5F",
"2$	c #6C6E70",
"3$	c #694C44",
"4$	c #EF3D31",
"5$	c #E94A38",
"6$	c #E14D3A",
"7$	c #E14E3B",
"8$	c #E04E3C",
"9$	c #D9513E",
"0$	c #D8513E",
"a$	c #DC503C",
"b$	c #E04D3B",
"c$	c #E54B3A",
"d$	c #EB4A38",
"e$	c #EF3E32",
"f$	c #F04536",
"g$	c #F04637",
"h$	c #EE3F33",
"i$	c #EC4838",
"j$	c #DF4D3B",
"k$	c #CC5541",
"l$	c #AB5846",
"m$	c #714F46",
"n$	c #574541",
"o$	c #4C3F3C",
"p$	c #453B39",
"q$	c #443B3A",
"r$	c #3A3433",
"s$	c #423938",
"t$	c #433A38",
"u$	c #6C4E45",
"v$	c #CA5542",
"w$	c #E94A39",
"x$	c #EE3E32",
"y$	c #915647",
"z$	c #141417",
"A$	c #525152",
"B$	c #535254",
"C$	c #5B5B5D",
"D$	c #2F2D2E",
"E$	c #B35845",
"F$	c #F04738",
"G$	c #E84A38",
"H$	c #D6513E",
"I$	c #D5523E",
"J$	c #BF5743",
"K$	c #B85945",
"L$	c #B95844",
"M$	c #B85845",
"N$	c #BD5845",
"O$	c #D15440",
"P$	c #E14D3B",
"Q$	c #BC5744",
"R$	c #312D2D",
"S$	c #5D5E60",
"T$	c #9D9FA2",
"U$	c #8E9092",
"V$	c #636364",
"W$	c #E44C3A",
"X$	c #EA4939",
"Y$	c #E54A39",
"Z$	c #E44E3B",
"`$	c #C85641",
" %	c #C25743",
".%	c #B55946",
"+%	c #A05848",
"@%	c #9F5948",
"#%	c #A05948",
"$%	c #9F5847",
"%%	c #9E5847",
"&%	c #AC5A48",
"*%	c #C05743",
"=%	c #D9503D",
"-%	c #ED4938",
";%	c #F04537",
">%	c #E44B39",
",%	c #929496",
"'%	c #9D5848",
")%	c #D25340",
"!%	c #C25643",
"~%	c #B25846",
"{%	c #9C5948",
"]%	c #7D5347",
"^%	c #674D45",
"/%	c #594742",
"(%	c #3C3636",
"_%	c #373434",
":%	c #343131",
"<%	c #333031",
"[%	c #302E2E",
"}%	c #2D2B2D",
"|%	c #2D2C2D",
"1%	c #323030",
"2%	c #333030",
"3%	c #383434",
"4%	c #4F423F",
"5%	c #604A44",
"6%	c #765147",
"7%	c #8A5648",
"8%	c #A55948",
"9%	c #CE5541",
"0%	c #DA513E",
"a%	c #EE3A31",
"b%	c #EE3B31",
"c%	c #8A5547",
"d%	c #201F22",
"e%	c #5B5C5E",
"f%	c #818386",
"g%	c #787A7D",
"h%	c #2B282A",
"i%	c #4B3F3C",
"j%	c #D6523E",
"k%	c #DD503D",
"l%	c #BA5946",
"m%	c #945748",
"n%	c #785247",
"o%	c #674D46",
"p%	c #4B403D",
"q%	c #202123",
"r%	c #222325",
"s%	c #262628",
"t%	c #28282A",
"u%	c #2A292B",
"v%	c #2E2C2E",
"w%	c #2E2D2E",
"x%	c #2B2A2B",
"y%	c #29282A",
"z%	c #252427",
"A%	c #1F2023",
"B%	c #463D3B",
"C%	c #564541",
"D%	c #735147",
"E%	c #8B5648",
"F%	c #A65947",
"G%	c #CD5541",
"H%	c #D3533E",
"I%	c #373231",
"J%	c #313031",
"K%	c #77797B",
"L%	c #717376",
"M%	c #5F5E5F",
"N%	c #8D5648",
"O%	c #EF3F32",
"P%	c #C05844",
"Q%	c #895648",
"R%	c #634C45",
"S%	c #4A3F3D",
"T%	c #3A3535",
"U%	c #242427",
"V%	c #1C1D20",
"W%	c #2F2E2F",
"X%	c #1E1F22",
"Y%	c #312E2F",
"Z%	c #443C3A",
"`%	c #524340",
" &	c #745147",
".&	c #A75947",
"+&	c #E54939",
"@&	c #704F46",
"#&	c #5D5C5D",
"$&	c #2B292B",
"%&	c #4C403D",
"&&	c #EE4939",
"*&	c #C45541",
"=&	c #755247",
"-&	c #433C3A",
";&	c #2B2A2C",
">&	c #29292B",
",&	c #282729",
"'&	c #2C2B2D",
")&	c #363233",
"!&	c #5E4943",
"~&	c #8E5648",
"{&	c #B75946",
"]&	c #BE5743",
"^&	c #6C6D70",
"/&	c #2C292B",
"(&	c #A45948",
"_&	c #CB5642",
":&	c #935648",
"<&	c #684E46",
"[&	c #403A39",
"}&	c #212326",
"|&	c #272729",
"1&	c #212225",
"2&	c #5C4943",
"3&	c #815549",
"4&	c #EB4939",
"5&	c #E94939",
"6&	c #664C44",
"7&	c #565658",
"8&	c #646668",
"9&	c #202023",
"0&	c #EF4336",
"a&	c #D8503E",
"b&	c #5F4A44",
"c&	c #3F3A39",
"d&	c #2C2C2E",
"e&	c #242527",
"f&	c #2D2D2E",
"g&	c #323131",
"h&	c #262729",
"i&	c #393535",
"j&	c #504441",
"k&	c #835548",
"l&	c #C95642",
"m&	c #E84938",
"n&	c #F04436",
"o&	c #B25946",
"p&	c #5A5B5C",
"q&	c #626366",
"r&	c #626364",
"s&	c #343031",
"t&	c #BE5844",
"u&	c #E94938",
"v&	c #B75945",
"w&	c #805448",
"x&	c #413B3A",
"y&	c #28292B",
"z&	c #2B2B2D",
"A&	c #333233",
"B&	c #2E2D2F",
"C&	c #6B4F47",
"D&	c #A25948",
"E&	c #D74F3D",
"F&	c #F04636",
"G&	c #E94636",
"H&	c #654C44",
"I&	c #222224",
"J&	c #373536",
"K&	c #525153",
"L&	c #525253",
"M&	c #242426",
"N&	c #875648",
"O&	c #E74C3A",
"P&	c #624C45",
"Q&	c #222427",
"R&	c #27282A",
"S&	c #504440",
"T&	c #BA5845",
"U&	c #2C2A2C",
"V&	c #515051",
"W&	c #696B6D",
"X&	c #232326",
"Y&	c #574641",
"Z&	c #915848",
"`&	c #4E4240",
" *	c #3C3737",
".*	c #715147",
"+*	c #C35844",
"@*	c #7A5247",
"#*	c #525051",
"$*	c #2A292A",
"%*	c #393534",
"&*	c #C45744",
"**	c #D5513D",
"=*	c #905849",
"-*	c #4A403E",
";*	c #29292C",
">*	c #363334",
",*	c #755248",
"'*	c #D65440",
")*	c #252527",
"!*	c #2C2B2C",
"~*	c #9D5948",
"{*	c #DC4F3C",
"]*	c #2D2D2F",
"^*	c #363435",
"/*	c #242628",
"(*	c #3D3838",
"_*	c #715148",
":*	c #5A5B5D",
"<*	c #805549",
"[*	c #DD4B3A",
"}*	c #48403E",
"|*	c #2B2C2E",
"1*	c #353434",
"2*	c #292A2C",
"3*	c #383535",
"4*	c #775348",
"5*	c #CA5541",
"6*	c #EF4939",
"7*	c #715047",
"8*	c #525052",
"9*	c #7F8184",
"0*	c #222225",
"a*	c #684D46",
"b*	c #E14B3A",
"c*	c #AD5947",
"d*	c #5B4945",
"e*	c #2A2B2D",
"f*	c #302F31",
"g*	c #28292C",
"h*	c #423C3B",
"i*	c #895749",
"j*	c #DB503D",
"k*	c #D5513E",
"l*	c #4A403D",
"m*	c #29292A",
"n*	c #2F2D2F",
"o*	c #838487",
"p*	c #222426",
"q*	c #5A4843",
"r*	c #705148",
"s*	c #373637",
"t*	c #373537",
"u*	c #524542",
"v*	c #A85846",
"w*	c #EC4636",
"x*	c #AF5846",
"y*	c #343132",
"z*	c #2A2A2B",
"A*	c #58595B",
"B*	c #8F9193",
"C*	c #393839",
"D*	c #5D4944",
"E*	c #D4513D",
"F*	c #EE4033",
"G*	c #E24B39",
"H*	c #945849",
"I*	c #423B3B",
"J*	c #313032",
"K*	c #6E5048",
"L*	c #C75441",
"M*	c #965848",
"N*	c #595A5C",
"O*	c #8F9093",
"P*	c #A1A3A5",
"Q*	c #646669",
"R*	c #C35642",
"S*	c #634D46",
"T*	c #2C2D2F",
"U*	c #303031",
"V*	c #423C3C",
"W*	c #96594A",
"X*	c #EB4838",
"Y*	c #EB4636",
"Z*	c #7D5448",
"`*	c #262629",
" =	c #58585A",
".=	c #444243",
"+=	c #222326",
"@=	c #5C4944",
"#=	c #D4533E",
"$=	c #915849",
"%=	c #403B3B",
"&=	c #292A2D",
"*=	c #413F40",
"==	c #464445",
"-=	c #4E4C4D",
";=	c #676667",
">=	c #6A696A",
",=	c #6C6B6C",
"'=	c #878788",
")=	c #878688",
"!=	c #888889",
"~=	c #7D7C7E",
"{=	c #5E5C5D",
"]=	c #2E2E30",
"^=	c #694F48",
"/=	c #E64A39",
"(=	c #694F47",
"_=	c #252628",
":=	c #515152",
"<=	c #6F7073",
"[=	c #614C46",
"}=	c #D4503E",
"|=	c #CA5642",
"1=	c #644D47",
"2=	c #2D2E30",
"3=	c #313132",
"4=	c #565456",
"5=	c #676668",
"6=	c #777678",
"7=	c #8E8E8F",
"8=	c #A3A3A4",
"9=	c #BDBDBF",
"0=	c #D0CFD0",
"a=	c #E8E8E9",
"b=	c #F3F3F4",
"c=	c #F1F2F2",
"d=	c #F2F2F3",
"e=	c #F2F3F3",
"f=	c #DDDEDE",
"g=	c #C8C8C9",
"h=	c #B5B5B6",
"i=	c #9C9C9D",
"j=	c #858486",
"k=	c #707071",
"l=	c #626162",
"m=	c #504E4F",
"n=	c #453E3D",
"o=	c #D94F3C",
"p=	c #644C46",
"q=	c #7C7E80",
"r=	c #2E2E2F",
"s=	c #745248",
"t=	c #DC4E3B",
"u=	c #A45A48",
"v=	c #49413F",
"w=	c #828283",
"x=	c #A4A3A4",
"y=	c #BDBCBD",
"z=	c #D3D2D3",
"A=	c #ECEDEE",
"B=	c #FAFAFA",
"C=	c #F9F9F9",
"D=	c #F5F6F6",
"E=	c #F3F4F4",
"F=	c #EFEFF0",
"G=	c #EEEFF0",
"H=	c #EEEFEF",
"I=	c #F0F1F1",
"J=	c #F4F4F5",
"K=	c #F7F7F7",
"L=	c #FCFCFC",
"M=	c #F6F6F7",
"N=	c #E3E3E4",
"O=	c #CCCCCD",
"P=	c #B4B3B4",
"Q=	c #969597",
"R=	c #757475",
"S=	c #2D2E2F",
"T=	c #7C5449",
"U=	c #DF4E3B",
"V=	c #D94D3B",
"W=	c #634C46",
"X=	c #919396",
"Y=	c #2A2A2C",
"Z=	c #373435",
"`=	c #8E5749",
" -	c #EC4637",
".-	c #81564A",
"+-	c #303032",
"@-	c #2F2E2E",
"#-	c #747474",
"$-	c #A6A5A6",
"%-	c #D7D7D8",
"&-	c #E5E5E5",
"*-	c #F1F1F2",
"=-	c #F6F7F7",
"--	c #F0F0F1",
";-	c #EFF0F1",
">-	c #EFF0F0",
",-	c #EEEEEF",
"'-	c #F5F5F5",
")-	c #F8F9F9",
"!-	c #F5F5F6",
"~-	c #EDEEEF",
"{-	c #E0E0E1",
"]-	c #C5C4C5",
"^-	c #8F8E8F",
"/-	c #666566",
"(-	c #333334",
"_-	c #5A4A45",
":-	c #C85642",
"<-	c #EF3F34",
"[-	c #DD4E3C",
"}-	c #87898C",
"|-	c #B1B3B5",
"1-	c #27272A",
"2-	c #4C413F",
"3-	c #B35946",
"4-	c #CB533F",
"5-	c #644E47",
"6-	c #858586",
"7-	c #B8B8B9",
"8-	c #E5E7E8",
"9-	c #F3F3F3",
"0-	c #F0F1F2",
"a-	c #CFCECF",
"b-	c #9B9B9C",
"c-	c #747375",
"d-	c #4A494A",
"e-	c #2D2D30",
"f-	c #413C3C",
"g-	c #AA5B48",
"h-	c #6D6F71",
"i-	c #3D3B3D",
"j-	c #6E4F47",
"k-	c #D3533F",
"l-	c #4A4140",
"m-	c #2B2C2F",
"n-	c #393739",
"o-	c #B7B6B8",
"p-	c #DFDFE0",
"q-	c #3C3A3B",
"r-	c #303132",
"s-	c #89584A",
"t-	c #7D5449",
"u-	c #7E8082",
"v-	c #26272A",
"w-	c #4D4240",
"x-	c #9E5A49",
"y-	c #3F3B3B",
"z-	c #2F3032",
"A-	c #A5A5A6",
"B-	c #E1E2E3",
"C-	c #F6F6F6",
"D-	c #EDEEEE",
"E-	c #CBCACA",
"F-	c #807F81",
"G-	c #535152",
"H-	c #333234",
"I-	c #6E5148",
"J-	c #DD4D3A",
"K-	c #3A3636",
"L-	c #76777A",
"M-	c #EE4637",
"N-	c #8D584A",
"O-	c #323133",
"P-	c #3B3A3A",
"Q-	c #474546",
"R-	c #79797A",
"S-	c #B9B9BA",
"T-	c #F9FAFA",
"U-	c #D8D7D7",
"V-	c #989899",
"W-	c #616061",
"X-	c #D4523E",
"Y-	c #554642",
"Z-	c #4B4A4C",
"`-	c #59595C",
" ;	c #949699",
".;	c #2C2C2D",
"+;	c #393636",
"@;	c #785349",
"#;	c #C55743",
"$;	c #F04435",
"%;	c #E64B39",
"&;	c #83564B",
"*;	c #343435",
"=;	c #3A383A",
"-;	c #CECECE",
";;	c #F7F7F8",
">;	c #F8F8F8",
",;	c #E2E3E3",
"';	c #ADACAD",
");	c #564744",
"!;	c #C15744",
"~;	c #7B5348",
"{;	c #545456",
"];	c #7A7B7E",
"^;	c #5F6061",
"/;	c #2D2C2E",
"(;	c #232427",
"_;	c #423B3A",
":;	c #BF5844",
"<;	c #E04B39",
"[;	c #2E3032",
"};	c #353536",
"|;	c #838283",
"1;	c #D2D1D2",
"2;	c #EBECEC",
"3;	c #A7A7A8",
"4;	c #605F60",
"5;	c #4B4241",
"6;	c #C15945",
"7;	c #AD5A47",
"8;	c #49403E",
"9;	c #C45642",
"0;	c #E14A38",
"a;	c #6E5149",
"b;	c #7A797A",
"c;	c #C7C7C8",
"d;	c #F4F5F5",
"e;	c #F4F4F4",
"f;	c #EBEBEB",
"g;	c #9F9E9F",
"h;	c #555355",
"i;	c #2F2F31",
"j;	c #4B4240",
"k;	c #BE5A46",
"l;	c #D8503C",
"m;	c #89574A",
"n;	c #3E3A3A",
"o;	c #2F2E30",
"p;	c #8D8F91",
"q;	c #6D4F47",
"r;	c #D94F3D",
"s;	c #6F5249",
"t;	c #2E2F32",
"u;	c #636263",
"v;	c #BCBBBC",
"w;	c #DEDEDE",
"x;	c #2E2F31",
"y;	c #423D3C",
"z;	c #A85948",
"A;	c #C85742",
"B;	c #3B3838",
"C;	c #27282B",
"D;	c #4E4D4F",
"E;	c #212224",
"F;	c #3E3939",
"G;	c #765248",
"H;	c #A35948",
"I;	c #D9523E",
"J;	c #E04A38",
"K;	c #6F524A",
"L;	c #2F3033",
"M;	c #515050",
"N;	c #9A999B",
"O;	c #FBFBFC",
"P;	c #FFFFFF",
"Q;	c #FAFBFB",
"R;	c #F8F8F9",
"S;	c #CACACA",
"T;	c #727273",
"U;	c #3C3A3C",
"V;	c #313133",
"W;	c #3D393A",
"X;	c #AD5B48",
"Y;	c #C15642",
"Z;	c #3F3A3A",
"`;	c #575759",
" >	c #76787A",
".>	c #A5A7A9",
"+>	c #AA5947",
"@>	c #323235",
"#>	c #7C7B7C",
"$>	c #CECECF",
"%>	c #FBFBFB",
"&>	c #FDFDFD",
"*>	c #F9F9FA",
"=>	c #EAEAEA",
"->	c #D2D1D1",
";>	c #BDBDBE",
">>	c #B0B0B1",
",>	c #A9A8A9",
"'>	c #929192",
")>	c #919092",
"!>	c #919091",
"~>	c #AEAEAF",
"{>	c #AFAFB0",
"]>	c #C2C2C3",
"^>	c #D5D5D6",
"/>	c #FDFEFE",
"(>	c #343436",
"_>	c #47403F",
":>	c #C15542",
"<>	c #87574A",
"[>	c #5F4B45",
"}>	c #3D3C3C",
"|>	c #ABAAAC",
"1>	c #DEDDDE",
"2>	c #D2D2D2",
"3>	c #ACABAD",
"4>	c #8C8B8D",
"5>	c #747273",
"6>	c #494748",
"7>	c #747475",
"8>	c #949395",
"9>	c #B3B3B4",
"0>	c #E2E2E2",
"a>	c #D7D7D7",
"b>	c #767576",
"c>	c #303134",
"d>	c #4B4341",
"e>	c #C15844",
"f>	c #A65A48",
"g>	c #674E47",
"h>	c #453D3C",
"i>	c #5E5D5E",
"j>	c #E14E3C",
"k>	c #EA4335",
"l>	c #7C564B",
"m>	c #717071",
"n>	c #D1D0D0",
"o>	c #E0E0E0",
"p>	c #929193",
"q>	c #717172",
"r>	c #403E3F",
"s>	c #7E7C7E",
"t>	c #C0C0C1",
"u>	c #F7F8F8",
"v>	c #A0A0A1",
"w>	c #2F3133",
"x>	c #4C4341",
"y>	c #CE5642",
"z>	c #D1533F",
"A>	c #9A5848",
"B>	c #735248",
"C>	c #544642",
"D>	c #505051",
"E>	c #CF5541",
"F>	c #87594C",
"G>	c #373638",
"H>	c #959596",
"I>	c #ECECEC",
"J>	c #EDEDEE",
"K>	c #727172",
"L>	c #5A5959",
"M>	c #454444",
"N>	c #403F40",
"O>	c #403F3F",
"P>	c #818182",
"Q>	c #B7B6B7",
"R>	c #EBEAEB",
"S>	c #C9C9C9",
"T>	c #646364",
"U>	c #5C4B46",
"V>	c #BE5845",
"W>	c #9B5948",
"X>	c #7D5348",
"Y>	c #3F3938",
"Z>	c #4A413F",
"`>	c #A25A4A",
" ,	c #373738",
".,	c #383739",
"+,	c #B6B5B6",
"@,	c #DCDBDB",
"#,	c #B3B2B3",
"$,	c #787778",
"%,	c #535252",
"&,	c #838284",
"*,	c #C3C3C4",
"=,	c #E8E7E7",
"-,	c #E5E5E6",
";,	c #2E3033",
">,	c #644E48",
",,	c #E84B3A",
"',	c #564642",
"),	c #525254",
"!,	c #ACAEB1",
"~,	c #CB5742",
"{,	c #B35B49",
"],	c #3E3B3C",
"^,	c #363637",
"/,	c #696768",
"(,	c #D0D0D1",
"_,	c #89898A",
":,	c #5A5859",
"<,	c #979799",
"[,	c #D8D8D9",
"},	c #9D9D9E",
"|,	c #303234",
"1,	c #7A554B",
"2,	c #EB4536",
"3,	c #473E3C",
"4,	c #2B2B2C",
"5,	c #57585A",
"6,	c #4B413F",
"7,	c #CA5641",
"8,	c #4A4341",
"9,	c #343537",
"0,	c #7B7B7C",
"a,	c #BAB9BA",
"b,	c #737273",
"c,	c #484647",
"d,	c #818081",
"e,	c #B6B6B7",
"f,	c #3F3E3E",
"g,	c #353537",
"h,	c #93594B",
"i,	c #AC5A47",
"j,	c #4F4F50",
"k,	c #A0A2A5",
"l,	c #5E4D48",
"m,	c #403E40",
"n,	c #8B8A8B",
"o,	c #6A6869",
"p,	c #414040",
"q,	c #848384",
"r,	c #5D5B5C",
"s,	c #B05B49",
"t,	c #EE3930",
"u,	c #955849",
"v,	c #232528",
"w,	c #4F4E50",
"x,	c #6D6E70",
"y,	c #5D5B5D",
"z,	c #EA4737",
"A,	c #7D574C",
"B,	c #343638",
"C,	c #424141",
"D,	c #818082",
"E,	c #D1D0D1",
"F,	c #D3D3D4",
"G,	c #4E4442",
"H,	c #825649",
"I,	c #9B5A4B",
"J,	c #363739",
"K,	c #3A3A3B",
"L,	c #A3A2A3",
"M,	c #777677",
"N,	c #434242",
"O,	c #5F5D5E",
"P,	c #909091",
"Q,	c #939294",
"R,	c #E7E7E7",
"S,	c #323335",
"T,	c #644F49",
"U,	c #EE4838",
"V,	c #555557",
"W,	c #5C4A46",
"X,	c #DF4F3D",
"Y,	c #434040",
"Z,	c #B7B7B8",
"`,	c #E4E4E4",
" '	c #908F90",
".'	c #4D4B4C",
"+'	c #6B6A6B",
"@'	c #959496",
"#'	c #CDCCCD",
"$'	c #DBDBDB",
"%'	c #B2B1B2",
"&'	c #333436",
"*'	c #8B594C",
"='	c #E34D3B",
"-'	c #9FA1A4",
";'	c #5F4C47",
">'	c #E34E3B",
",'	c #604E49",
"''	c #37383A",
")'	c #4C4A4B",
"!'	c #B6B5B7",
"~'	c #ECEDED",
"{'	c #BBBBBC",
"]'	c #605F5F",
"^'	c #CBCACB",
"/'	c #F3F2F3",
"('	c #E3E4E5",
"_'	c #B55B48",
":'	c #614C47",
"<'	c #2A2C2E",
"['	c #6B5049",
"}'	c #ED3D31",
"|'	c #88594C",
"1'	c #323436",
"2'	c #898889",
"3'	c #555354",
"4'	c #DFDEDE",
"5'	c #F6F5F5",
"6'	c #4E4D4D",
"7'	c #B1B0B1",
"8'	c #E5E5E7",
"9'	c #363638",
"0'	c #564A47",
"a'	c #D2533F",
"b'	c #D6533F",
"c'	c #4F4442",
"d'	c #464547",
"e'	c #66676A",
"f'	c #B0B2B4",
"g'	c #7B554A",
"h'	c #B95B48",
"i'	c #433F40",
"j'	c #3A3A3C",
"k'	c #C6C5C6",
"l'	c #444244",
"m'	c #7C7C7D",
"n'	c #A8A7A8",
"o'	c #E2E1E2",
"p'	c #FAFAFB",
"q'	c #8C8B8C",
"r'	c #828182",
"s'	c #E3E3E3",
"t'	c #E6E6E6",
"u'	c #646264",
"v'	c #323437",
"w'	c #7A564D",
"x'	c #D35440",
"y'	c #484140",
"z'	c #737476",
"A'	c #363537",
"B'	c #92594A",
"C'	c #E04E3B",
"D'	c #5D4D49",
"E'	c #959495",
"F'	c #A7A6A8",
"G'	c #858485",
"H'	c #B9B9B9",
"I'	c #DAD9DA",
"J'	c #FBFCFC",
"K'	c #DADADB",
"L'	c #666466",
"M'	c #C8C7C7",
"N'	c #616060",
"O'	c #3B3A3C",
"P'	c #AE5C4A",
"Q'	c #D25440",
"R'	c #4A4241",
"S'	c #AF5B48",
"T'	c #895A4D",
"U'	c #353639",
"V'	c #888788",
"W'	c #ECEBEB",
"X'	c #8F8F90",
"Y'	c #ACACAD",
"Z'	c #38393A",
"`'	c #524846",
" )	c #343335",
".)	c #828385",
"+)	c #433E3E",
"@)	c #D8533F",
"#)	c #423F3F",
"$)	c #3C3B3D",
"%)	c #E9EAEA",
"&)	c #DDDCDC",
"*)	c #706F70",
"=)	c #8D8C8E",
"-)	c #BBBABB",
";)	c #EFEEEF",
">)	c #FEFEFE",
",)	c #E1E1E1",
"')	c #999899",
"))	c #F2F3F4",
"!)	c #B8B7B8",
"~)	c #87594D",
"{)	c #666668",
"])	c #554845",
"^)	c #68524C",
"/)	c #36383A",
"()	c #DCDBDC",
"_)	c #D8D7D8",
":)	c #CFCFCF",
"<)	c #EAE9EA",
"[)	c #A2A1A3",
"})	c #878687",
"|)	c #F1F1F1",
"1)	c #A3A2A4",
"2)	c #3B3B3C",
"3)	c #C05B47",
"4)	c #514643",
"5)	c #2E2B2D",
"6)	c #A75C4A",
"7)	c #37393B",
"8)	c #C7C6C7",
"9)	c #6E6D6E",
"0)	c #989798",
"a)	c #E9E9E8",
"b)	c #5B595A",
"c)	c #464545",
"d)	c #757474",
"e)	c #EAE9E9",
"f)	c #858587",
"g)	c #38383A",
"h)	c #64504A",
"i)	c #634E48",
"j)	c #4D4C4E",
"k)	c #696A6B",
"l)	c #313335",
"m)	c #A85B49",
"n)	c #544A48",
"o)	c #3D3D3E",
"p)	c #C7C7C7",
"q)	c #9F9FA0",
"r)	c #9E9D9E",
"s)	c #474646",
"t)	c #E9E9E9",
"u)	c #686768",
"v)	c #393A3B",
"w)	c #A45C4B",
"x)	c #313234",
"y)	c #A3A5A8",
"z)	c #39383A",
"A)	c #403C3D",
"B)	c #CC5642",
"C)	c #8A5A4D",
"D)	c #747374",
"E)	c #ADADAE",
"F)	c #FDFDFE",
"G)	c #E7E6E7",
"H)	c #CDCDCD",
"I)	c #514F50",
"J)	c #38393B",
"K)	c #584B48",
"L)	c #D9513D",
"M)	c #EC4737",
"N)	c #77554B",
"O)	c #66504A",
"P)	c #E34E3C",
"Q)	c #C95844",
"R)	c #4C4645",
"S)	c #3C3C3D",
"T)	c #C6C6C6",
"U)	c #545253",
"V)	c #7F7F80",
"W)	c #B0AFB0",
"X)	c #E8E8E7",
"Y)	c #353739",
"Z)	c #955B4D",
"`)	c #82574B",
" !	c #2D3032",
".!	c #68686A",
"+!	c #8D594C",
"@!	c #83594D",
"#!	c #35373A",
"$!	c #D9D9D9",
"%!	c #777676",
"&!	c #EEEEEE",
"*!	c #7D7C7D",
"=!	c #3B3C3D",
"-!	c #534947",
";!	c #D55540",
">!	c #EF3B31",
",!	c #975B4C",
"'!	c #959799",
")!	c #454141",
"!!	c #BF5A46",
"~!	c #CD5743",
"{!	c #464242",
"]!	c #3E3E3F",
"^!	c #D9D8D8",
"/!	c #C3C2C3",
"(!	c #EBEAEA",
"_!	c #494848",
":!	c #F5F4F5",
"<!	c #86594D",
"[!	c #AD5C49",
"}!	c #77787A",
"|!	c #333437",
"1!	c #66514A",
"2!	c #EC4435",
"3!	c #7E584D",
"4!	c #3A3B3D",
"5!	c #DDDDDE",
"6!	c #646365",
"7!	c #908F8F",
"8!	c #C1C0C1",
"9!	c #F1F0EF",
"0!	c #656465",
"a!	c #484747",
"b!	c #979798",
"c!	c #4B4544",
"d!	c #D05540",
"e!	c #C45A46",
"f!	c #4B4443",
"g!	c #373739",
"h!	c #9E5B4B",
"i!	c #CC5744",
"j!	c #484444",
"k!	c #3F3E40",
"l!	c #B4B4B4",
"m!	c #D5D5D5",
"n!	c #C0BFBF",
"o!	c #E8E8E8",
"p!	c #AFAFAF",
"q!	c #4A4849",
"r!	c #7B7A7C",
"s!	c #383A3C",
"t!	c #895A4E",
"u!	c #EF3C32",
"v!	c #5A4C48",
"w!	c #363639",
"x!	c #4D4D4E",
"y!	c #535355",
"z!	c #97999C",
"A!	c #484242",
"B!	c #E0503C",
"C!	c #EB4033",
"D!	c #7F584E",
"E!	c #393A3D",
"F!	c #F2F2F1",
"G!	c #CCCBCC",
"H!	c #CFCFD0",
"I!	c #564B48",
"J!	c #D4533F",
"K!	c #EF3D33",
"L!	c #6D524B",
"M!	c #6F6F71",
"N!	c #CB5844",
"O!	c #514947",
"P!	c #3C3D3F",
"Q!	c #AEADAE",
"R!	c #4A4949",
"S!	c #797879",
"T!	c #E5E4E4",
"U!	c #969697",
"V!	c #38393C",
"W!	c #945B4C",
"X!	c #935B4C",
"Y!	c #616263",
"Z!	c #CA5844",
"`!	c #925C4E",
" ~	c #393B3D",
".~	c #969596",
"+~	c #504F4F",
"@~	c #C4C3C3",
"#~	c #F1F0F0",
"$~	c #E1E0E1",
"%~	c #E7E7E8",
"&~	c #626062",
"*~	c #3D3D3F",
"=~	c #5B4D4A",
"-~	c #E24F3C",
";~	c #C65844",
">~	c #333537",
",~	c #7E574C",
"'~	c #DD513D",
")~	c #594D4A",
"!~	c #3E3E40",
"~~	c #DDDCDD",
"{~	c #4B494A",
"]~	c #DDDDDD",
"^~	c #C0BFC0",
"/~	c #AF5C49",
"(~	c #F04335",
"_~	c #E94A3A",
":~	c #554947",
"<~	c #4D4D4F",
"[~	c #7A7A7D",
"}~	c #39393B",
"|~	c #484342",
"1~	c #C95843",
"2~	c #A95D4C",
"3~	c #3A3C3E",
"4~	c #A1A0A0",
"5~	c #4B4A4A",
"6~	c #6F6E6F",
"7~	c #ABAAAB",
"8~	c #E5E4E5",
"9~	c #F6F5F4",
"0~	c #7A7879",
"a~	c #D6D6D6",
"b~	c #3C3D3E",
"c~	c #84584C",
"d~	c #36373A",
"e~	c #4A4A4B",
"f~	c #6B6D6F",
"g~	c #69696B",
"h~	c #EE4436",
"i~	c #6A544E",
"j~	c #BCBCBC",
"k~	c #565455",
"l~	c #C9C9CA",
"m~	c #F9F7F7",
"n~	c #3F3F40",
"o~	c #C25A45",
"p~	c #BA5A47",
"q~	c #565758",
"r~	c #A4A6A9",
"s~	c #534846",
"t~	c #C15B47",
"u~	c #4A4545",
"v~	c #414142",
"w~	c #F3F2F2",
"x~	c #757576",
"y~	c #4B494B",
"z~	c #929293",
"A~	c #AAA9AA",
"B~	c #84594E",
"C~	c #DE513E",
"D~	c #604F4A",
"E~	c #8E8F92",
"F~	c #A65D4B",
"G~	c #8A5B4E",
"H~	c #3B3D3F",
"I~	c #BFBEBF",
"J~	c #4C4B4B",
"K~	c #E1E0E0",
"L~	c #C2C1C2",
"M~	c #626163",
"N~	c #DFDFDF",
"O~	c #5D4F4B",
"P~	c #D7523F",
"Q~	c #8B5A4C",
"R~	c #70554D",
"S~	c #EA4838",
"T~	c #DA523E",
"U~	c #60504C",
"V~	c #3D3E40",
"W~	c #E5E4E3",
"X~	c #4D4C4C",
"Y~	c #C6C6C7",
"Z~	c #F2F2F2",
"`~	c #E9E9EA",
" {	c #696869",
".{	c #B25D4A",
"+{	c #C45945",
"@{	c #474343",
"#{	c #3C3C3E",
"${	c #4F4745",
"%{	c #CC5843",
"&{	c #B65D4A",
"*{	c #3F3F41",
"={	c #D4D4D5",
"-{	c #949494",
";{	c #CAC9CA",
">{	c #D3D3D3",
",{	c #B3B2B2",
"'{	c #4F4D4E",
"){	c #79574E",
"!{	c #EB4938",
"~{	c #6E544D",
"{{	c #393A3C",
"]{	c #8A5C4F",
"^{	c #8B8A8C",
"/{	c #C8C8C8",
"({	c #8D8C8D",
"_{	c #F2F1F1",
":{	c #7F7E7E",
"<{	c #6D6C6D",
"[{	c #F6F4F4",
"}{	c #4C4747",
"|{	c #DB523E",
"1{	c #BD5B47",
"2{	c #3E3D3F",
"3{	c #49484A",
"4{	c #7F8082",
"5{	c #7F584D",
"6{	c #574D4B",
"7{	c #434344",
"8{	c #C4C3C4",
"9{	c #E9E8E8",
"0{	c #636162",
"a{	c #7E7D7E",
"b{	c #B5B4B5",
"c{	c #C0BEBF",
"d{	c #3F4041",
"e{	c #A95E4C",
"f{	c #6F544D",
"g{	c #424143",
"h{	c #6D6D6F",
"i{	c #65514B",
"j{	c #BB5C48",
"k{	c #434244",
"l{	c #6E6E6F",
"m{	c #6B6B6C",
"n{	c #6D6B6C",
"o{	c #3E3F41",
"p{	c #74574E",
"q{	c #B45C49",
"r{	c #504846",
"s{	c #D35340",
"t{	c #845A4E",
"u{	c #404142",
"v{	c #A9A9AA",
"w{	c #696868",
"x{	c #CDCDCE",
"y{	c #AAAAAB",
"z{	c #E0DFE0",
"A{	c #B2B2B3",
"B{	c #737172",
"C{	c #3F4042",
"D{	c #584E4C",
"E{	c #EA4537",
"F{	c #71554D",
"G{	c #4A494B",
"H{	c #A6A9AB",
"I{	c #C25946",
"J{	c #F04837",
"K{	c #60514E",
"L{	c #DCDDDE",
"M{	c #979697",
"N{	c #EBEBEC",
"O{	c #7B7A7B",
"P{	c #8E8D8E",
"Q{	c #E4E3E4",
"R{	c #444445",
"S{	c #AF5E4B",
"T{	c #EE3C32",
"U{	c #454242",
"V{	c #8B8C8F",
"W{	c #B15B49",
"X{	c #C25B47",
"Y{	c #504B4A",
"Z{	c #424344",
"`{	c #858484",
" ]	c #929292",
".]	c #D1D1D2",
"+]	c #B7B6B6",
"@]	c #A6A6A7",
"#]	c #595858",
"$]	c #3B3D40",
"%]	c #8C5C4F",
"&]	c #82594D",
"*]	c #4C4C4D",
"=]	c #818385",
"-]	c #413F3F",
";]	c #AB5B49",
">]	c #9D5D4D",
",]	c #3F4143",
"']	c #666666",
")]	c #6C6A6B",
"!]	c #E3E2E3",
"~]	c #F5F6F7",
"{]	c #4F4E4E",
"]]	c #848385",
"^]	c #6C554F",
"/]	c #717274",
"(]	c #403E3E",
"_]	c #AC5C49",
":]	c #7E594F",
"<]	c #3A3E40",
"[]	c #D2D2D3",
"}]	c #868586",
"|]	c #615F60",
"1]	c #B4B4B5",
"2]	c #817F80",
"3]	c #C0BFC1",
"4]	c #C5C4C4",
"5]	c #666565",
"6]	c #B0B0B0",
"7]	c #4E4948",
"8]	c #B05D4B",
"9]	c #3D3C3E",
"0]	c #313235",
"a]	c #4B4442",
"b]	c #B75B48",
"c]	c #DB533F",
"d]	c #63524E",
"e]	c #414243",
"f]	c #7C7B7D",
"g]	c #F0F0F2",
"h]	c #D9D8D9",
"i]	c #A5A4A6",
"j]	c #6E6C6D",
"k]	c #828082",
"l]	c #706E6F",
"m]	c #3D3F41",
"n]	c #B15C4A",
"o]	c #E84535",
"p]	c #7D584D",
"q]	c #4B4B4C",
"r]	c #AFB1B3",
"s]	c #575557",
"t]	c #564946",
"u]	c #A1A1A2",
"v]	c #F9F8F8",
"w]	c #E6E5E4",
"x]	c #646263",
"y]	c #E4E4E3",
"z]	c #404143",
"A]	c #895B4F",
"B]	c #5C4D49",
"C]	c #A8A9AC",
"D]	c #353436",
"E]	c #6D5149",
"F]	c #D4513E",
"G]	c #A65D4C",
"H]	c #3C3E40",
"I]	c #BABABB",
"J]	c #949394",
"K]	c #6C6A6C",
"L]	c #DEDDDD",
"M]	c #66534E",
"N]	c #EE4938",
"O]	c #C25945",
"P]	c #484343",
"Q]	c #3B3B3D",
"R]	c #49494A",
"S]	c #96989A",
"T]	c #8B594B",
"U]	c #E34939",
"V]	c #EF4135",
"W]	c #885B4E",
"X]	c #B3B3B3",
"Y]	c #6F6D6E",
"Z]	c #B2B2B2",
"`]	c #CACACB",
" ^	c #4F4A49",
".^	c #DB513E",
"+^	c #A65C4B",
"@^	c #6A6B6D",
"#^	c #7A7A7C",
"$^	c #A15A4A",
"%^	c #EC4938",
"&^	c #64524D",
"*^	c #414143",
"=^	c #5C5B5B",
"-^	c #BB5B48",
";^	c #8C5A4D",
">^	c #7C554A",
",^	c #ED4435",
"'^	c #DF4F3C",
")^	c #4D4847",
"!^	c #A8A7A9",
"~^	c #555454",
"{^	c #B5B5B5",
"]^	c #5D5C5C",
"^^	c #828183",
"/^	c #424244",
"(^	c #985D4E",
"_^	c #656566",
":^	c #C15946",
"<^	c #464444",
"[^	c #B9B8BA",
"}^	c #F0F0F0",
"|^	c #6E6C6E",
"1^	c #AFAEAF",
"2^	c #75554C",
"3^	c #535455",
"4^	c #D05541",
"5^	c #A15D4D",
"6^	c #FAFBFC",
"7^	c #3D3F42",
"8^	c #6C554E",
"9^	c #EA4235",
"0^	c #76554C",
"a^	c #2D2E31",
"b^	c #77544A",
"c^	c #EB4436",
"d^	c #8C5B4E",
"e^	c #EDEDEC",
"f^	c #6F6E6E",
"g^	c #8A898A",
"h^	c #EDEDED",
"i^	c #595758",
"j^	c #5D4F4C",
"k^	c #79554C",
"l^	c #383839",
"m^	c #484849",
"n^	c #474648",
"o^	c #C1C2C3",
"p^	c #B05B48",
"q^	c #72554E",
"r^	c #5C5A5B",
"s^	c #DCDCDC",
"t^	c #534B49",
"u^	c #C75844",
"v^	c #EA4536",
"w^	c #8A594C",
"x^	c #929294",
"y^	c #323234",
"z^	c #5D4B47",
"A^	c #E84737",
"B^	c #66524C",
"C^	c #3B3C3F",
"D^	c #EDECEC",
"E^	c #656464",
"F^	c #A09FA0",
"G^	c #C1C1C2",
"H^	c #424243",
"I^	c #484545",
"J^	c #B55C49",
"K^	c #A15B4A",
"L^	c #8C8D8F",
"M^	c #9E5B4A",
"N^	c #717070",
"O^	c #DAD9D9",
"P^	c #A55C4B",
"Q^	c #78544A",
"R^	c #666669",
"S^	c #7C7D7F",
"T^	c #564845",
"U^	c #E24C3A",
"V^	c #544B49",
"W^	c #FAFBFA",
"X^	c #8E8D8F",
"Y^	c #34383A",
"Z^	c #A85A49",
"`^	c #3B3839",
" /	c #7A7B7C",
"./	c #333435",
"+/	c #9A5A4B",
"@/	c #4C4646",
"#/	c #EEEDED",
"$/	c #4C4A4C",
"%/	c #D7D6D7",
"&/	c #36383B",
"*/	c #855A4E",
"=/	c #C25845",
"-/	c #413D3D",
";/	c #757577",
">/	c #303133",
",/	c #5B4B46",
"'/	c #AE5C49",
")/	c #969698",
"!/	c #D6D6D7",
"~/	c #9E9C9D",
"{/	c #E7E6E6",
"]/	c #7C584E",
"^/	c #D94E3C",
"//	c #5D4B46",
"(/	c #AF5B49",
"_/	c #A35C4C",
":/	c #7A7A7B",
"</	c #D8D8D8",
"[/	c #9D9C9D",
"}/	c #C1C1C1",
"|/	c #DFE0E0",
"1/	c #3B3C3E",
"2/	c #6A534C",
"3/	c #82584C",
"4/	c #6A6A6C",
"5/	c #695049",
"6/	c #995C4D",
"7/	c #313437",
"8/	c #CCCBCB",
"9/	c #B1B1B2",
"0/	c #D6D5D6",
"a/	c #6B696B",
"b/	c #E24E3C",
"c/	c #B65A47",
"d/	c #484749",
"e/	c #6A6A6B",
"f/	c #3D3B3B",
"g/	c #CF5642",
"h/	c #995D4D",
"i/	c #C8C8CA",
"j/	c #FAF9F9",
"k/	c #7F7E7F",
"l/	c #5B4D49",
"m/	c #594B47",
"n/	c #69696A",
"o/	c #89584B",
"p/	c #323537",
"q/	c #99999A",
"r/	c #EFEEEE",
"s/	c #BBBBBB",
"t/	c #F4F3F3",
"u/	c #767676",
"v/	c #524948",
"w/	c #D65441",
"x/	c #EE4134",
"y/	c #8E594B",
"z/	c #5D4C48",
"A/	c #E14939",
"B/	c #80594D",
"C/	c #A8A8A9",
"D/	c #7C7C7C",
"E/	c #9C9B9C",
"F/	c #534948",
"G/	c #454040",
"H/	c #453F3F",
"I/	c #C05A46",
"J/	c #7F574C",
"K/	c #343639",
"L/	c #C0C0C2",
"M/	c #7D564B",
"N/	c #95594A",
"O/	c #80574C",
"P/	c #D0CFCF",
"Q/	c #4A4444",
"R/	c #D35541",
"S/	c #515153",
"T/	c #71524A",
"U/	c #80584D",
"V/	c #C6C5C7",
"W/	c #DBDADB",
"X/	c #E6E5E6",
"Y/	c #71534A",
"Z/	c #4F4543",
"`/	c #C5C5C6",
" (	c #B1B1B1",
".(	c #C2C2C2",
"+(	c #BEBEBF",
"@(	c #939293",
"#(	c #C85743",
"$(	c #C55944",
"%(	c #464140",
"&(	c #F6F4F5",
"*(	c #B6B6B6",
"=(	c #C95744",
"-(	c #84574B",
";(	c #2D2F32",
">(	c #A35B4A",
",(	c #A5A4A5",
"'(	c #D25441",
")(	c #3F3D3F",
"!(	c #656466",
"~(	c #7E564B",
"{(	c #313336",
"](	c #E2E1E1",
"^(	c #A2A2A3",
"/(	c #B9B8B9",
"((	c #504745",
"_(	c #D65340",
":(	c #A65B49",
"<(	c #444345",
"[(	c #414042",
"}(	c #AFADAF",
"|(	c #9A9A9B",
"1(	c #F3F4F3",
"2(	c #D55340",
"3(	c #69686A",
"4(	c #4B4342",
"5(	c #2F3134",
"6(	c #949495",
"7(	c #4F4645",
"8(	c #D45440",
"9(	c #D15541",
"0(	c #45403F",
"a(	c #423E3E",
"b(	c #985B4C",
"c(	c #2D3033",
"d(	c #A6A5A7",
"e(	c #C3C1C2",
"f(	c #39393A",
"g(	c #D8523E",
"h(	c #9A5A4A",
"i(	c #706F71",
"j(	c #C65843",
"k(	c #2A2D30",
"l(	c #6F6F70",
"m(	c #807F80",
"n(	c #757375",
"o(	c #B4B3B5",
"p(	c #353638",
"q(	c #68514B",
"r(	c #ED4335",
"s(	c #717173",
"t(	c #353335",
"u(	c #3A3738",
"v(	c #A25B4B",
"w(	c #BDBDBD",
"x(	c #A1A0A1",
"y(	c #68514A",
"z(	c #544845",
"A(	c #333335",
"B(	c #505052",
"C(	c #7E7F80",
"D(	c #AC5B48",
"E(	c #EAEAEB",
"F(	c #E1E1E2",
"G(	c #7B574C",
"H(	c #8B8B8D",
"I(	c #A05A49",
"J(	c #B95A47",
"K(	c #443F3F",
"L(	c #727272",
"M(	c #C0C0C0",
"N(	c #8D8D8E",
"O(	c #CBCBCC",
"P(	c #535353",
"Q(	c #93594A",
"R(	c #2A2C2F",
"S(	c #98999A",
"T(	c #8C574A",
"U(	c #C85844",
"V(	c #4C4342",
"W(	c #686769",
"X(	c #D0D0D0",
"Y(	c #C4C4C5",
"Z(	c #292D2F",
"`(	c #945A4B",
" _	c #76544B",
"._	c #8B584A",
"+_	c #D7533F",
"@_	c #D9D9DA",
"#_	c #A7A6A7",
"$_	c #5B5B5B",
"%_	c #C8C7C8",
"&_	c #7E7D7F",
"*_	c #888789",
"=_	c #5B4A46",
"-_	c #614D48",
";_	c #BEBDBE",
">_	c #777778",
",_	c #D4D3D3",
"'_	c #A1A1A3",
")_	c #403D3D",
"!_	c #B45B47",
"~_	c #3E3A3B",
"{_	c #9D5A49",
"]_	c #6E524A",
"^_	c #AFAEB0",
"/_	c #8B8B8C",
"(_	c #DBDBDC",
"__	c #A5A5A5",
":_	c #4C4443",
"<_	c #AA5A47",
"[_	c #EBECED",
"}_	c #A7A7A7",
"|_	c #3C3B3B",
"1_	c #E4E5E5",
"2_	c #554945",
"3_	c #D9523F",
"4_	c #AE5A48",
"5_	c #403F41",
"6_	c #AA5A48",
"7_	c #9E5949",
"8_	c #CAC9C9",
"9_	c #DFE0E1",
"0_	c #665049",
"a_	c #EB4134",
"b_	c #955A4B",
"c_	c #313233",
"d_	c #79787A",
"e_	c #535153",
"f_	c #3B3737",
"g_	c #313134",
"h_	c #78554B",
"i_	c #929394",
"j_	c #3D3938",
"k_	c #3C3939",
"l_	c #787779",
"m_	c #C9C8C9",
"n_	c #F5F4F4",
"o_	c #965A4B",
"p_	c #2F2F30",
"q_	c #433C3B",
"r_	c #5A4A46",
"s_	c #C3C3C3",
"t_	c #E3E4E4",
"u_	c #868587",
"v_	c #737274",
"w_	c #DEDEDF",
"x_	c #9F9EA0",
"y_	c #BB5A46",
"z_	c #6C5048",
"A_	c #574743",
"B_	c #7E554A",
"C_	c #2F3031",
"D_	c #D4D3D4",
"E_	c #EAEAE9",
"F_	c #CECDCE",
"G_	c #F3F3F2",
"H_	c #E0E1E1",
"I_	c #9E9E9F",
"J_	c #423D3D",
"K_	c #DB503E",
"L_	c #6D5048",
"M_	c #A35A49",
"N_	c #2A2B2E",
"O_	c #626061",
"P_	c #ACABAC",
"Q_	c #B2B1B3",
"R_	c #EE4A39",
"S_	c #C45844",
"T_	c #C9C7C8",
"U_	c #F4F5F4",
"V_	c #666667",
"W_	c #E4E4E5",
"X_	c #835649",
"Y_	c #D8523F",
"Z_	c #828282",
"`_	c #B05A48",
" :	c #6D5049",
".:	c #4B403E",
"+:	c #765349",
"@:	c #27292B",
"#:	c #ECECED",
"$:	c #C9C8C8",
"%:	c #323233",
"&:	c #725148",
"*:	c #4C4C4E",
"=:	c #212124",
"-:	c #995949",
";:	c #E0E1E2",
">:	c #979698",
",:	c #CBCBCB",
"':	c #E24E3B",
"):	c #BE5946",
"!:	c #BCBCBD",
"~:	c #BFBFC0",
"{:	c #F9F8F7",
"]:	c #9E9D9F",
"^:	c #292B2D",
"/:	c #86564A",
"(:	c #94594A",
"_:	c #B95A46",
"::	c #E74838",
"<:	c #534642",
"[:	c #626262",
"}:	c #A2A1A2",
"|:	c #AD5A48",
"1:	c #727274",
"2:	c #594642",
"3:	c #E84837",
"4:	c #7E5448",
"5:	c #656364",
"6:	c #E6E5E5",
"7:	c #B95946",
"8:	c #BDBEBF",
"9:	c #DFDEDF",
"0:	c #EEEFEE",
"a:	c #787879",
"b:	c #919192",
"c:	c #D5533F",
"d:	c #EAEBEC",
"e:	c #A4A4A5",
"f:	c #DBDADA",
"g:	c #C2C3C4",
"h:	c #504340",
"i:	c #644B44",
"j:	c #85564A",
"k:	c #767577",
"l:	c #D3D2D2",
"m:	c #B4B2B4",
"n:	c #D5D4D5",
"o:	c #9A999A",
"p:	c #403A3A",
"q:	c #6D4E46",
"r:	c #4F4D4F",
"s:	c #A95947",
"t:	c #B45A47",
"u:	c #363535",
"v:	c #D6D5D5",
"w:	c #EEEEF0",
"x:	c #755349",
"y:	c #EE4837",
"z:	c #8F5748",
"A:	c #DC4E3C",
"B:	c #DA503C",
"C:	c #574642",
"D:	c #E8E9E9",
"E:	c #989799",
"F:	c #AB5A48",
"G:	c #AC5947",
"H:	c #865649",
"I:	c #CDCCCC",
"J:	c #483E3C",
"K:	c #605E5F",
"L:	c #838385",
"M:	c #7F5449",
"N:	c #EA4435",
"O:	c #624B44",
"P:	c #1D1E20",
"Q:	c #706F6F",
"R:	c #3E3735",
"S:	c #995747",
"T:	c #D84F3D",
"U:	c #7E7E7F",
"V:	c #C4C4C4",
"W:	c #848485",
"X:	c #3A3637",
"Y:	c #8C5648",
"Z:	c #272728",
"`:	c #4D403D",
" <	c #A75948",
".<	c #2B2829",
"+<	c #D8D9DA",
"@<	c #C55642",
"#<	c #322F2F",
"$<	c #AE5745",
"%<	c #514440",
"&<	c #A85A48",
"*<	c #ED4837",
"=<	c #52433F",
"-<	c #704E45",
";<	c #D2523E",
"><	c #8F5749",
",<	c #4E423F",
"'<	c #E04F3C",
")<	c #985747",
"!<	c #1B1B1E",
"~<	c #272527",
"{<	c #483D3A",
"]<	c #A55846",
"^<	c #F4F3F4",
"/<	c #F1F2F1",
"(<	c #7D5246",
"_<	c #4D413E",
":<	c #805347",
"<<	c #727171",
"[<	c #CD5441",
"}<	c #EDECED",
"|<	c #815448",
"1<	c #CD4E3C",
"2<	c #7A5246",
"3<	c #B75744",
"4<	c #232325",
"5<	c #F3F1F1",
"6<	c #3E3838",
"7<	c #C65541",
"8<	c #7E5246",
"9<	c #443B39",
"0<	c #525151",
"a<	c #383333",
"b<	c #AE5845",
"c<	c #CE5440",
"d<	c #373333",
"e<	c #6C6C6D",
"f<	c #E8E7E8",
"g<	c #744F45",
"h<	c #322E2E",
"i<	c #1B1A1D",
"j<	c #9B5747",
"k<	c #7E5347",
"l<	c #1C1D1F",
"m<	c #C5C5C5",
"n<	c #78787A",
"o<	c #282829",
"p<	c #D2513E",
"q<	c #845447",
"r<	c #342F30",
"s<	c #C75642",
"t<	c #3B3534",
"u<	c #ABABAC",
"v<	c #1F1F22",
"w<	c #9F5746",
"x<	c #473D3A",
"y<	c #A65846",
"z<	c #875548",
"A<	c #4E413E",
"B<	c #D54F3C",
"C<	c #6C4D44",
"D<	c #8C8A8A",
"E<	c #353030",
"F<	c #B15945",
"G<	c #EEEEED",
"H<	c #A15846",
"I<	c #403837",
"J<	c #1C1B1E",
"K<	c #3F3736",
"L<	c #C75541",
"M<	c #A15847",
"N<	c #ADACAE",
"O<	c #EFEFEF",
"P<	c #5F4943",
"Q<	c #6F6D6D",
"R<	c #E14938",
"S<	c #505050",
"T<	c #DADBDC",
"U<	c #A1A0A2",
"V<	c #2F2C2D",
"W<	c #C05744",
"X<	c #5F4842",
"Y<	c #6D4E45",
"Z<	c #BB5743",
"`<	c #312E2E",
" [	c #DADADA",
".[	c #4B3E3B",
"+[	c #686767",
"@[	c #885547",
"#[	c #838384",
"$[	c #F6F7F8",
"%[	c #EAECED",
"&[	c #BE5643",
"*[	c #403836",
"=[	c #19191B",
"-[	c #444343",
";[	c #363130",
">[	c #C05642",
",[	c #4E403D",
"'[	c #A09FA1",
")[	c #B15946",
"![	c #3E3635",
"~[	c #5F5D5F",
"{[	c #F0EFEF",
"][	c #9B9A9B",
"^[	c #767677",
"/[	c #775146",
"([	c #EF4738",
"_[	c #BE5744",
":[	c #343030",
"<[	c #905546",
"[[	c #E9E8E9",
"}[	c #D5503D",
"|[	c #BF5643",
"1[	c #5C5A5A",
"2[	c #393333",
"3[	c #E14B39",
"4[	c #574540",
"5[	c #C8C9CA",
"6[	c #EAEBEB",
"7[	c #CD5440",
"8[	c #2B2929",
"9[	c #755045",
"0[	c #F1F0F1",
"a[	c #8A898B",
"b[	c #855447",
"c[	c #E14C3A",
"d[	c #564440",
"e[	c #5F5D5D",
"f[	c #BD5844",
"g[	c #1F1E21",
"h[	c #604942",
"i[	c #E44A39",
"j[	c #E94335",
"k[	c #434141",
"l[	c #634A43",
"m[	c #775046",
"n[	c #7A797B",
"o[	c #453B3A",
"p[	c #615F5F",
"q[	c #5A4641",
"r[	c #B15846",
"s[	c #C35742",
"t[	c #EE4235",
"u[	c #CF533F",
"v[	c #423A38",
"w[	c #B3B2B4",
"x[	c #1D1B1C",
"y[	c #955748",
"z[	c #53433F",
"A[	c #686666",
"B[	c #3A3432",
"C[	c #C75542",
"D[	c #B65946",
"E[	c #332F30",
"F[	c #765146",
"G[	c #EF4537",
"H[	c #875547",
"I[	c #2E2C2C",
"J[	c #895446",
"K[	c #EE3D32",
"L[	c #89888A",
"M[	c #908F91",
"N[	c #18181C",
"O[	c #624943",
"P[	c #E54837",
"Q[	c #C35542",
"R[	c #7A7878",
"S[	c #4E403C",
"T[	c #895548",
"U[	c #5D5D5D",
"V[	c #584540",
"W[	c #DA4E3C",
"X[	c #684C44",
"Y[	c #545252",
"Z[	c #B55846",
"`[	c #EE4435",
" }	c #775045",
".}	c #514F51",
"+}	c #473C3A",
"@}	c #B05946",
"#}	c #734F45",
"$}	c #704F45",
"%}	c #EEEDEE",
"&}	c #808081",
"*}	c #ED4636",
"=}	c #574440",
"-}	c #646262",
";}	c #413836",
">}	c #E84A39",
",}	c #E74737",
"'}	c #9B9A9C",
")}	c #484646",
"!}	c #2C2829",
"~}	c #BA5743",
"{}	c #E44837",
"]}	c #D7D6D6",
"^}	c #AB5745",
"/}	c #E24838",
"(}	c #211F1F",
"_}	c #855346",
":}	c #EB4837",
"<}	c #715046",
"[}	c #E1E0E2",
"}}	c #F0F1F3",
"|}	c #AD5846",
"1}	c #5F5C5C",
"2}	c #5C4640",
"3}	c #E44737",
"4}	c #ED4737",
"5}	c #464443",
"6}	c #483C39",
"7}	c #E54938",
"8}	c #A9A9AB",
"9}	c #E6E6E7",
"0}	c #312D2E",
"a}	c #2F2B2B",
"b}	c #B45846",
"c}	c #EB4737",
"d}	c #815347",
"e}	c #BAB9BB",
"f}	c #C65441",
"g}	c #8D5547",
"h}	c #A05746",
"i}	c #8E5647",
"j}	c #5E4842",
"k}	c #EE4536",
"l}	c #53433E",
"m}	c #4F4D4D",
"n}	c #0F0F13",
"o}	c #7F5245",
"p}	c #A25846",
"q}	c #E04938",
"r}	c #C35743",
"s}	c #373131",
"t}	c #3E3D3D",
"u}	c #6D4D44",
"v}	c #BE5642",
"w}	c #483E3B",
"x}	c #1D1B1B",
"y}	c #1B191C",
"z}	c #5A4540",
"A}	c #D1503D",
"B}	c #BABBBC",
"C}	c #737374",
"D}	c #434143",
"E}	c #A95846",
"F}	c #E54736",
"G}	c #664A42",
"H}	c #131316",
"I}	c #656362",
"J}	c #453A38",
"K}	c #DA503D",
"L}	c #845347",
"M}	c #4D4B4D",
"N}	c #54443F",
"O}	c #C55542",
"P}	c #CE5540",
"Q}	c #504D4D",
"R}	c #3B3432",
"S}	c #AB5845",
"T}	c #443A38",
"U}	c #DCDCDE",
"V}	c #7B5347",
"W}	c #B75845",
"X}	c #1F1D1D",
"Y}	c #403E3D",
"Z}	c #CF5440",
"`}	c #674B44",
" |	c #6D6D6E",
".|	c #E9EAEB",
"+|	c #935646",
"@|	c #141416",
"#|	c #3A3939",
"$|	c #D05340",
"%|	c #6B4D45",
"&|	c #CE5340",
"*|	c #6E4D44",
"=|	c #1C1A1B",
"-|	c #3A3837",
";|	c #1B1A1C",
">|	c #DE4C3A",
",|	c #DD4F3D",
"'|	c #6C6B6D",
")|	c #868687",
"!|	c #99999B",
"~|	c #BBBCBD",
"{|	c #413937",
"]|	c #9C5747",
"^|	c #E94B39",
"/|	c #4E3F3C",
"(|	c #1C1A1A",
"_|	c #6E6C6C",
":|	c #3A3838",
"<|	c #443A37",
"[|	c #4A3D3A",
"}|	c #493C39",
"||	c #483B39",
"1|	c #55433E",
"2|	c #57443F",
"3|	c #7A5145",
"4|	c #E44B3A",
"5|	c #E14A39",
"6|	c #171315",
"7|	c #181516",
"8|	c #585656",
"9|	c #171618",
"0|	c #141317",
"a|	c #3B3433",
"b|	c #634942",
"c|	c #8E5547",
"d|	c #D0523E",
"e|	c #724F46",
"f|	c #4C4949",
"g|	c #714E45",
"h|	c #955546",
"i|	c #905647",
"j|	c #DC4F3B",
"k|	c #F04839",
"l|	c #B25744",
"m|	c #494646",
"n|	c #6B4C44",
"o|	c #B25845",
"p|	c #E34B3A",
"q|	c #353130",
"r|	c #785045",
"s|	c #EB4A39",
"t|	c #A45846",
"u|	c #965747",
"v|	c #CD533F",
"w|	c #945647",
"x|	c #6B4D44",
"y|	c #EE3D31",
"z|	c #C45542",
"A|	c #925646",
"B|	c #855446",
"C|	c #875446",
"D|	c #785046",
"E|	c #674B43",
"F|	c #684B43",
"G|	c #744F44",
"H|	c #895547",
"I|	c #845346",
"J|	c #3F3D3C",
"K|	c #3F3D3D",
"L|	c #865446",
"M|	c #D5503C",
"N|	c #935647",
"O|	c #212023",
"P|	c #302D2D",
"Q|	c #7F5246",
"R|	c #101013",
"S|	c #171619",
"T|	c #131215",
"U|	c #100F13",
"V|	c #161517",
"W|	c #3E3C3C",
"X|	c #423937",
"Y|	c #955646",
"Z|	c #DF4C39",
"`|	c #985646",
" 1	c #C95541",
".1	c #EE4737",
"+1	c #DD4D3B",
"@1	c #BB5845",
"#1	c #835346",
"$1	c #1C1919",
"%1	c #654B43",
"&1	c #191A1C",
"*1	c #BB5643",
"=1	c #885446",
"-1	c #50413E",
";1	c #785146",
">1	c #7F5347",
",1	c #413938",
"'1	c #D94F3B",
")1	c #654B44",
"!1	c #322D2E",
"~1	c #151619",
"{1	c #463C39",
"]1	c #A65847",
"^1	c #674C44",
"/1	c #322E2F",
"(1	c #DC4B3A",
"_1	c #A45847",
":1	c #444242",
"<1	c #835347",
"[1	c #CA5440",
"}1	c #2D2B2B",
"|1	c #383636",
"11	c #D7503D",
"21	c #EC4A39",
"31	c #CC523F",
"41	c #614943",
"51	c #BB5744",
"61	c #525050",
"71	c #E54C3A",
"81	c #664B44",
"91	c #4F413E",
"01	c #141418",
"a1	c #17181B",
"b1	c #AC5846",
"c1	c #DA4E3B",
"d1	c #191718",
"e1	c #5C5A59",
"f1	c #333131",
"g1	c #DE4E3C",
"h1	c #594640",
"i1	c #955747",
"j1	c #AD5845",
"k1	c #CA5340",
"l1	c #B05845",
"m1	c #191717",
"n1	c #343232",
"o1	c #B85744",
"p1	c #E84C3A",
"q1	c #BC5945",
"r1	c #9C5847",
"s1	c #835448",
"t1	c #3B3434",
"u1	c #302D2E",
"v1	c #51423F",
"w1	c #7A5146",
"x1	c #B15845",
"y1	c #DE4E3B",
"z1	c #353333",
"A1	c #1E1C1F",
"B1	c #393332",
"C1	c #B45946",
"D1	c #A85947",
"E1	c #A75946",
"F1	c #D7513E",
"G1	c #D74E3C",
"H1	c #413F3E",
"I1	c #BA5744",
"J1	c #F04235",
"K1	c #BD5542",
"L1	c #1A1819",
"M1	c #1B1919",
"N1	c #555352",
"O1	c #2F2D2D",
"P1	c #B75644",
"Q1	c #161619",
"R1	c #D84F3C",
"S1	c #A65845",
"T1	c #2E2B2B",
"U1	c #181616",
"V1	c #3B3939",
"W1	c #694C43",
"X1	c #E84838",
"Y1	c #A95946",
"Z1	c #1A1818",
"`1	c #1B1819",
" 2	c #4D4B4A",
".2	c #312F2F",
"+2	c #865447",
"@2	c #E84B39",
"#2	c #D5523F",
"$2	c #C65340",
"%2	c #8D5546",
"&2	c #3A3333",
"*2	c #5D4842",
"=2	c #DC503D",
"-2	c #191616",
";2	c #343332",
">2	c #363434",
",2	c #AD5745",
"'2	c #664B43",
")2	c #473C39",
"!2	c #222122",
"~2	c #302C2C",
"{2	c #995746",
"]2	c #BC5743",
"^2	c #EA4938",
"/2	c #BD5743",
"(2	c #352F2F",
"_2	c #1F1E1F",
":2	c #434140",
"<2	c #453A37",
"[2	c #0F1013",
"}2	c #121316",
"|2	c #383231",
"12	c #805246",
"22	c #C95440",
"32	c #454546",
"42	c #EA4134",
"52	c #975646",
"62	c #CA5441",
"72	c #5A4640",
"82	c #484645",
"92	c #B45745",
"02	c #E64B3A",
"a2	c #5F4741",
"b2	c #B85844",
"c2	c #754F45",
"d2	c #18171A",
"e2	c #56433E",
"f2	c #E64939",
"g2	c #9B5646",
"h2	c #4B3E3A",
"i2	c #111114",
"j2	c #1A1717",
"k2	c #555353",
"l2	c #31302F",
"m2	c #1C1A1C",
"n2	c #945646",
"o2	c #B05745",
"p2	c #704E44",
"q2	c #CA5540",
"r2	c #C85541",
"s2	c #474645",
"t2	c #2C2A2A",
"u2	c #2F2A2A",
"v2	c #292526",
"w2	c #EC4436",
"x2	c #624941",
"y2	c #1F1C1C",
"z2	c #58443F",
"A2	c #1E1D1E",
"B2	c #2A2828",
"C2	c #393737",
"D2	c #191617",
"E2	c #1B191A",
"F2	c #3A3938",
"G2	c #1E1C1C",
"H2	c #181617",
"I2	c #3C3B3A",
"J2	c #282727",
"K2	c #313030",
"L2	c #2C2B2A",
"M2	c #201C1E",
"N2	c #4B4948",
"O2	c #282525",
"P2	c #302F2F",
"Q2	c #171516",
"R2	c #3D3B3A",
"S2	c #292827",
"T2	c #191817",
"U2	c #504E4E",
"V2	c #333130",
"W2	c #292727",
"X2	c #252323",
"Y2	c #272525",
"Z2	c #3B393B",
"`2	c #1A1817",
" 3	c #201E1E",
".3	c #272524",
"+3	c #2D2C2C",
"@3	c #262424",
"#3	c #3A393B",
"$3	c #242222",
"%3	c #211E1E",
"&3	c #242322",
"*3	c #282626",
"=3	c #222020",
"-3	c #1C1A19",
";3	c #2E2D2D",
">3	c #262525",
",3	c #1D1C1B",
"'3	c #1E1D1D",
")3	c #232121",
"!3	c #373635",
"~3	c #252423",
"{3	c #222121",
"]3	c #212020",
"^3	c #201D1D",
"/3	c #454343",
"(3	c #2B2A29",
"_3	c #222120",
":3	c #21201F",
"<3	c #242323",
"                                                                                                                                                                                                                                                                                                                                                                                                                                                                                                                                ",
"                                                                                                                                                                                                                                                                                                                                                                                                                                                                                                                                ",
"                                                                                                                                                                                                                                                                                                                                                                                                                                                                                                                                ",
"                                                                                                                                                                                                                                    . + @ # $ % & * = - = ; ; ; - ; - > > ; = , ' & ) ! ~ { ]                                                                                                                                                                                                                                   ",
"                                                                                                                                                                                                                      ^ / ( _ = : < [ } | 1 2 3 4 5 } 6 7 8 9 8 7 8 7 9 7 9 0 4 a 3 2 1 | b < < } c d e f g                                                                                                                                                                                                                     ",
"                                                                                                                                                                                                            h i j k b l m l n a 6 6 o p q r s t u u v u v u v u v v v u v w u v t u s x q p y z A a n B m < : c C D E                                                                                                                                                                                                           ",
"                                                                                                                                                                                                  ] E F > } 3 G l 6 6 y p x u H I I J J J J J J J J w K w J K J K J K J J K K w J J K J I I I I I L v M N O P z l 4 : Q 1 R S                                                                                                                                                                                                   ",
"                                                                                                                                                                                            T U 3 < V 2 } A p W M u L J J J v u M v M M v M M s s v v v u v t v s J w J v v u u v v M v v M v u v J J J I X I w M Y Z ` a  .l < ; ..T                                                                                                                                                                                           ",
"                                                                                                                                                                                      ( +.| @.#.} z $.M w J J K K J M x W %.u &.*.=.-.;.>.,.'.).!.~.{.].^././.^.^.^.^./.(.~._.:.<.[.,.}.;.-.|.1.I J W 2.2.v I I I I I I J u $.3.4.< 5.b _ 6.                                                                                                                                                                                    ",
"                                                                                                                                                                              7.8.9.Q  .a z 0.x K K K K v J u x %.a.b.c.}.d.e.f.g.^.h.i.j.k.k.k.l.k.h.h.m.h.n.m.m.h.h.h.h.h.m.k.k.k.k.o.p.m.q.r.s.e.t.}.u.1.M x M t K J L I L I I 2.N 3.4.b 4.9.v.                                                                                                                                                                              ",
"                                                                                                                                                                          w.% m } 0 P x.M K I J u v 2.M v L c.y.z.A.B./.h.C.i.o.D.E.F.G.F.H.G.F.I.F.F.G.G.G.I.I.H.H.G.H.I.G.H.H.I.I.F.G.G.J.F.D.K.L.p.h.^.B.M.z.N.-.X K v 2.u J L H *.H K a.O } l O.P.Q.                                                                                                                                                                        ",
"                                                                                                                                                                    R.' 3 l 9 z W w L I J J M q v 1.u.S.f.q.G.h.k.o.k.m.T.F.G.H.H.H.F.I.H.I.G.I.F.I.I.G.H.G.I.G.G.F.I.G.H.I.G.G.F.I.I.F.I.H.H.G.G.G.I.U.h.V.o.k.U.I.q.W.X.Y.|.v x J J H I Z.I I Y O 3.@.4 `. +                                                                                                                                                                  ",
"                                                                                                                                                                .+: } 4 6 ++s I J J v v x u ;.@+#+r.V.p.k.J.U.F.F.G.G.G.G.G.H.H.H.G.G.H.$+%+&+$+$+$+$+&+*+$+*+*+$+&+*+*+&+*+$+&+$+%+*+*+%+I.H.G.H.G.G.I.I.H.H.H.H.U.U.m.o.l.r.=+S.u.J s w J I I Z.*.u x.-+} l Q ;+                                                                                                                                                              ",
"                                                                                                                                                          >+,+'+4.} )+2.J J K u x t I ;.!+g.~+D.p.l.G.I.I.G.H.F.G.I.G.I.G.H.G.*+$+&+$+$+*+%+&+&+$+$+$+*+*+*+$+{+]+^+&+*+&+*+*+$+*+*+$+*+*+%+*+&+*+$+$+H.G.G.I.F.I.I.I.G.H.G.V.L.D.~+g.'./+*.J M K I Z.H *.w $.4.< [ j (+                                                                                                                                                        ",
"                                                                                                                                                      _+c V l 6 x.u J L u t %.:+Y.!+<+m.D.k.E.I.G.G.G.I.I.H.H.H.I.H.%+&+&+*+$+$+$+&+$+&+*+[+[+[+}+{+}+}+[+}+[+|+1+2+]+3+}+}+[+[+[+[+}+{+[+*+%+&+$+&+$+*+*+*+I.I.G.F.F.I.H.H.I.G.I.h.V.h.h.<+4+5+Z.a.J I X Z.Z.I 6+3.< 4.7+ +                                                                                                                                                    ",
"                                                                                                                                                  8+1 4.4 -+a.I J v v v M c.9+].J.L.h.I.H.G.H.I.I.H.G.G.$+&+*+&+&+*+{+%+}+{+[+{+[+}+[+}+{+%+}+%+}+}+[+}+[+}+0+a+b+c+d+e+[+{+}+{+}+{+[+[+}+%+}+[+}+}+[+}+%+{+$+*+$+$+*+$+$+H.I.G.H.G.I.H.H.h.p.J.M.f+c.J J L Z.Z.Z.Z.u N n O.* g+                                                                                                                                                ",
"                                                                                                                                              h+i+4.n 0.t I I w a.x j+k+l+[+j.K.h.G.F.F.H.H.F.H.G.&+$+*+*+&+$+}+}+}+[+[+}+{+}+}+}+}+}+{+}+}+}+}+}+%+%+[+3+m+n+o+p+q+r+s+t+3+%+[+[+[+{+}+[+}+[+[+{+[+}+{+}+[+}+%+}+{+%+&+&+&+*+$+H.F.G.H.H.H.H.J.o.k.[+W.u+v+v u X Z.w+Z.L p l x+* y+                                                                                                                                            ",
"                                                                                                                                          / 9.Q 6 N u w K w M a.z+A+r.k.D.h.U.G.F.H.I.I.G.F.H.*+*+$+$+*+}+[+}+{+[+%+[+}+}+%+}+}+[+}+}+}+}+3+B+B+3+3+B+B+C+D+E+F+G+H+F+I+J+K+L+M+~+3+B+B+}+{+}+{+}+}+[+}+{+[+{+%+}+[+}+}+}+*+$+*+$+$+*+I.H.G.F.H.G.G.h.h.V.r.9+N+t J Z.H j+w+L x.O 5.; O+                                                                                                                                        ",
"                                                                                                                                      f P+Q+4 N w L v M 2.M ;.R+/.i.m.H.H.I.G.G.H.H.&+*+$+*+*+}+}+{+[+%+}+}+[+[+%+}+}+3+B+3+~+M+~+3+M+3+M+~+~+L+~+~+S+T+U+V+W+X+Y+X+Z+`+ @.@+@[+~+^.L+L+3+3+B+B+~+3+3+3+3+B+[+[+{+{+}+%+}+{+}+}+[+%+$+$+&+$+%+G.H.G.H.I.H.m.i.^.R+u.L J L H j+w+I ++4.@@F #@                                                                                                                                    ",
"                                                                                                                                    $@: 4.O s J K t W J ;.:.H.j.m.I.F.G.&+*+&+*+*+$+*+[+[+[+}+3+3+B+3+M+3+3+M+3+3+B+M+B+3+/.L+^.^.^./././.~+L+^.%@&@*@=@-@;@X+X+H+X+H+Y+F+>@,@K+S+^.~+/.~+~+L+~+~+~+3+B+3+3+3+3+B+}+{+}+[+[+{+}+}+{+}+[+$+*+$+$+*+G.H.H.F.G.H.k.j.H.l+/+H v H X Z.w+I p O < '@                                                                                                                                  ",
"                                                                                                                                )@: 4 P s I K t 2.w !@~@m.V.J.G.H.I.*+%+*+*+*+*+*+[+}+{+[+M+3+B+B+3+~+3+3+3+3+3+3+~+~+^.~+L+~+~+/.{@{@{@q.{@{@^.]@^@/@(@_@H+Y+Y+X+H+:@Y+Y+<@[@}@^.|@^.^.q.{@q.^./.^.{@{@^.~+/./.~+M+3+~+B+~+3+M+3+3+M+3+M+3+[+}+&+*+*+*+&+G.H.%+I.U.V.T.W.1@Z.J X w+w+w+w p l 5.i                                                                                                                               ",
"                                                                                                                            2@3@} A x I J u x t u.~@V.j.H.H.I.*+&+*+%+&+&+[+}+}+}+3+~+M+B+B+~+3+3+3+B+L+L+~+~+/.~+^.^.q.{@^.{@^.^.^.q.{@q.q.4@5@6@7@F+8@X+H+X+X+X+X+X+H+Y+X+<@<@9@0@a@b@^.^.{@^.q.{@^.^.{@^.^.^.{@^.~+L+/.^.M+3+3+~+3+3+B+B+~+3+}+[+}+}+*+$+&+$+&+*+I.H.c@m.d@5+I J Z.Z.*.1.t O O.- S                                                                                                                           ",
"                                                                                                                          F 4.7 x.J w v a.x ;.:.T.k.J.I.$+&+}+[+}+}+}+}+}+{+}+3+B+3+B+B+M+~+B+M+^.~+^.L+~+/.q.{@q.^.{@{@^.^.^.^.^.q.{@%@S+e@f@g@h@i@j@X+:@X+X+H+X+X+X+X+:@H+H+k@l@m@n@o@p@q.q.^.^.{@{@q.q.^.q.^.q.{@^.q.^./.~+L+^.B+M+3+3+~+B+3+3+3+[+}+{+[+$+$+&+*+*+&+G.U.h.T.q@u.I J Z.Z.*.w+a.O < r@                                                                                                                        ",
"                                                                                                                      s@V 4 O v K v M %.1.t@$+D.T.&+%+&+$+{+[+[+{+}+}+{+B+/.~+^.~+^.~+/.~+q.{@{@{@{@q.q.u@q.{@%@q.q.u@%@q.%@%@q.q.^.v@]@w@}@x@p+G+X+Y+H+H+Y+H+X+X+X+X+X+X+H+H+H+:@_@y@z@A@B@C@q.q.%@q.%@%@u@%@%@q.q.q.%@q.q.~+~+{@q.^.q.3+B+/.~+~+~+/.~+[+[+}+*+}+%+*+&+*+F.H.G.k.3+D@c.J Z.*.w+b.Z.$.z '++                                                                                                                     ",
"                                                                                                                    r@Q+9 Y w v M %.I E@F@L.J.&+$+$+}+[+~+B+B+B+3+~+^./.^./.{@{@q.^.{@^.^.^.q.q.q.q.%@%@G@%@%@%@G@%@%@u@u@%@%@q.4@5@w@H@I@_@J@H+Y+H+H+H+Y+H+X+H+H+H+X+H+X+X+:@X+Y+H+(@K@L@M@N@O@P@q.Q@q.%@%@%@%@q.q.q.q.%@q.u@Q@q.^.{@^.^.{@~+L+~+~+/.~+~+~+3+M+}+}+}+[+{+[+}+*+$+J.j.R@9+b.v Z.Z.*.1.w 3.S@T@                                                                                                                  ",
"                                                                                                                U@b 9 )+t J u M x 5+_.l.U.G.*+*+%+}+}+B+~+3+3+B+M+~+/.~+^.q.{@^.q.^.{@{@u@q.%@Q@q.G@%@G@G@G@G@%@G@%@G@G@G@F@4@V@W@X@Y@_@W+j@X+Y+X+X+X+H+X+H+Y+H+:@H+X+Y+X+Y+Y+X+X+X+X+H+Z@l@`@ #.#+#@#B.G@%@%@%@%@q.%@%@%@%@q.%@%@q.q.{@{@^.q.^.~+L+~+~+/.L+~+~+B+3+{+}+[+}+}+[+$+$+H.U.l.##$#H I *.Z.1.w+x.O '+g+                                                                                                              ",
"                                                                                                              %#n 9 x J u M x w+&#H.l.$+*+%+}+[+3+~+3+*#5@&@*#S+B+^.^.q.{@q.{@^.q.%@%@%@F@=#%@%@G@%@G@%@%@G@G@G@G@%@-#P@P@;#>#,#'#i@Z@Y+H+X+:@H+X+H+X+Y+Y+X+X+X+X+:@:@H+X+:@H+X+X+X+X+X+:@X+<@)#!#~#{#*@]#@#G@B.^#G@G@%@%@F@%@F@G@G@%@%@%@%@q.u@q.{@{@q.^.^.{@{@^.~+L+^.B+3+3+3+M+}+}+&+*+h.I.R+z+J Z./#v+1.u O (#$                                                                                                             ",
"                                                                                                          _#9.n )+v J M x x !@u@V.J.&+%+*+[+B+M+3+3+:#<#[#}#|#1#2#t+4@C@/.q.^.q.q.u@G@%@F@G@%@G@F@%@%@F@G@3#C@4#5#=#6#7#8#9#0#`+_@:@H+X+X+:@X+H+X+X+H+X+X+X+Y+H+X+:@X+X+H+H+X+X+H+X+Y+X+X+X+X+j@F+J@a#b#c#^@4#d#e#G@G@B.G@G@G@G@F@%@F@%@%@G@%@q.u@%@%@^.q.q.^.^.^.{@^.~+f#g#S+3+~+B+}+%+[+*+H.k.q.h#I K j+w+1.Z.i#S@3@                                                                                                          ",
"                                                                                                        j#Q a W J s s x.1.R+U.U.&+%+$+}+B+B+3+^.~+3+|@o+k#J@l#m#n#o#p#q#2#r#s#*@b@v@t#B.G@G@Q@u#-#P@v#w#x#B.y#z#A#b#B#C#_@<@C#X+H+H+H+Y+:@X+X+X+:@H+X+Y+X+Y+X+H+Y+X+H+H+X+H+H+X+Y+H+H+Y+H+H+X+:@X+D#Z@W+C#E#~#F#G#H#I#@#G@G@G@%@%@=#G@G@F@%@%@G@F@q.%@q.q.{@{@{@^.b@5@J#K#L#M#3+3+M+~+3+[+&+$+&+n.U.N#-.K w+w+w+1.u )+< v.                                                                                                      ",
"                                                                                                      O#Q P#s J M x x !@F@D.$+$+$+[+M+B+B+/./.~+L+|@{#Q#Z@H+8@)#R#S#T#U#V#W#X#Y#Z#`#W@%@%@;# $.$+$@$#$$$%$&$*$=$-$;$Z@H+Y+Y+H+H+X+X+Y+H+H+H+X+Y+Y+H+H+H+H+H+H+H+H+Y+X+Y+X+H+X+:@X+X+Y+H+H+Y+X+X+Y+X+Y+X+X+_@>$,$'$)$#$!$r.~$u#]#{${$P@P@@#t#-#u#v@P@]$^$4@*@]$/$/.($_$:$<$[$,@5@~+~+~+~+3+3+~+[+[+$+V.}$|$I Z.w+w+1.j+p 1$!                                                                                                     ",
"                                                                                                    2$n y v J M %.Z.e.&+T.$+*+[+[+3+3+~+^.~+~+~+^.&@3$`+H+X+X+Y+H+k@W+F+4$_@D#5$6$7$8$9$9$0$a$,$b$c$d$Z@F+e$i@f$H+H+X+Y+X+:@H+X+:@X+Y+H+H+Y+X+H+Y+X+X+H+X+X+Y+:@H+Y+X+X+H+X+:@Y+X+:@Y+Y+H+X+Y+H+Y+Y+Y+Y+Y+H+X+g$h$`+i$j$k$l$$$m$n$o$p$q$r$ $w@w@N@s$t$!$U+u$~#9@v$-@w$W+x$K@y$z$~+~+~+~+^.B+3+3+}+[+*+J.I.z.A$K v+v+B$1.C$1$k                                                                                                   ",
"                                                                                                O+4 4.6+J t M x.c.D$h.{+}+{+[+}+~+~+~+~+~+~+~+^.q.v@E$_@H+H+Y+H+H+H+X+Y+H+j@j@(@k@(@g$g$8@C#C#(@(@k@k@X+X+H+Y+X+H+X+Y+X+X+X+Y+Y+X+Y+X+X+D#D#j@j@C#<@_@_@J@W+W+J@J@J@J@J@J@_@<@f$(@G+D#D#D#H+X+X+Y+Y+H+X+X+H+X+:@Y+H+F$(@C#_@J@J@`+G$H$I$J$K$L$M$N$O$I$P$e$J@_@_@<@g$(@D#X+F+Q$R$]#^.~+^.^.L+~+3+3+%+}+*+H.U.##5+K Z.*.b.=.w S$} T$                                                                                              ",
"                                                                                              U$} V$M v t x 6+N./.T.[+~+3+3+B+L+/.^.^.%@u@%@%@%@*@7#W$(@Y+Y+H+X+X+X+Y+H+X+X+X+Y+H+H+X+H+H+X+X+H+X+X+H+X+X+H+:@:@X+Y+:@H+X+D#g$W+`+i@W+k@X+X$Y$Z$`$ %.%+%@%#%#%#%$%+%#%#%%%&%*% %=%Y$w$-%D#f$;@`+_@Z@D#Y+H+H+X+X+H+X+Y+X+H+H+Y+Y+X+(@;%f$J@J@J@i@i@Z@Z@(@Y+Y+H+:@X+:@H+H+X+g$>%6@B@%@{@q.~+/.~+/.^.3+B+%+%+&+U.^.E@Z.Z.w+1.=.X )+1$,%                                                                                            ",
"                                                                                            6.4.` M v M %.I e.G.H.{+3+3+3+3+^.q.q.^.q.%@%@%@%@=#V@'%F+:@Y+Y+X+X+Y+H+Y+X+H+:@X+X+X+X+X+X+X+X+H+X+X+X+X+Y+X+X+Y+X+X+:@C#i@>$i@c$)%!%~%{%]%^%/%(%_%:%<%[%##}%|%}%|%####}%}%##D$1%2%G#3%4%5%6%7%8%E#9%0%C#a%e$_@j@X+H+X+X+X+X+X+Y+H+H+H+H+H+X+H+X+X+X+H+X+H+X+X+H+X+X+X+X+X+X+X+b%c%d%q.q.q.u@q.{@^.^.^.3+M+M+}+}+H.I.=+A$j+b.1.=.b.x.e%f%                                                                                          ",
"                                                                                          g%: O w t 2.q =.~.J.$+3+~+3+^.B+q.{@q.q.q.q.q.q.q.h%|@i%j%J@H+X+H+Y+X+H+H+Y+X+X+H+X+:@X+H+X+H+H+Y+X+:@H+:@X+H+H+D#(@Z@i@`+k%l%m%n%o%p%M.q%r%s%t%u%|%v%w%D$w%D$w%w%##D$D$##D$D$w%##D$w%D$|%x%y%s%z%A%s%B%C%D%E%F%G%Z@F+_@g$k@D#H+:@X+X+Y+X+:@H+H+X+H+H+X+Y+H+X+X+X+H+X+Y+Y+H+:@H+Y+C#H%I%v@G@%@q.^.q.Q@q.u@^.^.3+{+}+3+[+G.J%;.L v+w+B$=.W S$K%                                                                                        ",
"                                                                                        L%n M%v M 6+x.u.B.U.3+B+L+~+L+^.^.q.%@q.F@%@G@%@B.^#G@v#N%O%X+X+X+X+X+Y+H+X+Y+H+X+X+H+Y+H+Y+H+H+H+H+H+Y+Y+H+(@i@F+X+8$P%Q%R%S%T%U%V%r%t%|%A.].A.M.M.A.M.M.].M.M.].A.M.A.M.M.M.M.M.M.M.M.M.].M.M.M.M.M.W%y%s%X%A%Y%Z%`% &.&0$+&_@F+Z@Y+Y+X+X+H+Y+H+X+Y+H+X+X+Y+H+Y+Y+X+H+Y+X+H+X+H+X+H+W+@&^$B.B.^#%@%@u@%@%@q.q.q./.~+M+3+M+E.%@!@K w+w+b.=.r S$P.                                                                                      ",
"                                                                                      k a x.J 2.x #&}.q.G.~+3+^.^.^.{@^.q.q.%@G@B.B.G@r.$&$&u#%&j$k@X+X+X+H+X+H+X+H+H+H+H+X+X+H+X+H+Y+X+X+X+X+X+<@-$&&*&8%=&-&w%;&t%>&|%D$M.].J%J%].].].].].].].].J%].].].].].].].].].].J%J%].J%]._.].].].]._.M._.M.M.D$|%>&s%,&'&)&!&~&{&j$K@J@j@X+Y+X+X+H+X+Y+X+Y+X+H+X+Y+:@Y+X+X+X+Y+H+X+Y+<@]&=#G@B.B.%@%@%@u@q.%@q.q.q.~+L+3+~+}+U.3+E@X j+1.v+A$v i#^&                                                                                    ",
"                                                                                    ; 0 x.M 2.x M d.&+B+/.^.q.q.q.q.%@F@%@%@G@r.B.B./&g.r.r.e#(&W+:@X+Y+H+:@Y+X+X+Y+H+X+X+X+X+Y+H+X+H+X+X+<@_@W+_&:&<&[&}&|&w%J%].].].~.~.J%~.~.~.~.~.~.J%~.J%J%~.{.J%J%~.~.~.J%~.~.~.~.J%~.~.J%~.~.J%~.~.~.~@~.~.~.~.].].].(.M.M.D$;&1&].2&3&M$4&J@_@k@Y+H+H+H+H+X+:@H+H+X+Y+X+X+X+X+X+H+X+H+k@5&6&4#B.B.r.G@B.G@%@%@G@%@%@q.^.~+~+~+~+}+*+9+w+v+1.1.=.7&i#8&                                                                                  ",
"                                                                                  > z q M x %.t &#H.~+/././.q.q.q.q.%@G@B.G@r.B.r.B.r.r.g.9&@$+&C#X+X+H+H+X+X+H+H+Y+X+X+X+H+X+X+X+Y+C#x$0&a&(&b&c&d&e&f&J%~.~.~.J%~.~.~.d@d@d@~@~@~@d@d@d@d@g&d@d@d@d@d@d@~@~.g&d@~.d@~@d@d@~.d@~.J%~.~.~.J%~.~.~.~.~.~.~.~.{.~.~.]._.].W%h&e&i&j&k&l&m&;$n&Y+X+X+X+H+H+H+X+Y+Y+H+X+H+H+X+X+H+:@;$o&##~$r.r.B.r.B.G@G@B.G@F@u@q.{@^.{@^./.[+T.e.1.Z.1.=.A$H p&q&                                                                                ",
"                                                                                k r&2.M M q I #+&+^.~+~+^.^.%@Q@%@G@=#B.B.r.B.B.r.g.g.##~$s&t&e$X+Y+X+X+X+X+:@X+H+H+X+X+H+H+Y+H+X+F+u&v&w&x&y&z&f&].~.~.~.~.J%~.~.d@~@~@d@~@~.d@d@d@d@d@d@d@d@s.s.s.s.s.W.W.s.s.s.W.W.s.A&s.s.s.s.d@d@d@g&d@d@d@d@d@g&~@d@d@~@d@~.~.~.J%~.~.(.B&d&>&].C&D&E&x$F&X+H+Y+X+:@H+H+H+:@H+:@H+H+X+X+H+(@G&H&I&r.g.g.r.r.r.h%G@B.G@G@G@%@q.q.^.~+M+B+$+J&K&j+1.1.L&*.p 4.                                                                              ",
"                                                                              k a x M a.%.H q@E.~+~+~+^.q.%@u@%@F@B.G@r.r.r.B.g.g.g.##r.M&N&J@X+X+H+H+Y+H+H+Y+X+H+:@H+Y+H+X+_@i@O&%$P&_%Q&W%~.J%J%~.~.~.d@~@d@d@d@g&d@d@d@s.s.s.s.s.s.s.s.s.d@W.W.d@d@A&s.A&d@s.s.s.A&s.A&s.s.s.d@A&W.d@s.A&s.W.W.s.s.d@d@d@d@d@d@d@d@~.d@{.J%~.~.{.(.R&t%S&w&Q#_@<@(@X+Y+X+:@X+Y+H+H+X+H+X+H+X+Y+_@T&v%U&##}%##r.r.B./&r.r.^#G@F@%@u@%@u@^./.L+I.W.V&w+1.1.B$1.1$q&                                                                            ",
"                                                                            W&9 W v x #&J f.U.^.^.q.{@%@q.F@=#%@G@B.B.r.r.g.g.######D$X&Y&>%k@X+H+X+Y+:@X+X+X+H+X+H+H+H+_@F+j%Z&`&W%h&B&~@~.J%J%~.~.d@~@d@d@d@d@d@d@s.s.W.W.s.s.s.W.s.A&s.s.W.d@d@s.s.s.A&s.s.s.W.W.s.s.A&s.d@s.s.s.s.s.A&A&s.s.A&s.s.s.A&s.d@d@d@g&d@d@~@d@d@{.J%~.~.~.J%R&t% *.*+*g$F+D#X+X+X+X+X+H+H+Y+H+Y+Y+X+Y+<@@*9&##}%####<+g.r.B.r.B.B.%@G@%@%@%@q.q.^./.H.d@#*Z.v+v+K&/#Y q&                                                                          ",
"                                                                          7+a %.M 2.++B$q@G.~+^.^.^.{@q.G@%@G@G@g.$&}%g.r.r.##}%g.D$$*%*&*J@H+H+:@H+H+X+H+H+X+X+H+X+k@`+**=*-*;*B&J%d@d@g&d@d@d@W.d@s.W.s.W.s.s.s.W.l+f.f.q@f.s.q@q@f.q@s.f.q@s.q@s.s.s.s.s.s.s.s.s.s.A&s.s.W.s.s.s.s.s.s.s.W.s.s.s.s.A&s.W.s.s.s.s.d@~@d@d@d@d@d@~@d@J%J%g&].W%t%>*,*Q$n&_@H+Y+H+X+H+:@H+X+X+:@:@H+<@'*B%)*g.g.}%g.g.r.B.$&r.r.G@%@G@%@q.%@%@^.~+L+&+d@V&Z.1.1.A$/#1$3                                                                         ",
"                                                                        2$9 %.M 2.++Z.M.E.^.q.q.%@%@%@h%B.B.$&r.g.##}%g.##D$##D$W%;&!*~*l@G+X+X+X+X+X+X+X+X+X+H+Z@i@{*7%`&R&]*s.W.s.s.W.s.s.d@q@f.q@f.q@f.q@s.:.f.:.f.^*f.^*^*:.^*^*:.f.f.f.f.:.^*:.:.f.f.:.:.f.f.f.:.:.^*^*f.s.f.f.f.l+f.f.f.f.l+q@s.f.s.q@f.s.f.s.s.q@A&s.s.W.s.s.s.A&s.d@~@d@d@_./*(*_* %<@_@D#X+Y+:@X+X+H+H+X+H+H+`+(&u%x%D$##D$####g.r.r.r.<+$&B.G@G@G@%@u@^.^.{@*+s.V&Z.=.1.A$b.:*k                                                                       ",
"                                                                      _ 4.q M a.#&K f.H./.^.u@%@q.G@B.B.G@B.r.g.}%g.}%g.w%##D$D$_.U%<*_@8@X+H+H+X+X+X+X+X+X+X+;$[*~*}*d&|*~@s.s.s.s.s.A&W.s.f.f.f.f.q@f.f.^*^*f.:.:.:.^*:.:.:.f.:.^*^*^*:.f.f.f.:.:.f.f.f.:.:.:.f.f.f.^*f.^*1*:.^*f.:.f.:.f.:.:.^*:.:.^*f.:.f.f.f.f.^*:.^*q@f.f.q@q@q@s.s.s.s.s.W.s.s.B&2*3*4*5*)#<@6*Y+H+H+X+Y+X+X+H+8@<@7*U%D$##w%D$##|%}%g.r.g.g.r.G@h%%@%@%@%@^.{@{@%+d@V&w+=.1.8*Z.:*2$                                                                    ",
"                                                                    9*l x.M x %.J :.*+^.Q@%@%@G@h%B.r.B.U&U&g.g.}%##w%D$D$W%_.M.0*a*b*k@H+X+H+X+H+Y+X+X+X+f$_@c*d*e*f*s.f.s.s.q@s.s.s.f.:.f.^*s.l+l+J&N#^*^*^*^*^*!.^*^*^*N#N#^*^*^*:.:.:.^*^*:.f.:.^*^*^*:.:.:.^*^*^*f.:.f.f.f.:.:.f.f.:.f.f.:.:.^*f.:.:.f.^*^*f.f.f.:.f.:.:.f.f.f.s.f.s.f.s.s.W.s.s.A&W.J%g*h*i*j*F+D#:@X+:@Y+:@X+X+Y+8@k*l*m*D$D$D$n*W%##D$g.g.g.r.g.r.h%B.G@G@%@q.%@%@b@d@V&w+=.b.A$X e%K%                                                                  ",
"                                                                  o*4.Z M 6+$.L N#&+q.%@%@G@^#G@B.g.r.r.|%g.D$D$D$D$D$M._.J%M.p*q*=%i@Y+X+H+H+H+:@H+H+<@)#I@r*s.2*f.s.f.s.f.f.f.f.^*:.f.:.^*f.N#^*N#^*^*N#^*N#^*N#^*N#N#^*^*N#N#^*N#^*^*^*N#N#N#s*J&s*J&t*s*N#s*J&J&J&s*J&J&N#J&N#N#N#^*J&^*^*^*^*^*J&^*^*^*^*^*^*^*N#^*^*J&N#f.f.^*f.s.s.s.f.l+s.s.s.s.A&s.f.]*2*u*v*w*)#G+H+X+H+Y+:@H+X+)#x*y*z*D$n*n*M.w%D$D$##g.##g.r.B.B.B.G@%@G@u@%@%@&+d@V&*.1.=.A$j+A*f%                                                                ",
"                                                                B*l )+v a.#&x C*I.^.{@q.%@^#B.r.r.g.r.g.##w%##D$n*D$W%M.].~.e&D*E*W+H+:@X+X+H+:@:@H+F*G*H*I*d&J*f.:.:.^*:.:.:.^*N#N#N#^*N#N#N#s*s*s*J&J&J&s*s*J&J&J&s*J&N#N#J&s*J&t*s*J&J&N#J&N#J&J&R+#+R+#+#+s*J&J&t*s*s*J&s*J&J&s*s*J&s*J&J&^*^*^*^*^*N#^*N#N#^*^*^*^*^*^*^*N#^*^*^*^*:.:.:.f.:.:.s.q@q@f.l+f.l+]*B&K*L*`+k@H+X+X+X+X+Y+j@i@M*|&w%M.M._.D$W%M.v%##g.g.}%B.B.B.B.B.F@q.%@%@{@$+N#B$w+K&=.K&X N*O*                                                              ",
"                                                              P*Q*)+M 2.q %.[.{+%@%@G@h%^#B.g.g.}%g.}%v%##D$].M._.M.].~.].h&q*k*W+X+X+H+X+X+Y+H+(@)#R*S*T*U*^*f.f.^*f.^*f.!.^*^*^*N#N#N#J&J&J&s*J&J&J&J&J&J&J&J&J&J&s*J&J&J&J&#+#+s*s*^*^*f.s.s.d@~.~@~.~@~@~@~.J%~.~@~.~.~.s.A&s.f.f.N#J&s*#+#+R+N#s*s*J&N#J&J&J&J&s*J&s*J&J&s*N#J&s*J&J&^*J&^*N#N#^*N#f.:.:.:.:.f.q@e*V*W*X*<@X+H+Y+X+H+Y+D#Y*Z*`*].].].].M.].M.D$M.##D$g.g.g.U&r.B.B.B.%@%@q.B+e.w+b.b.L&V& =1$                                                              ",
"                                                              - ` M M #&$..=}+%@q.G@%@B.r.g.r.U&######v%D$D$M.M._.].].J%+=@=#=`+X+:@H+X+H+H+X+F*+&$=%=&=q@^*^*^*^*^*N#^*N#^*s*J&s*J&J&#+#+#+#+s*#+s*#+s*#+#+#+s*#+R+#+J&N#R+s*s.].g.B.d@z.*===5+-=;=>=,='='=)='='='=!=~=>=>={=u.$#.=9+J&W%B.##~@N##+R+#+J&J&J&N#J&J&s*s*N#s*s*N#J&s*s*N#J&J&J&^*^*J&^*^*^*:.^*:.:.^*f.f.]=]*^=I@K@k@Y+H+H+:@X+f$/=(=_=M.].(.].J%M.D$D$W%D$v%g.}%g.U&g./&B.B.G@q.{@{+4+*.1.b.:=A$r l                                                             ",
"                                                            <=6 2.x %.0.!@/.q.G@G@^#G@r.r.g.g.##w%####D$M._.].(.].J%~.R&[=}=J@Y+X+X+H+:@H+j@i@|=1=2=3=^*^*N#^*^*^*^*^*^*s*J&s*J&J&#+#+#+#+#+s*#+#+#+#+s*#+#+#+s*#+#+#+#+s.####E@4=5=6=7=8=9=0=a=b=c=c=d=d=d=b=e=b=b=e=e=d=d=c=b=f=g=h=i=j=k=l=m=J&g.M.:.=+R+#+#+J&N#J&J&J&J&J&J&J&N#J&J&J&J&J&J&s*^*^*^*N#^*^*:.:.^*f.f.^*q@T*n=D&g$g$Y+X+Y+X+H+W+o=p=R&(.].].].M._.D$D$D$w%##g.r.g.U&r.B.h%B.G@q.L+/.,.j+=.=.A$K&r i+                                                          ",
"                                                          q=4.x x %.M%-.B.q.G@B.G@r.r.g.g.####M.D$D$M.].].~.~.J%~.r=z&s=t=W+X+X+H+:@X+Y+Z@g$u=v=T*s*J&s*#+#+#+s*=+=+#+#+D@#+D@D@D@D@D@R+R+D@D@R+#+=+D@D@D@=+D@:.d@A&:.t@Z w=x=y=z=A=B=C=D=E=c=F=G=F=H=F=H=H=H=G=G=F=H=G=F=H=H=H=I=c=J=K=L=M=N=O=P=Q=R=V&s*s.d@q@s*R+R+D@D@D@D@D@D@#+R+R+D@D@s*R+#+#+J&J&J&J&J&^*^*J&N#^*J&N#^*U*S=T=U=`+H+Y+Y+X+Z+J@V=W=R&J%~.~.~.].M._.M.M.W%D$##g.g.r.g.r.B.B.%@%@{@G@$#w+=.=.A$B$A*$                                                         ",
"                                                        X=q&q M %.++/#D$3+G@B.B.r.B.r.}%}%##W%M.M._.M.(.~.~.~.d@Y=Z=`= -W+H+X+X+X+X+Z+i@W$.-q@+-J&J&s*#+#+s*R+#+s*R+R+D@D@D@D@D@z.C*z.D@z.z.C*z.z.z.z.z.J&M.@-t.=.#-$-%-&-*-K==-E=--G=F=F=G=G=H=;-;->->-F=>-F=>-F=F=F=F=F=F=F=F=F=F=H=H=,-;-*-'-)-!-~-{-]-^-/-$#^*g.f.z.R+D@R+D@D@D@D@#+R+D@R+#+D@R+#+#+#+#+=+J&s*J&J&J&J&s*J&J&(-T*_-:-<-G+:@H+H+6*l@[-W=h&].d@d@~.(._.].].M.M.w%v%####g.r.B.r.G@F@=#L+g.u.v+B$A$V&j+Y }-                                                      ",
"                                                      |-0 N M 6+#&v :.3+%@G@h%B.B.g.######M.M.M.M.M.].~.J%~.g&1-2-3-<-X+H+H+X+X+X+X+F+4-5-d&:.J&J&#+#+#+#+s*s*#+#+D@R+R+R+D@R+z.z.C*z.C*z.C*C*z.C*D@#+D$[.0.6-7-8-J=9-*-I=F=F=G=F=F=F=;-F=--I=I=c=0-*-c=I=*-I=*-c=*-*-*-*-*-I=*---I=;---F=F=>-G=G=F=I=*-d=J=K=a-b-c-d-].:.D@C*z.z.D@C*D@C*C*z.C*z.z.C*D@D@D@D@D@R+=+s*J&J&J&J&N#J&^*e-f-g-W+k@X+H+X+H+i@o=r*>&~@W.s.~@].].].~.M.D$####D$w%r.U&##r.^#h%G@L+d@A$w+K&A$V&H O.                                                      ",
"                                                      h-z x W %.#&i-^.%@B.G@r.B.g.}%####D$D$D$M.].].~.~.].>&B&j-k-`+H+X+H+X+X+Y+k@)#M$l-m-N#J&J&#+s*#+#+s*#+R+R+#+D@R+D@z.z.z.C*C*n-z.z.C*C*n-^*~.N#;.w=o-p-)-!---F=G=G=H=>-;-I=;-;---0-*-c=*-I=I=I=c=I=I=I=c=*-*-c=I=*-*-*-c=I=I=c=I=I=c=*--------->-F=F=F=G=9-L=d=O=8=;=q-:.s.D@z.C*z.D@z.z.C*C*C*z.z.D@D@D@D@R+D@D@s*#+#+s*R+s*#+s*r-^*s-j@<@H+X+H+Z+<@/=t-_.B&s.~@d@~.~.~.~.M.M.D$W%D$##}%g.r.B.r.h%G@~+[.w+/#=.A$V&7&>                                                     ",
"                                                    u-3.x %.%.Z u+~+F@B.B.B.B.g.w%##w%D$M.M.M.].~.~.d@W%v-w-D&g$i@H+X+X+H+X+X+C#J@x-y-z-#+s*#+#+R+D@D@R+D@D@D@D@n-R+z.n-z.n-C*z.C*z.z.z.C*^*@-t.;=A-B-*-!-d=H=H=,-F=;-;-I=--I=*-c=I=*-*-*-c=0-0-c=d=d=d=c=c=d=d=d=c=d=d=c=d=d=c=0-c=I=c=0-c=*-c=*->---I=I=I=F=F=G=--C-!-D-E-F-G-s.].C*C*D@D@z.C*z.C*n-C*D@z.C*D@=+D@D@D@#+#+#+#+#+s*J&#+H-T*I-J-J@H+Y+X+:@<@<@{%K-e*s.~@d@~.{.J%].M.A.D$D$w%g.}%g.r.r.B.B.%@q.S.Z.=.K&V&V& =L-                                                  ",
"                                                  y+a x.x q M%L&r.q.h%B.r.U&|%}%D$D$W%M.].].~.~.~@J%Y=K-<*I$`+j@H+H+:@Y+X+H+Z@M-N-J&O-D@D@#+C*C*z.C*C*z.D@z.e.e.C*t@P-e.t@&#t@t@t@t@t@R+~@Q-R-S-*-E=I=H=F=,-F=>-I=;-*-*-I=0-0-d=c=c=d=e=c=b=e=9-b=b=9-d=d=e=9-9-d=9-d=e=9-b=e=9-e=d=b=b=d=c=d=d=c=*-0-0-I=c=*--->-;-H=F=F=d=T-U-V-W-s.^*D@z.z.t@e.e.e.z.z.C*z.D@#+R+#+D@#+s*#+s*#+s*#+s*#+N#+-[=X-i@X+H+X+X+D#F*M$Y-v-~@s.~.{.~._.].M.M.D$D$D$}%##g.g.B.B.B.q.B.Z-Z.K&A$V&v+`- ;                                                ",
"                                                  3@o x %.++s l+^.G@r.$&g.g.g.##D$D$M.].J%~.{..;>&+;@;#;J@_@:@X+X+X+X+H+X+$;%;&;r-*;D@D@#+D@n-z.z.C*C*C*e.t@=;e.t@t@t@t@&#P-e.P-t@^*s.k+j=-;*-;;G=G=,-H=F=--I=I=I=*-*-I=I=c=c=c=d=b=9-e=b=9-b=e=d=9-d=e=d=b=b=e=9-e=d=d=e=b=9-e=9-b=d=d=b=b=d=e=c=d=e=c=I=*-*-I=*->---I=F=H=H=d=>;,;';%.D@J%R+z.z.z.z.t@z.z.e.z.z.e.C*C*z.z.D@R+#+D@=+D@#+#+J&|*);!;i@X+X+X+X+:@e$j*~;q@e*d@d@d@d@~.J%].M._.D$D$####}%g.r.B.h%^.~.V&/#:=K&z+{;@.                                                ",
"                                                ];^;x q q $.4+3+G@G@r.r.g.####D$D$_.M.].~./;(;_;,*:;Z@J@k@H+Y+Y+X+X+Y+X+W+<;I-[;};D@D@C*z.z.C*n-z.z.C*e.=;z.e.&#&#t@e.P-t@&#t@C*].$#|;1;9-J=;-H=H=H=F=I=--I=0-*-*-*-d=d=d=c=e=e=9-9-b=9-b=e=e=e=b=E=E=J=b=J=J=J=J=E=E=b=E=J=b=J=9-9-e=b=b=b=b=e=e=b=d=d=c=d=c=I=c=c=c=*---I=;-H=>-d='-2;3;4;D@f.P-t@&#e.&#P-t@&#t@P-e.z.e.z.C*C*z.z.R+D@=+D@#+#+|*5;6;x$H+X+X+Y+X+Z@i@7;u*|*_.W.~@d@~.].].A.M.D$########r.r.h%G@^.P-v+L&|.A$V&X F                                               ",
"                                              y+z x.%.x.4;/+%@F@g.r.r.##v%M.M.].M.W%/;z&>&8;i*9;_@J@X+H+X+X+X+:@X+H+X+_@0;a;+-s*C*z.z.t@z.e.=;e.e.z.t@t@e.P-&#q-q-q-q-q-q-z.:.).b;c;D=--H=G=H=F=I=--I=*-I=*-c=d=c=9-b=9-b=e=d=9-E=E=J=J=E=J=d;J='-'-'-J='-J=J=d;d;'-J='-'-'-d;J='-d;J=J=b=J=b=e;b=e=d=b=d=9-d=9-d=d=d=I=*-c=I=I=I=;-F=F==-f;g;h;f.#+t@t@&#&#t@e.P-P-t@&#z.z.z.e.D@z.D@C*z.z.n-R+#+i;j;k;F+D#H+H+H+H+Y+J@l;m;n;d&o;s.s.d@~.].].].M.D$D$##}%g.r.r.G@B.N.j+=.A$V&K&r p;                                            ",
"                                              > Z 6+q M%I M.^.g.g.r.D$##v%W%'&_=p*d@x&q;7;r;J@i@G+H+H+X+X+H+H+H+X+X+_@%;s;t;C*C*z.z.t@&#&#t@t@t@&#q-&#q-q-'.'.[.'.[.[.[.^*^*u;v;I=D=H=H=,-F=F=I=--*-I=c=d=e=c=e=b=9-9-e=9-E=J=E=e;J=J=J=J='-d;d;d;'-d;d;'-J=J='-d;'-J='-J=J=d;'-J=d;J=J=d;J=d;'-E=b=E=b=e=d=b=9-b=e=d=d=c=c=c=0-*-I=I=F=G=c=!-w;7=!@~@#+t@&#e.t@t@t@&#&#t@e.e.z.z.D@D@z.C*z.D@R+D@D@x;y;z;F+j@Y+H+X+H+X+_@W+A;_*B;C;o;~@d@].].]._.W%D$D$##g.r.g.B.q.D$D;v+=.V&-.j+l                                             ",
"                                            g%z x q x.$.<.~+B.g.g.##W%M.'&E;F;2&G;H;I;_@W+<@D#X+H+Y+H+H+H+X+H+H+X+_@J;K;L;R+z.z.z.z.P-&#t@P-&#&#&#[.&#q-[.[.[.[.[.<.'.~.M;N;D-e=--H=G=H=;-;---*-*-*-*-d=c=d=b=9-d=e=e=b=b=E=J=J=J=J='-'-D='-J=M=>;O;P;P;P;P;P;P;P;P;P;P;P;P;Q;R;D=d;!-D=d;J='-J=J=J='-E=J=b=b=9-9-9-b=9-c=d=*-I=c=c=----F=H=G=9-'-S;T;P-J&[.q-[.&#q-U;&#q-t@&#P-t@e.e.z.e.z.e.z.C*C*D@V;W;X;F+:@X+H+:@H+H+D#_@_@Y;,*Z;g*o;{.].].].M.D$D$##g.g.r.B.B.^.R+/#K&V&|.-.`; >                                          ",
"                                          .>} #&%.x.0.5+G@/&r.g.w%##M.|&`%+>*%=$e$F+(@Y+X+Y+H+X+X+H+X+X+H+H+Y+Y+_@>%s;@>z.t@&#P-&#q-q-q-[.q-q-q-'.q-[.'.<.'.<.<.<.#+q-#>$>K=,-G=G=G=;---I=*-c=c=d=c=b=9-b=9-9-E=b=E='-d;J=J='-!->;%>&>L=B=*>T-=>->;>>>,>'>)>)>)>'>!>'>'>~>{>]>^>G=C=B=B=&>/>C=K='-J='-d;'-d;d;J=J=E=b=e=9-e=e=c=c=*-*-*-----F=H=G=b=b=$--.f.t@q-'.[.[.[.[.[.[.q-q-[.t@e.&#e.&#&#z.e.z.D@(>_>6;)#H+Y+X+H+H+H+:@X+J@Z@:><>}*d&z&f&M.~.(.].M.D$w%##U&g.r.G@y.1.A$A$V&L&N*                                          ",
"                                          h-y 6+#&Z v M.G@r.g.w%##W%_.U%[>Z@R#<@X+Y+X+X+X+H+H+Y+X+H+X+H+:@H+H+_@>%K;z-z.e.e.t@P-t@q-&#&#q-q-&#[.[.'.<.<.).'.}>q-l+-=|>*-J=,-G=F=F=I=--*-*-I=d=d=9-b=b=b=e=E=E='-J=d;J='-D=T-P;P;>-1>2>3>4>5>Z./+6>y.d.*=&#&#P-P-q-q-q-t@X.E@==$#u.4;7>8>9>z=0>>;P;P;>;'-d;d;J=J=J=E=b=b=9-b=b=e=b=d=c=I=*-I=>---F=G=c=C-a>b>e.N#<.).).'.<.).}>[.'.[.q-q-[.P-e.&#t@t@e.e.e.c>d>e>i@H+H+H+:@Y+H+H+X+G+F+Z@=$f>g>h>r=(;Y=W%].M.D$##w%g.g.G@D$-.1.K&A$-.v+b                                         ",
"                                        Q.` %.q #&i>X.q.G@r.##D$W%n*A.1-q*j>F&:@H+H+H+Y+X+:@:@H+H+Y+X+X+X+X+C#k>l>[;z.&#P-t@q-q-q-[.[.[.[.[.q-<.}>'.!+!+!+).q-z.m>n>'-H=,-G=F=;---*-*-*-I=e=c=b=e=b=b=b=d;E=J=J=J=!-M=P;P;o>7-p>q>&.r>s*e.&#'.'.<.!+).!+4+4+4+9+!+4+4+!+!+f+'.'.[.P-e.z.^**=i>s>g;t>=>P;%>u>D=!-J=J=J=J=J=E=9-b=b=e=d=b=I=*-I=c=I=I=G=H=e=E=v>/+J&[.'.}><.<.<.<.'.'.[.q-q-q-q-[.q-&#&#&#e.e.w>x>y>i@Y+H+X+X+H+Y+H+X+X+D#8@J@F*z>A>B>C>(./*t%##D$M.g.g.B.q.q-=.K&|.-.D>7&U                                       ",
"                                        } 0.%.#&4;z+B.B.g.v%D$v%A.].].Y=w-E>J@X+H+H+Y+:@X+X+X+X+H+H+X+X+Y+(@_@F>G>R+t@t@q-&#q-[.[.[.[.'.[.<.'.'.f+).!+4+).s*.=H>I>b=J>H=H=F=--0-0-*-d=d=e=9-9-e=E=e;d;d;'-d;!-L=P;K=N=|>K>L>M>l+s*[.r>*=r>N>*=r>O>*=r>N>*=N>*=*=N>*=N>N>N>*=*=*=*=*=*=N>*=4+z.f.J&$#M%P>Q>R>*>P;*>'-J=J=J='-J=b=b=d=d=9-d=d=I=*-I=--I=F=F=;-M=S>T>^*e.<.<.).'.).}>).[.'.[.q-q-&#[.&#P-t@t@=;t@c>U>k*J@X+:@H+X+Y+H+H+H+Y+H+H+X+<@R#C#a#V>W>X>Y>'&W%##D$g.B.^#!@w+A$V&-.L&S$                                      ",
"                                      # P 6+q #&q N#%@g.g.##D$W%].].~.d&Z>|=_@X+:@H+X+X+Y+H+Y+X+:@Y+H+X+j@W+`> ,.,q-q-[.q-[.'.[.q-[.'.'.).}>'.4+).!+f+).s.4=+,E=--F=H=H=I=I=--I=*-c=d=e=e=9-b=b=b=d;'-'-D=P;P;@,#,$,5+4+D@C*'.N>N>*=r>N>*=O>N>N>N>O>r>*=N>r>*=*=r>N>*=N>N>*=r>*=N>*=N>O>*=N>N>N>N>q-D@e.9+%,&,*,=,P;L=C-J=d;d;'-E=E=d=b=9-9-c=c=*-I=*-I=F=H=H=D=-,P>s*e.f+).).).4+!+'.'.).[.'.'.'.[.q-q-[.P-t@t@;,>,J;C#X+Y+:@H+H+H+Y+X+Y+Y+Y+H+X+k@<@F+)#,,',h&M.W%##}%##G@q@|.A$|.D>c.),O#                                    ",
"                                    !,9 #&#&%.o u+u@g.g.D$D$D$M.].~.d@d&Z>~,J@H+H+X+H+X+:@X+X+X+:@X+Y+X+)#{,],^,[.q-q-'.q-).<.<.).<.'.!+).!+4+4+9+!+).J&/,(,J=D-~-F=,---*-*-*-c=c=9-b=9-E=b=E=d;d;d;C-L=L=]-_,:,D@t@).N>*=d.*=*=X.d.X.d.X.*=*=*=*=*=X.X.X.*=*=*=*=*=*=X.d.d.X.X.X.X.X.*=X.*=*=*=*=*=*=O>9+!+C*'./-<,[,P;C==-d;J='-'-J=b=b=d=e=b=b=c=c=c=----F=F=*-9-},X.e.!+).f+!+).}>).).[.[.q-[.'.[.q-[.[.q-t@e.|,1,2,g$H+H+H+H+:@X+Y+X+H+H+H+H+X+X+X+_@l&3,4,_.M.n*####r.G@A+b.:=V&z+V&5,                                    ",
"                                    $ $.x #&Z J A.G@####D$A._.].~.J%W.]*6,7,_@X+H+Y+H+H+X+H+Y+X+Y+H+:@`+7,8,9,t@&#[.[.[.).<.}><.'.).!+!+).f+!+4+9+P-z.0,B-J=D-F=H=I=I=I=I=*-c=9-b=b=d=E=J=e;J='->;P;--a,b,c,:.t@*=X.X.X.X.*=*=*=X.*=X.*=X.*=X.*=X.d.*=X.X.X.*=X.X.*=*=X.X.X.X.*=X.X.*=d.d.*=X.*=X.*=*=X.X.X.X.N>D@C*G-d,1;B=P;M=J=d;J='-J=E=b=d=b=d=c=*-*-I=----,-;-C=e,#*:.9+4+9+4+f,!+).).!+<.<.).<.<.q-q-&#q-P-C*g,h,J@X+Y+:@X+X+Y+H+X+H+H+:@H+H+H+H+e$i,s.W%].M.M.v%D$g.B.M.D;K&|.j,c.v+2$                                  ",
"                                  k,z %.++$.y d.%@r.##v%M._.].].J%d@f.]=6,_&_@X+X+X+H+H+X+X+X+X+Y+H+8@U=l,9,[.q-[.[.<.<.).).!+4+f+4+f,f,f,r>r>9+'.m,n,>-I=,-H=,-;-I=*-I=I=d=d=b=d=9-J=b='-'-d;P;,-#,o,!+t@).*=X.d.X.X.*=*=X.X.*=X.X.*=d.*=*=*=*=X.*=X.*=*=X.*=4+X.X.*=X.X.X.*=d.*=X.X.X.p,X.X.X.X.X.d.*=X.*=X.X.X.N>q-e.}.q,S;P;L=d;J=d;d;b=E=9-e=d=c=c=0-c=*-I=F=H=>-C=g=r,f.9+4+9+4+4+!+!+!+'.).<.).<.).q-'.[.q-q- ,e.s,F*X+:@X+X+H+Y+X+Y+:@H+X+Y+X+X+t,u,v,~@].]._.D$D$w%g.%@[.b.A$V&w,V&7&                                  ",
"                                  x,O y,#&4;1.##g.g.M.M.].~.~.d@A&q@:.i;j;_&_@X+H+H+X+H+:@H+H+X+Y+C#z,A,B,q-[.<.).).).4+4+!+4+!+!+r>9+9+O>r>N>q-E@i==-,-,-,-H=----0-0-c=e=b=d=9-E=J=d;J=D=B=L=Q>,=r>P-d.E@X.d.E@E@X.E@E@E@d.X.d.E@d.d.d.E@d.E@d.E@d.X.4+).&#N>-.E@X.E@d.d.X.E@d.X.X.d.d.E@E@d.d.d.d.E@E@E@X.C,E@E@d.d.E@*=#+5+D,E,P;C=D=J=d;'-b=E=b=9-9-d=c=*-*-*--->-H=D=F,l=#+).!+9+9+9+f+f+).!+<.'.).}><.).'.q-&#&#9,G,_&J@X+H+H+:@H+X+Y+H+Y+H+Y+X+j@i@H,v,s.d@J%(.M.D$D$D$r.D$d-K&z+-.c.b.;                                 ",
"                                O+9 %.#&M%M%<.B.##w%M.M.].{.d@s.s.f.^*i;G,y>J@X+X+X+X+H+X+H+X+Y+j@F+I,J,K,<.).!+).!+!+9+9+9+9+9+9+N>*=9+N>X.z.c,L,d;,-,-,-H=--I=*-*-d=c=e=e=e=E=b=J=J=Q;&>E,M,E@z.*=,.E@S.N,S.E@E@S.E@N,E@S.N,E@E@,.S.E@E@S.E@E@4+z.}>$#O,P,-;@,/-P-E@E@E@E@E@E@S.,.E@N,E@E@N,N,d.d.d.d.E@E@E@d.E@d.E@X.E@E@<.#+;.Q,R,P;u>d;J=d;d;e;e=d=b=d=c=0-c=I=-->-G=J=o>b,:.4+N>r>9+r>9+9+4+4+!+).).f+!+<.<.U;[.q-S,T,G*<@Y+X+:@Y+:@H+:@H+X+X+:@k@U,s=v-d@W.~.].].M.W%####r.C*=.A$-.-.-.V,                                ",
"                                F Z q #&o A$r.g.D$M.M.].J%d@~@s.f.^*^*]=W,X,Z@X+H+H+X+X+H+X+H+H+_@+*Y,K,}>'.).!+4+4+4+9+9+9+N>r>9+r>N>*=d.[./+Z,d;,-,-H=--I=0-*-0-c=c=b=9-b=E=d;'-J=P;`, '$#[.X..=,.N,,..=N,.=,.N,,.S..=.=S.S.,.S.N,S.E@S.E@'.e..'+'@'#'P;P;P;$'J ).E@,.E@E@E@E@N,,.E@S.,.E@S.N,E@E@E@S.N,E@E@E@E@S.S.E@S.E@,.N,9+P-%.%'%>L=J=d;d;e;J=d=9-9-e=e=I=c=I=--;-G=b=&-b,D@N>N>N>r>r>!+4+4+).4+).).).!+).<.[.q-[.&'*'W+H+X+X+H+H+X+:@:@X+Y+:@8@='1=m-l+s.d@~.].]._.D$v%}%g.$#=.D>z+D;j,i+                              ",
"                              -'y %.i>M%i>e./&##D$M.].~.d@s.f.s.f.N#J&2=;'>'C#Y+Y+X+H+H+H+X+Y+C#j$,'''}><.!+!+4+4+4+N>9+r>9+9+N>*=r>*=X.t@)'!'J=~'F=H=F=--*-*-c=c=d=9-e=b=E=J='-)-P;{']'q-N>.=,..=.=S.S..=.=S.,..=,..=,.S.N,,..=,.E@4+<.9+$#K>,>^'/'P;P;%>O;P;)>z.S.,..=,..=,..=S..=.=.=,.,.N,.=.=,.,.,.N,.=.=,.S.,..=,..=.=S.,..=.=[.d.b;a>P;;;d;J='-J=E=e=9-d=c=I=c=I=--F=G=c=('b,#+r>d.X.X.*=N>N>9+r>9+9+r>f,4+4+<.<.).K,'._'x$:@H+H+X+X+X+X+H+X+X+f$8$:'T*^*f.A&d@~.~.]._.D$w%B.J&:=|.-.j,c.b.                              ",
"                              d $.%.$.W--.r.}%D$A.].J%~@d@q@s.f.N#N#s*<'['}'X+Y+H+X+X+X+X+H+k@i@|'1'<.f+!+f+!+4+9+O>N>N>r>N>d.X.*=d.d.).N,$-=-,-,-G=;-I=0-0-*-c=b=9-e=E=J=d;'-P;R,2'c,t@.=.=.=.=,..=,..=.=S.N,,.,.,..=,.,.,.,.!+=+d.3'm>8=4'5'P;P;P;B=B=%>P;o>6'N>.=,.,.,..=,.N,,.,.,.,.S.,.,..=,..=N,.=.=N,,.,.,.N,.=.=,.,.,.,..=.=.=*=D@1.7'B=Q;'-d;d;E=E=e=b=e=d=0-c=----F=H=J=8'b,J&*=X.*=N>*=N>9+9+9+r>r>9+4+9+f+).!+).9'0'a'_@X+H+X+Y+X+H+Y+H+X+<@b'c'3=J&^*f.W.~@d@~.(.M.D$##g.d'1.V&-.c.|.e'                            ",
"                            f'O #&x.M%$.U;h%W%M.].].J%A&s.f.f.:.s*#+R+x;g'K@Y+H+H+H+X+Y+Y+X+i@h'i'j'4+9+4+4+*=O>r>X.*=X.*=O>X.X.*=S.r>N.},d;,-,-G=I=----I=*-d=e=b=b=e;J=d;!-P;k'/-e.E@M>@+.=.=@+@+.=.=.=@+l'.=@+N.@+@+.=p,[.P-M m'n'o'P;P;P;&>L=%>B=%>p'B=P;q'}>.=.=@+@+@+@+.=.=.=,..=,.,..=,..=.=,.N,N,,..=,..=,..=,.,.,.S.S.,.S.,..=,.N,4+d.r's'P;'-'-'-b=b=9-e=b=d=I=c=--I=F=,-c=t'u'z.X.d.*=r>*=N>r>r>9+r>r>9+4+).f+).).'.v'w'_@j@H+H+H+X+H+Y+H+X+W+x'y'(-N#f.^*s.s.d@J%~.M.n*D$U&D@V&:=V&-.j,V,                            ",
"                            z'-+%.i>y 1.r.w%M.(.].~.~@s.f.:.:.^*#+#+t*A'B'h$:@Y+X+H+Y+Y+H+<@C'D'''9+4+4+N>9+N>N>*=*=X.X.X.X.d.E@E@*=).E'C-H=G=F=F=--*-*-c=d=b=e=e=E=J='-T-&>F'd-'.y.y.y.y.y.N.M>M>y.y.y.y.y.N.y.S.).r>d.w+G'H'I'P;P;P;p'J'J'%>L=L=J'%>O;P;K'1.*=y.y.@+N.y.y.N.M>M>@+y.y.M>@+y.y.@+@+@+y.M>@+.=@+@+.=@+.=@+.=.=@+.=@+@+.=@+.=,.q-L'M'P;C-'-'-J=E=E=d=9-c=*-I=I=--F=H=J=F,N'D@d.d.d.X.*=X.O>N>N>N>N>N>r>9+4+f+).f+O'P'i@X+H+Y+Y+X+H+X+X+J@Q'R'*;J&N#N#:.s.d@d@J%J%M.D$D$##d-K&V&-.;.D>*                           ",
"                          !,a %.i>i>M%[.G@D$M.].].~.d@s.f.:.^*J&#+#+N#t@S'W+X+Y+X+X+:@X+X+_@T'U'4+!+f,9+r>9+*=N>X.X.X.X.X.d.d.X.N,z.6-*->-,-,-G=I=*-c=I=c=b=9-e=J=J=E=&>f;!=4+9+M>N.N.y.@+@+@+y.N.N.y.N.M>S.).e.6>W-V'v;W'P;P;P;&>J'L=L=%>L=L=J'L=L=L=L=P;X'q-.=N.y.y.y.N.y.N.y.y.@+y.y.y.N.y.M>y.M>@+N.@+@+M>M>@+y.y.@+M>N.@+y.y.M>M>N.@+@+M>@+<.c.Y'P;K=J=J='-e;e=b=d=d=*-*-I=--F=,-=-c;w+}>S.N,X.d.X.X.*=N>N>N>N>9+9+9+9+!+).Z'`'0$_@X+H+Y+X+X+Y+X+W+a'R' )#+s*J&N#f.q@W.d@J%_._.D$##n-A$|.c.-.D;7&                          ",
"                          .)++#&i>4;w+g.g.M.].].d@~@W.f.:.J&^*#+s*s*A'+)@)k@X+H+X+X+H+X+;$k;#)$)9+9+4+r>r>*=N>*=X.X.X.X.d.E@E@E@z.T;%)>-~-H=H=I=*-*-*-c=9-b=b=E=b=d;&>&)*)[..=N.M>y.y.N.@+N.y.N.y..=S.d.}>N.;==)-);)P;P;>)J'L=L=L=O;L=J'L=L=%>%>L=O;L=P;,)%.f,==M>@+N.y.N.N.N.y.M>y.N.M>@+@+@+y.N.@+N.N.y.N.N.y.y.y.@+y.y.@+@+M>M>N.M>@+@+N.N.y.y.X.,.')))B=J='-J='-b=b=b=c=c=*-0-I=,-H='-!)c,*=E@E@X.E@E@X.X.X.*=d.O>*=N>9+9+!+!+J,~)_@G+X+X+H+Y+H+:@W+Q'R'};R+#+#+J&f.f.f.A&s.].J%].D$D$d-=.V&-.;.N+ >                        ",
"                          {)%.Z i>W-E@B.W%M.].J%d@W.f.:.^*J&s*s*R+n-A'])X+X+X+H+X+X+:@<@G*^)/)!+N>r>r>r>*=X.E@d.X.E@E@E@N,S..=P-4;()e=D-H=G=--I=*-c=d=b=b=b=E='-d;P;_)l='.N.N.N.N.N.N.N.==N.N.X.'.S.$#l='):)<)P;P;P;%>O;L=O;L=L=L=L=L=L=L=L=&>/>&>>)P;P;[)!+N.N.N.N.N.N.==}.N.========@+y.@+y.M>N.N.y.y.y.y.@+N.y.y.y.@+M>N.y.y.y.y.y.y.M>y.@+y.N.N.d.<.})|)L=J='-d;E=E=e=e=c=*-0-*-I=,-,-C-1)'.N>S.E@d.d.E@X.d.X.X.r>O>*=9+9+4+4+2)4+3)`+H+X+:@X+Y+X+$;b'4)*;D@#+#+J&^*^*:.W.s.d@].].n*5)U;=.-.-.c.c.`;                        ",
"                        { W #&$.o L l+##M.].J%d@A&f.f.^*J&J&R+C*D@C*9,l>8@X+Y+:@H+H+X+i@6)7)4+r>*=N>*=*=X.X.S.S.S.S.S..=.=.=r>u.t>d;A=H=G=>---c=*-c=9-b=d=J=d;J=P;8)1.f,N.N.==N.==N.N.}..=}>q-%,9)0):)T-P;P;P;L=Q;B=%>L=%>O;O;J'J'O;L=&>/>&>&>&>&>&>P;a)b),.}.==}.c)}.}.c)}.Q-Q-}.}.}.}.====N.N.==M>M>y.@+y.N.N.y.N.@+N.@+N.@+@+N.N.M>N.@+y.y.M>y.@+==N,!+d)e)B=J=d;J=b=9-d=e=d=*-c=>->-G=0-'-f)z.d.S.E@E@E@X.X.X.*=*=N>N>r>9+9+4+4+g)h)h@G+X+X+X+:@Y+<@8$i)V;C*#+#+#+^*f.:.q@s.d@~.].J%##].Z-|.-.c.j):=)                       ",
"                        k)i>#&M%o $#r.M.~@J%d@s.s.f.^*s*#+D@C*z.z.e.l)m)n&:@H+X+X+H+g$@)n)o)*=*=X.*=d.E@X.E@,..=S..=N,@+.=,.*=1)!-A=G=G=I=I=c=*-d=b=9-b=E=d;'-P;p)w+r>Q-}.}.}.}.h#N,d.4+V&b>q)#'/>P;P;J'%>%>B=L=L=L=L=O;L=L=L=&>/>&>&>&>&>/>&>&>>)/>P;r)X.}.s)u+Q-u+Q-s)s)Q-Q-Q-u+Q-Q-Q-Q-s)s)u+s)}.==c)}.Q-}.}.}.}.Q-}.c)|$|$N.N.====N.====N.======N.N.y.!+R=t)>)'-J='-J=b=9-e=c=c=c=--;-G=*-0>u)}>,.,.,.E@S.E@d.d.d.d.*=r>N>N>r>9+f+v)w)F+X+H+X+H+H+Z@8$i)x)e.D@R+s*J&^*^*:.q@s.~@J%M._.r.N>K&-.w,;.z+l                       ",
"                      y)3.y,++0.#&^*g._.J%~.s.s.^*f.N#J&s*D@C*e.P-z)A)B)J@Y+X+X+X+X+)#C)7)*=*=*=p,*=E@E@S.E@,.,.,..=,.@+.=[.d,c=D-,-F=G=I=0-*-d=c=b=9-E=J=d;P;c;1.*=u+Q-u+}.*='.!@G-D)E)&)9-P;P;O;%>B=%>%>J'O;L=L=L=L=L=L=&>&>&>&>&>F)&>>)&>&>/>&>P;G)i>X.Q-s)Q-u+u+u+Q-s)Q-u+u+s)u+u+Q-Q-u+Q-Q-Q-u+u+Q-}.==}.}.c)}.}.}.}.}.}.}.Q-}.Q-}.}.Q-}.c)}.}.==}.c)@+r>R=I>&>'-J=e;b=d=e=b=d=I=c=I=F=,-J=H)I)4+@+,..=,.S.N,S.E@E@d.X.N>N>N>N>r>J)K)L)<@Y+H+H+X+(@M)N)w>=;z.D@#+#+J&^*:.f.q@d@~.J%M.D$s.;.V&j,c.u.V,                      ",
"                      O#0.#&i>y V&g.M.].J%~@s.s.f.^*s*#+s*z.D@z.t@&'O)P)C#X+H+H+X+`+Q)R)S)*=X.*=*=d.d.E@E@E@,..=S..=@+@+'.4;I'c=J>G=F=I=;-c=c=d=d=d=b=b='-&>T)U)N>Q-u+y.).p,i>V)W)N=P;P;P;&>*>T-%>%>%>%>%>O;L=L=L=L=O;>)&>&>&>/>/>&>/>>)&>&>&>&>&>P;r)*=Q-!@u+u+c,c,u+c,c,k+c,c,u+c,u+u+c,!@!@u+c,u+c,!@k+u+u+Q-u+u+s)Q-Q-Q-Q-u+u+s)Q-u+Q-Q-u+u+Q-Q-}.}.Q-u+}.r>D)X)B='-d;b=E=b=e=e=*-*-*->-H=;-C-,>N,d..=.=,..=N,E@E@,.E@E@*=X.r>N>*=9+Y)Z)F+D#X+H+Y+X+_@`) !P-t@C*C*D@#+J&^*^*:.A&~@~@(.M.g.!@A$j,w,j)j)%                     ",
"                      .!x.$.M%o f+##].J%s.d@q@:.s*#+R+C*z.e.e.&#&#L;+!F+D#H+H+Y+D#_@@!#!d.d.d.d.d.E@E@,.,.@+@+@+@+.=y.E@u+e,b=D-H=G=;-c=c=c=e=d=b=E=J=e;P;g=4=4+E@X.y.x V'+,$!P;P;&>*>*>T-*>p'B=B=B=L=J'L=J'J'L=F)&>&>&>&>/>&>&>&>&>&>&>/>/>>)&>P;%)u;d.!@u+c,!@c,!@c,c,!@c,u+c,c,c,k+c,c,c,u+k+c,!@!@u+u+c,u+c,c,Q-s)Q-u+u+Q-s)Q-u+Q-u+Q-u+Q-s)u+Q-Q-u+Q-u+u+}.9+%!=>O;'-'-e;b=d=b=c=e=*-----H=--&!*!q-y..=@+@+,..=,..=.=S.d.d.X.X.X.d.=!-!;!Z@X+X+H+Y+>!,!;,&#&#e.e.C*D@s*J&J&:.f.s.d@~.~.D$&#|.z+w,;./+Y                     ",
"                    '!N #&Z W-J s.D$].d@A&q@^*:.J&s*D@z.z.t@&#[.g))!!!;$X+Y+X+H+W+~!{!]!d.N,E@E@N,,.S.l'@+M>M>@+y.N.N.!+_,E=~'~-F=;-I=0-I=d=b=e=9-E=J=O;^!J J&m=M%w=/!(!%>P;P;Q;T-C=*>C=*>B=Q;Q;%>L=L=L=O;L=J'&>&>&>>)>)&>&>&>&>&>&>&>&>&>&>&>>)P;#,N>!@6>!@!@_!!@_!!@!@!@!@6>6>!@!@!@!@!@!@!@!@6>6>_!!@_!!@u+c,u+u+u+s)u+u+s)u+u+u+Q-u+Q-Q-Q-u+Q-u+u+u+Q-s)Q-Q-==).q,:!u>'-J=J=d=d=d=d=*-c=I=>-H=9-_)w+N>l'@+@+,.S..=,.N,S.E@E@X.X.X.X.X.J)<!i@X+:@X+X+e$[!'.z)&#t@z.D@C*s*s*N#^*:.f.s.~.~.A.~.Y.V&c.w,u.j)D                   ",
"                    }!x $.M%P#!@5)M.{.d@s.s.^*^*s*#+z.D@e.e.q-q-|!1!2!j@X+X+H+H+_@3!4!d.d.E@S.E@N,.=.=@+N.y.@+@+N.==4+W-5!;-,-,-G=----I=d=d=d=9-J=d;T-$!u)6!7!8!9!P;&>J'C=>;*>T-C=*>*>T-B=p'%>B=O;%>J'O;J'O;&>&>&>/>/>/>&>/>&>&>&>&>&>/>/>/>&>P;K=0!N.$#!@!@a!!@!@6>a!6>!@!@6>6>!@a!a!6>!@6>6>!@!@!@!@!@!@!@!@!@!@$#$#!@!@c,c,!@!@c,k+!@!@c,!@u+u+!@!@u+u+c,u+!@!@u+d.b!&>C-J=d;b=b=b=b=0-0-*-F=G=H=J=Y',.y.@+.=@+.=.=.=S.N,N,S.E@*=X.X.X.]!c!d!C#X+X+X+J@e!f!g!&#t@e.=;D@D@s*J&^*:.f.W.d@J%(.##N>L&-.N+u.j)4.                  ",
"                    A #&Z W-i>q-}%~.d@s.l+:.N##+D@D@z.z.&#&#[.[.g)h!)#:@X+:@Y+n&i!j!k!,.E@N,,.,.@+@+y.y.N.N.@+y.==E@!@l!'-D-G=H=F=c=c=0-e=e=9-E='-d;e;m!n!o!P;P;T-;;>;)-C=C=B=C=*>T-Q;%>Q;B=L=J'L=O;O;O;&>&>&>&>&>&>&>&>&>&>&>&>&>&>F)&>&>&>/>P;p!y.6>$#$#$#$#$#6>6>6>$#$#$#6>$#$#6>_!$#_!6>$#6>$#q!$#_!$#6>6>$#$#$#$#6>_!!@6>!@!@!@!@!@!@6>!@!@!@!@!@!@6>6>!@!@6>6>N.c,W)P;!-'-J=E=d=e=d=d=*-c=--G=I=c=r![.====N.@+@+@+N.@+@+.=S.E@d.d.E@X.s!t!u!Y+X+X+Z@=$v!w!q-q-q-&#z.D@D@R+J&J&f.^*s.d@~.##C*c.|.-.x!j)y!                  ",
"                  z!W #&M%A 1._.M.~.~.q@f.N#s*s*D@D@e.t@t@[.[.&#A!B!(@X+X+H+X+C!D!E!X.E@E@,.N,.=.=N.@+N.==N.N.N.}.9+*!b=~-D-,->---I=I=c=e=d=b=E=J='-J=M=P;L=K=u>K=>;>;>;C=*>C=T-C=p'p'Q;B=L=J'%>O;L=L=&>&>&>>)&>>)&>&>&>&>&>&>>)>)&>&>&>&>&>P;F!u)d.$#$#_!$#$#_!$#6>$#_!$#6>_!$#6>$#q!_!$#_!$#6>6>$#$#q!6>$#a!X.X.6>$#$#$#$#!@!@6>!@!@6>!@_!!@6>!@_!6>6>6>!@6>6>_!!@!@,.m=G!P;J=d;'-9-b=9-c=*-c=-->-H='-H!w+N>}.==N.M>y.M>y.@+@+,.,.E@E@E@E@4!I!J!i@X+H+X+K!L!9,<.[.q-t@t@e.D@D@#+N#^*:.f.s.d@J%_.$#L&-.N+/+-.$@                ",
"                  M!Z $.y W-$#<+~.d@d@:.:.N#J&R+D@t@t@t@t@<.).|!+!_@H+H+X+X+)#N!O!P!E@S..=N,.=,..=y.N.|$N.N.==}..=m=E,;-A=G=,-I=*-*-c=e=9-9-'-d;J='-!-C-K=K=;;;;)-R;*>C=C=T-*>C=Q;B=B=B=L=L=O;L=J'/>/>/>/>/>&>&>/>/>&>/>/>&>/>&>&>&>>)/>&>P;P;Q!==6>R!$#R!q!R!R!d-d-d-$#$#q!R!R!q!q!$#R!$#$#q!q!$#q!$#_!c,.=}.T;S!m=!@$#q!d-q!_!6>!@$#6>$#$#$#_!$#q!6>6>6>_!$#$#$#$#_!$#.=/-T!)-d;d;E=E=9-b=d=*-*-I=H=H=D=U!X.|$==N.@+N.y.y..=@+.=.=S.S.E@E@X.V!W!i@G+Y+H+J@X!K,[.}>'.q-t@&#C*C*s*#+N#:.:.s.~@~.##m,A$-.c.u.D;}                 ",
"                  Y!#&y 4;Z D@A.~@g&s.^*J&t*#+C*z.e.P-q-q-<.e.)!Z!i@X+X+Y+j@J@`! ~N,E@@+@+@+@+@+y.N.==}.==}.}.u+9+.~'-D-H=G=F=I=c=d=d=b=b=J=d;J=d;'-C-M=K=u>K=)->;T-C=T-T-C=B=Q;%>B=%>J'J'%>%>O;&>&>>)&>&>&>&>&>&>/>&>&>>)&>&>>)&>&>&>&>&>P;&!>=E@q!R!d-d-$#R!$#q!R!$#$#q!R!d-R!q!R!d-R!R!q!R!d-$#$#.=.=+~m'@~#~$~4;.=q!$#q!d-$#$#6>6>$#6>6>_!6>6>q!$#$#$#$#_!$#q!_!_!6>6>*=q,B=;;J='-E=d=b=b=c=*-I=F=H=>-%~&~d.Q-c)N.N.======y.@+@+.=.=,.E@E@*~=~-~Z@H+H+C#;~4+<.<.).'.&#t@z.=;D@#+#+^*^*f.s.J%].N#c.-.c.;.5+7&                ",
"                Q.y i>y 4;I D$~.d@~.s.:.J&N#s*z.z.e.t@q-'.).>~,~<@j@H+X+X+f$'~)~!~S..=@+.=.=y.@+N.==N.c)}.Q-u+O>i>~~*-~-H=G=I=I=c=d=e=e=E=J='-J='-!-C-K=u>K=>;>;R;T-C=C=*>T-C=B=B=B=L=L=L=J'O;&>/>&>&>&>>)&>&>>)>)&>&>&>/>&>&>&>&>>)>)&>&>P;n!d.{~d-q!d-$#d-q!d-q!q!d-d-d-q!d-q!q!q!$#q!d-R!q!q!,.N,u; ']~P;P;P;^~-=s)d-$#d-$#q!d-d-$#$#$#6>$#$#_!$#_!q!$#$#_!$#$#$#_!$#6>c,@+,>P;D=J=b=E=9-e=d=I=*---H=H=J=Q!S.Q-}.N.N.==}.N.M>@+.=@+,.,..=S.S.P!/~(~Y+X+F$_~:~O').'.[.'.q-e.z.#+#+s*J&N#^*s.d@~.].$#V&c.;.u.<~)               ",
"                [~x.Z 4;A u+D$~.s.f.:.^*s*D@D@e.t@q-[.'.<.}~|~1~J@:@X+H+X+J@2~3~S..=@+M>y.M>==}.==Q-}.Q-s)s)y.y.4~D=J>F=G=;-I=I=c=e=e=b=E=d;J=D='-C-K=;;;;u>>;)-T-T-C=*>C=T-B=p'%>L=J'L=L=L=&>&>&>&>&>&>&>&>&>&>&>&>&>&>&>&>>)/>>)>)>)&>P;P;K>Q-{~{~{~5~5+{~{~{~d-{~{~d-{~5+{~{~{~d-d-d-d-!@N.u+6~7~8~P;P;&>P;9~0~X.{~{~5+d-5~{~{~d-d-d-q!$#q!$#d-$#R!d-d-R!d-d-R!q!$#q!q!d-}.:+a~%>J='-J=9-b=9-c=c=----G=I=G)9)!+Q-Q-}.==Q-}.N.==@+y.@+,.N,,.S.b~^)<@X+H+j@k@c~d~!+).[.[.q-t@e.e.D@D@#+^*f.s.W.~.].*=A$c.D;j)e~f~              ",
"                g~%.N M%-+z.D$~.s.f.N#J&#+R+C*t@P-q-'.).).J,T')#H+X+X+X+H+h~i~!~.=@+.=y.@+====|$Q-Q-Q-u+u+u+X.T>a=>-D-H=,-I=*-c=d=b=d=e='-'-'-D='-;;;;u>K=>;>;C=C=C=T-T-*>B=B=B=J'%>L=L=J'&>&>&>&>&>&>>)&>&>&>/>&>&>&>&>&>&>/>&>&>&>&>/>P;j~5+_!{~{~5+5+d-d-{~{~{~5+d-{~{~{~{~d-{~{~q!@+N,k~#>l~#~P;P;&>&>&>P;k'}.{~d-{~d-{~{~{~5+d-d-{~$#d-d-d-q!$#d-$#d-$#d-d-d-$#$#$#q!q!{~d.$,m~!-J=d;E=e=b=c=c=*-I=F=,-=-Z,{~@+c,Q-}.}.c)}.N.N.@+@+.=@+.=N,n~j!o~i@X+X+F+p~j'!+!+'.<.'.&#t@&#z.C*#+J&^*^*s.s.].N#V&c.D;Y.5+q~              ",
"              r~$.#&N W-I f.].s.s.f.J&J&D@z.z.P-&#'.<.).$)s~I;C#X+H+X+:@(~t~u~v~.=y.@+|$N.}.Q-}.u+c,!@u+!@c,y.3;b=~',-,->---*-*-e=e=e=b=J=d;!-D=C-u>u>K=C=R;>;*>C=T-C=C=%>%>B=L=L=L=L=L=>)&>&>&>/>&>/>>)&>&>&>&>&>&>&>/>&>&>&>&>&>&>/>P;w~x~N,5+{~5+)')')'5+5+5+5+)'{~)')')'5+)'y~N.l'l=z~^!P;P;P;&>&>>)/>/>P;b,N.d-{~d-{~{~{~d-{~{~{~{~d-{~d-d-q!q!R!R!$#d-R!$#d-d-$#d-q!q!q!c,u+A~P;J=J=J=9-9-c=d=c=-->-G=>-*-T;*=Q-u+Q-}.}.}.==N.@+y..=@+.=.=E@s!B~<-D#X+_@C~D~J,9+'.}>[.q-t@t@D@D@#+J&J&f.q@W._.s.d-D>;.u./+D;              ",
"              E~s M%M%P#u.D$~.f.^*1*J&#+R+e.t@&#'.).f+S)j'F~i@X+H+X+H+X+K@G~H~@+M>==N.}.}.s)s)Q-!@6>!@!@_!y.M%&-,-D-H=;-I=c=c=c=d=e=b=J='-J=C-M=;;K=;;K=R;)-C=T-C=C=C=C=B=%>B=L=J'L=L=&>&>&>&>&>&>&>P;P;P;&>/>>)&>&>&>&>&>&>&>&>&>P;P;P;I~)'$#J~/+)'/+.')'/+)'/+)'/+)')'/+)'c,c)d-9)>>K~P;P;P;P;&>&>/>&>&>P;L~/+d-/+)')'/+/+/+/+)')'5+)'5+)')'{~d-d-d-d-{~{~{~{~{~d-{~d-d-{~{~{~M>M~N~L=J=e;E=b=b=c=c=I=-->-H=e=Z,}.Q-c,Q-Q-u+u+Q-}.}.==N.y.@+@+,.P!O~P~_@X+Y+p+Q~B,9+!+).<.[.q-q-=;e.D@R+J&J&:.f.d@].,.K&c.j)5+/+,             ",
"              x,%.y y W-l'D$s.q@f.J&#+D@D@z.t@[.[.<.!+B,R~S~<@Y+X+X+H+<@T~U~V~@+M>==}.}.c)Q-u+u+!@!@6>!@!@d.i=d=A=F=H=;---0-c=d=b=e=E=J=J=D=M=M=u>K=;;)-C=>;C=C=*>B=T-%>Q;%>J'L=J'L=&>&>&>&>&>&>P;P;P;W~W~&>/>&>&>&>&>>)&>&>&>P;P;P;P;K=M,N./+.'X~u..'.'u..'.'/+/+)')'/+y.l':+*!Y~Z~P;P;P;P;P;P;P;&>&>&>P;'-K>,./+/+/+/+/+)'.'/+)'/+/+/+)')'/+y~)')'y~5+)'5+)'5+y~)'5+5+5+5+y~5+5+S.p>/>C-d;E=d=9-9-*-c=c=>-,-;-`~ {y.a!u+u+u+Q-Q-}.c)}.N.y.y.y..=E@P!.{F+Y+H+i@+{@{#{9+!+!+'.[.&#&#e.z.#+#+^*^*f.s.M.).-.N+u./+/+p&            ",
"              )+i>M%o 6+z.(.W.:.N#^*#+D@C*e.q-q-'.<.K,${%{W+H+X+Y+Y+:@F+&{*{@+y.N.N.}.}.Q-Q-Q-c,6>!@6>$#.=r,={c=D-G=G=I=I=0-d=9-d=E=E=d;'-!-C-K=K=u>K=)-R;T-*>T-T-T-B=B=B=L=L=L=J'&>&>&>&>P;P;P;|)I~-{0!Q!P;P;&>/>&>>)&>&>&>P;P;P;P;P;;{{~.'X~u.u.X~.'/+/+/+u.X~/+/+_!==u;U!>{P;P;P;P;P;P;P;P;P;P;P;P;&>P;,{!@y~.'/+.'X~.'/+.'u..'/+/+J~/+/+/+/+J~/+/+J~J~)'5+)'5+{~5+5+5+)'{~5+/+q!'{F,T-'-'-b=b=e=c=*-c=I=F=F='-7~X.!@!@u+c,c,u+Q-u+}.========@+M>V~){!{D#X+X+i@~{{{9+4+4+).[.'.&#t@D@D@#+s*^*f.s.].#+u.-.;.u./+B$            ",
"            #@W Z 4;A X n*W.q@N#J&R+C*C*e.q-'.<.!+f+''F~;@H+X+X+H+X+j@g$]{H~==N.}.u+Q-Q-!@c,6>!@_!6>q!!@d.^{b=D-H=G=F=*-I=*-e=b=b=E=d;'-D=D=;;;;;;;;)-R;B=T-T-T-C=%>B=B=O;L=J'L=L=P;P;P;P;>;/{({+'-.q-;=_{P;&>&>&>>)&>&>P;P;P;P;P;P;P;:{u+.'.'X~X~/+X~u.u..'X~$#}.)'<{7'K~P;P;P;P;P;P;P;P;P;P;P;P;P;P;P;[{<{s)X~X~.'.'X~/+u..'X~.'X~J~)'/+/+/+/+J~)')')'/+/+/+)'/+/+q!d-)'/+)'/+)'/+==d,B=D=d;J=b=b=e=d=0--->-H=d=()u;E@a!!@!@!@!@u+u+Q-Q-}.}.c)==y.@+}{|{C#Y+Y+<@1{2{*=r>r>).).<.[.&#e.z.C*#+J&N#:.s.J%3{z+N+;.y~w,            ",
"            4{Z M%4;l=u.n*s.q@N#J&#+z.z.&#&#'.).f+''5{k@(@X+Y+H+Y+:@k@-~6{7{Q-}.u+u+u+c,u+6>!@_!d-q!d-s)+~8{J=A=H=G=F=*-c=d=9-d=b=J=J=D=D==-;;K=K=R;R;>;T-T-*>*>C=B=B=%>L=L=L=P;P;P;9{S;.~0{'{6>}.{~q!P=P;&>&>&>&>&>&>P;P;P;P;P;P;P;;{A${~-=u.-=u.-=-=u.u.6>X.v a{@~K=P;P;P;P;P;P;P;P;P;P;P;P;P;P;P;P;P;b{6>-=u.-=-=X~-=u./+u.u..'X~.'u.)')'/+)'/+)')'J~)'J~/+)')'S.-=c.)'/+/+J~J~)'q!c.c{P;d;E=b=9-e=d=0-----;-H=C-!>S.!@!@!@6>!@c,!@Q-u+==c)}.N.y.@+d{e{_@H+Y+(@X*f{J)*=9+4+'.).'.U;e.z.C*#+s*^*:.q@~.g{D>D;Y.Z-/+-           ",
"            h{Z M%W-W-X.~.s.:.N#J&D@z.z.q-&#'.<.J,i{t=_@X+H+X+:@X+Y+Z@j{k{==}.}.u+u+u+k+!@_!$#$#d-R!d-M>l{>-,-J>G=F=I=*-d=d=9-d='-'-d;!-=-M=K=K=>;>;R;*>*>C=C=T-Q;B=B=L=P;P;P;K=n!H>m{5+==5+-=-='{d-+'C-P;&>&>/>&>P;P;P;P;P;P;P;P;>;q,M>;.;.;.;.;.'{.'{~c,4;'>2>P;P;P;P;P;P;P;P;P;P;P;P;P;P;P;P;P;P;P;d=n{6>;.-=;.-=-='{-=;.;.6'6'-=;.-=-=-=X~/+X~u.X~u.u.u.{~s)/+M,Z,2'c,X~.'.'/+u..'S.*!9-K=d;E=J=e=e=c=c=I=G=,-d=H!k~N.6>6>6>!@$#u+Q-Q-Q-}.}.N.==y.o{p{e$H+X+H+i@q{d.9+*=9+).).[.q-[.=;C*#+#+N#f.:.d@&#-.c.j)Y.d-5.          ",
"            8 i>M%W-y ^*d@s.:.s*#+D@D@z.t@[.f+''r{s{_@Y+X+Y+X+H+X+X+`+t{u{N.}.}.Q-u+!@c,6>!@q!$#q!q!d-==v{I=D-H=F=I=I=*-d=b=e=E=b=d;J=!-=-;;K=>;;;>;>;C=*>T-T-C=B=P;P;P;Z~#'4>w{G-.=s).';.-=6';.u.!@+,P;&>&>>)&>P;P;P;P;P;P;P;P;P;x{M;5+-=6';.;.q!}.'{n{y{z{P;P;P;P;P;P;P;P;P;P;P;P;P;P;P;P;P;P;P;P;P;A{5+.';.'{-=;.-=;.;.;.'{-=-=;.'{-=u.-=-=-=-=X~u..'c,}.k~F-M''-P;V's)u.u.X~u.-=u.y~m=-;P;J='-E=b=b=c=I=c=--H=G=d;B{==q!q!R!d-6>_!6>c,c,u+u+c)====C{D{0$8@X+H+8@E{F{/)r>9+9+f+<.'.[.z.e.C*D@J&^*:.s.^*c.c.x!u.G{X           ",
"          H{3.i>M%W-s d@s.q@:.s*#+D@e.t@q-).''c!I{`+Y+Y+X+X+Y+X+X+J{m&K{C{}.}.s)u+u+!@!@_!$#_!R!d-$#$#1.L{F=~-H=,-I=I=I=c=d=b=E='-e;!-C-=-u>K=;;)-R;*>C=*>C=%>P;P;a)p)M{T>/+$#Q-5+-=-=u.-=;.;.-===*)N{P;&>>)&>P;P;P;P;P;P;P;P;P;P;d,u+;.;.-={~N.I O{8!&>P;P;P;P;P;P;P;P;P;P;P;P;P;P;P;P;P;P;P;P;P;P;#~*)N.6'-=-=;.-=-=-=-=-='{;.;.-=;.-='{u.-=u.-=u.c,}.W-P{_)P;P;P;Q{J 5+u.-=-=-=-=-=u.Q-j=C=d;J=e;9-d=d=I=*->-F=H=c=%'}.q!d-d-d-q!_!_!!@c,c,c,Q-u+}.R{Q-S{T{X+X+Y+)#3)U{]!N>9+f,).}>'.q-t@z.z.#+s*f.q@s.G{j,;.u.5+x!          ",
"          V{++Z W-u;w,~.q@^*N##+=+t@t@&#'.Z'r>W{F*D#X+H+X+X+X+X+H+i@X{Y{Z{Q-Q-k+6>_!!@$#_!q!R!{~d-d-C,`{I>,-,-H=;---*-c=9-b=b=b=d;'-D=!-;;>;K=>;)-C=L=&>P;P;>;8! ]<{X~N.5+-=u.-=;.;.'{c.c.;.'{u./+{>P;/>>)&>P;P;P;P;P;P;P;P;P;P;.]-.u./+R!u+x .~G!P;P;P;P;P;P;P;P;P;P;P;P;P;P;P;P;P;P;P;P;P;P;P;P;P;+]$#-=;.-=;.-=;.-=;.6'6';.;.'{;.;.-=-=-=-=J~q!==/-@]w;P;P;L=p'P;,>q!-=-=6'u.u.-=6'-=)'=.~~>;J='-d=b=9-c=*-0---H=I=5!#]6>q!d-q!R!R!6>!@c,c,u+!@Q-Q-c)$]%]i@D#X+X+X+J@&]4!*=r>4+f+}><.q-t@e.C*D@J&^*s.d@N.V&N+*]5+3{%#        ",
"          =]M M%y P#==].f.N#J&s*R+e.t@'.g!-];]J@G+X+X+Y+X+X+X+:@:@-$>],]}.u+c,u+!@_!6>q!R!{~5+5+5+d-6>h=D=J>G=,-I=*-I=d=d=9-b=J=J=D='-C-K=;;K=B=P;P;B=<)8!=)']A$==c,u.6';.-=6'-=;.;.'{c.;.'{c.d-)]K=P;&>>)P;P;P;P;P;P;P;P;P;P;P;n,}.Q-;.u)3;!]P;P;P;P;P;P;P;P;P;P;P;P;P;P;P;P;P;P;P;P;P;P;P;P;P;P;~]<{$#c.{]'{'{'{;.c.{];.'{'{;.;.;.;.'{-={~M>c.9)!)e)P;P;%>%>%>J'&>*)}.u.u.X~u.-=u.-=-=u.$#0)P;d;d;E=9-9-d=c=I=>-,->-F=]]E@q!q!d-d-$#$#_!!@!@c,c,Q-u+}.o{^]7$Z@H+H+H+Z@9$I!j'r>r>4+'.<.q-&#z.n-D@J&N#l+d@r>V&;.u.G{!@h-        ",
"          /]W 0.4;A ).M.:.^*J&#+R+t@U;9'(]_];@X+X+H+X+X+Y+X+X+X+(@2!:]<]u+!@u+c,!@6>$#q!R!d-d-)')'}.4;[]c=J>F=H=--c=c=d=b=9-E=J=J='-D=u>;;p'P;P;I'A{}]|]{~d-d-/+'{'{'{'{'{'{c.'{;.;.c.+~m=m=c.J~+,P;/>>)P;P;P;P;P;P;P;P;P;P;P;m!A$-.O{7->;P;P;P;P;P;P;P;P;P;P;P;P;P;P;P;P;P;P;P;P;P;P;P;P;P;P;P;P;1]5+c.c.{]'{'{'{c.c.'{'{'{c.'{c.'{c.-=@+I 2]3]P;P;P;&>%>O;L=L=P;4]=.5+;.-=;.;.;.-=;.;.-=s)5]o!)-d;J=9-d=d=*-I=----G=!-6]}.$#R!R!d-R!$#_!_!c,c,!@Q-s)}.R{7]~!l@H+X+X+j@F+8]p,9]9+9+4+'.q-[.e.D@D@J&N#^*~.t@-.N+u.Z-$#Y         ",
"          9 #&M%W-q C*~.s.:.N##+C*z.0]a]b]<@j@H+H+X+H+:@H+H+H+H+Z@c]d]e]==Q-Q-c,6>6>!@$#q!$#d-d-{~E@f]g]D-F=G=F=*-*-d=b=b=e='-'-!-T-&>P;p'h]i]b;u;!@==)';.-='{;.-='{-=;.6'6';.;.;.'{'{'{{]c.q!j]|)P;&>&>P;P;P;P;P;P;P;P;P;P;B=')k]8)P;P;P;P;P;P;P;P;P;P;P;P;P;P;P;P;P;P;P;P;P;P;P;P;P;P;P;P;P;P;Z~l]q!+~c.m=m=m=c.m=c.m=m=m=c.m=;.y~_!#]M{x{P;P;&>>)&>>)&>L=J'>)P;^-y.'{;.'{{];.'{c.c.c.;.u.-=+,P;'-J=b=e=e=d=*-;-F=,-c=^>l=N.)'5+5+5+{~d-d-$#$#!@!@u+u+u+m]n]J@Y+H+X+X+k@o]p]/)9+N>9+!+<.'.t@=;z.s*J&^*s.R+q]c.;./+$#L&        ",
"        r]$.++y P s]:.J%s.f.J&#+D@w>t] %;$D#Y+X+X+X+Y+H+X+Y+:@X+)#+{==7{Q-Q-Q-s)!@c,!@6>$#q!R!q!!@q!i]D=J>G=G=>-c=c=d=e=d=E=>;P;P;o!.]u]+'k~/+.=c,/+u.u.-=-=X~u.-=-=u.-=-=;.6';.6''{{]'{'{u.$#P=P;&>>)P;P;P;P;P;P;P;P;P;P;P;v]w]&>P;P;P;P;P;P;P;P;P;P;P;P;P;P;P;P;P;P;P;P;P;P;P;P;P;P;P;P;P;P;P;P=/+.'c.;.'{c.'{{]'{'{;.c.m=-=Q-u.x]q)p-P;P;P;>)&>&>/>&>&>>)L=P;y]W-d-'{c.c.'{'{'{'{c.'{'{'{.=n,R;!-J=b=b=e=c=I=I=>-F=H=J=a{E@)')')'y~{~$#$#6>q!6>!@!@c,!@z]A]k@D#Y+H+:@H+C#j$B]{{r>4+9+<.[.q-&#z.D@s*J&l+^*$#j,j)/+$#x!        ",
"        C]v #&M%A V&J%~@:.f.s*D]z-E]F])#H+X+Y+H+H+Y+Y+H+X+H+X+H+J@G]H]==}.u+u+k+u+c,!@!@_!R!R!R!u+=.x{;-~',-,---c=c=d='-)-P;t'I]J]K]{~c,q!5+.'u.-=-=u.u.-=u.X~-=-=u.u.u.u.u.u.u.-=-=;.6';.}.l]f;P;&>P;P;P;P;P;P;P;P;P;P;P;P;P;P;P;P;P;P;P;P;P;P;P;P;P;P;P;P;P;P;P;P;P;P;P;P;P;P;P;P;P;P;P;P;P;#~*)}.'{c.'{c.'{'{c.{]'{;.;.c,.'b,3>>-P;P;P;/>&>&>&>&>/>&>&>&>O;P;%'==6'-=-=-=-=-='{6';.6';.;.5+v L]T-d;b=9-e=c=d=*---H=H=M=q)q!$#{~5+y~{~q!d-_!_!6>!@6>!@!@R{M]N]j@H+H+:@:@X+;@O]P]Q]r>9+'.'.&#t@z.D@s*J&f.W.N.-.j)/+d-R]        ",
"        S]w i>4;V$.'##s.:.^*J&t@T]U]V]:@X+Y+H+Y+X+X+X+Y+X+H+H+j@k@W]z]====Q-Q-u+c,c,!@!@6>d-$#q!N.u),-D-D-H=>-e=K=K=E=t'X]a{/-;.*=c,.'6'u.u.u.u.u.-=-=6'-=-=u.u.X~-=X~X~u.-=u.-='{;.;.;..'/+7'P;/>&>P;P;P;P;P;P;P;P;P;P;P;P;P;P;P;P;P;P;P;P;P;P;P;P;P;P;P;P;P;P;P;P;P;P;P;P;P;P;P;P;P;P;P;P;P;!'q!u.'{;.;.-='{'{;.-=6>a!'{d,L~_{P;P;>)/>/>&>&>&>>)&>&>&>&>&>&>P;Y]{~-=u.u.-=X~u.u.u.u.u.-=-=-=}.Z]%>'-J=b=b=b=c=I=--F=G=c=`]=.u+q!q!d-q!q!6>6>!@u+u+u+u+Q-N. ^.^(@H+X+X+Y+Y+X+i@+^9+O'!+<.'.P-&#e.D@#+J&f.(.t.j,u.Y.d-R]@^      ",
"        #^2.$.4;W-N.D$W.:.A&q@$^K!C#Y+H+X+H+Y+H+Y+Y+X+X+H+X+Y+X+%^&^*^N.}.Q-u+u+u+u+c,_!_!$#$#_!y.^-*-D-H='-J'2;->W)b;M 5+N.c){~.'.'u.-=X~X~u.6'-=X~u.u.u.u.-=u.-=-=u.u.-=u.u.;.'{'{;.;.q! {K=P;&>&>P;P;P;P;P;P;P;P;P;P;P;P;P;P;P;P;P;P;P;P;P;P;P;P;P;P;P;P;P;P;P;P;P;P;P;P;P;P;P;P;P;P;P;P;v],=$#;.;.;.;.-=;.'{c,===^)=1;P;P;P;>)>)&>&>&>/>/>&>&>&>>)&>&>&>P;^'c.J~u.u.u.u.u.X~u.u.u.u.u.-=X~!@d,B=J='-J=9-9-d=*-I=F=H=D---M%Q-d-d-$#R!_!!@6>6>u+c,!@u+}.N.Q--^<@Y+Y+X+X+X+:@8@_@;^}~[.'.'.e.e.D@R+J&J&:.~.4+;.u.Z-3{R]^;      ",
"        l{%.Z 4;N r>M.s.f.f.i;>^,^D#H+X+:@X+:@X+H+X+X+X+H+H+X+F$'^)^l'M>@+|$}.}.}.u+u+!@u+!@!@!@.=!^d;b=H=/!r)b,~^.=s)6>q!)'5+)')'/+)'/+/+.')')'/+/+/+X~.'.'.'.'X~u.u..'/+.'X~u.u.u.-=u.c,{^P;&>P;P;P;P;P;P;P;P;P;P;P;P;P;P;P;P;P;P;P;P;P;P;P;P;P;P;P;P;P;P;P;P;P;P;P;P;P;P;P;P;P;P;P;P;P;P;P=/+u.;.;.-=;.u.q!c,5]b-$!P;P;P;P;P;P;/>&>>)&>&>/>&>&>&>>)&>&>P;P;G'u+-=-=-=-=-=u.-=-=u.u.u.u.-=-=q!]^R>'-J=b=9-9-d=I=I=F=F=,-*-^^}.$#$#q!d-6>!@6>!@u+c,u+u+}.}./^(^i@X+Y+X+H+H+X+X+k@Z@5{B,[.[.t@z.z.D@#+s*:.d@q-*];.Z-3{!@ =      ",
"        _^%.Z W-%.P-].W.:.:.N#*;$^`+H+Y+X+X+H+H+Y+Y+X+H+H+H+X+<@:^<^,.@+N.}.Q-}.}.u+u+u+6>6>6>!@==b,[^'>/-1.S.d.u+{~d-{~{~y~)'5+5+J~/+/+/+/+/+.'/+/+/+/+/+/+.'.'/+J~)'/+)')'/+.'.'.'/+Q-,=}^P;&>P;P;P;P;P;P;P;P;P;P;P;P;P;P;P;P;P;P;P;P;P;P;P;P;P;P;P;P;P;P;P;P;P;P;P;P;P;P;P;P;P;P;P;P;P;|)9)s)-=u.6'q!N.)'|^1^T!P;P;P;P;P;P;P;P;&>&>&>&>&>&>&>&>&>&>&>&>P;^!b)c,u.u./+u.u./+u.u./+/+/+u.-=-={~c.8!Q;J=J=9-b=9-*-*-F=G=H=I=|>N.q!q!$#q!$#!@_!!@!@c,u+s)}.}.C{:]K@H+X+X+H+:@X+X+:@<@W$2^l)&#t@t@C*R+#+N#f.d@z.Z-*]5+$#u+3^      ",
"        y %.Z 4;M q@].s.q@^*J&V;R'4^W+H+X+Y+X+:@H+X+H+X+X+X+X+;@5^v~@+y.y.}.}.}.Q-s)Q-c,!@6>!@6>$#u+!@s).===$#q!{~5~d-{~d-y~)'5+5+)')'/+/+/+/+)'/+/+J~)'/+)')'/+/+/+.'/+.'/+/+u./+u.5+_!7'P;/>P;P;P;P;P;P;P;P;P;P;P;P;P;P;P;P;P;P;P;P;P;P;P;P;P;P;P;P;P;P;P;P;P;P;P;P;P;P;P;P;P;P;P;P;P;P;A{$#5+u.d-.=V&M,7-6^P;P;P;P;P;P;P;P;P;P;&>&>F)>)&>&>/>&>>)/>>)&>P;u]E@/+.'u.u.u./+X~/+X~.'.'u.u.u.u.)'u+b!P;J=J=e=b=b=*-*---G=,-c=`]c,_!$#$#$#$#_!a!c,Q-u+u+==c)N.7^8^9^G+H+Y+X+H+X+H+H+H+_@Y$0^l)=;P-t@R+#+J&^*W.N#5+x!Z-R]u+j,      ",
"        t #&Z o J D$~.~@s.^*^*s*a^b^c^8@X+:@X+X+X+Y+Y+Y+H+Y+H+<-d^!~E@@+.=@+M>M>c)}.Q-u+u+u+u+c,6>6>_!$#$#6>6>q!$#d-q!{~5+d-d-{~5+5+5+5+5+5+y~5+5+5+)'5+)')'{~5+{~J~/+)'/+J~)'J~)'.'N.<{e^P;&>P;P;P;P;P;P;P;P;P;P;P;P;P;P;P;P;P;P;P;P;P;P;P;P;P;P;P;P;P;P;P;P;P;P;P;P;P;P;P;P;P;P;P;P;P;w~f^@+$#Q-U)g^/!P;P;P;P;P;P;P;P;P;P;P;P;P;P;&>F)&>&>/>&>&>&>&>&>P;h^;=Q-/+)'/+)'/+)')'J~/+)'/+.'/+/+)'/+S.$,)-!-d;E=e=b=d=I=*-F=H=c=_)i^}.6>!@!@6>u+u+u+}.}.}.N.N.y.C{j^@)Z@H+X+X+H+X+H+X+X+:@<@0#k^l^A'C*D@s*1*:.s.d@m^x!5+$#n^q]      ",
"      o^u #&Z ` I ##~.d@s.f.^*J&D](>p^h$H+X+X+X+X+H+X+Y+H+X+X+K@q^H~.=.=@+y.y.N.|$Q-}.Q-u+s)u+u+!@!@6>!@!@6>!@6>q!$#6>$#$#$#q!d-d-d-{~d-d-5+d-{~{~{~{~d-{~{~{~d-5+5+y~{~{~/+/+J~/+5+_!7'P;/>>)P;P;P;P;P;P;P;P;P;P;P;P;P;P;P;P;P;P;P;P;P;P;P;P;P;P;P;P;w~&>P;P;P;P;P;P;P;P;P;P;P;P;P;P;P;+,).c,r^J]()P;P;P;P;P;P;P;P;P;P;P;P;P;P;P;P;&>>)>)&>&>/>&>&>&>&>P;a,u+)')'/+/+)'/+)')'J~/+/+/+/+/+/+/+/+y.0{s^B=d;E=b=9-d=*-*-;-,-I=&-m>N,!@!@!@6>c,c,Q-c)}.==}.==@+v~t^u^i@Y+X+H+:@X+X+H+H+X+H+f$v^w^G>(-=+s*f.:.f.(.n^j)R]3{u+$#      ",
"      x^6+$.M%4;N+|%~.~@d@s.N#J&#+y^z^='g$X+:@H+X+X+X+H+X+Y+(@A^B^C^E@,..=.=@+N.N.N.N.Q-}.}.s)u+u+!@c,!@c,c,c,!@6>6>_!$#$#$#q!d-d-{~d-d-d-5+{~{~{~d-d-d-d-d-d-d-{~5+5+)'5+5+5+5+{~s)u)K=P;&>&>P;P;P;P;P;P;P;P;P;P;P;P;P;P;P;P;P;P;P;P;P;P;P;P;P;P;B=b{r)>;P;P;P;P;P;P;P;P;P;P;P;P;P;P;D^E^;=F^H=P;P;P;P;P;P;P;P;P;P;P;P;P;P;P;P;P;P;P;&>&>&>&>&>>)&>>)/>/>R=}./+/+)'5+{~5+5+5+y~5+)'5+)')'{~)')'_!#*G^P;'-E=d=e=c=I=*---H=>-*-n,r>!@_!_!!@u+u+Q-Q-}.}.}.}.y.H^I^J^F+H+X+X+H+X+H+Y+Y+X+:@X+8@C#K^y':.#+f.f.s.].g{/+d-m^n^n^      ",
"      L^x ++Z M%/+v%~.d@q@f.J&J&s*C*x)M^J@X+H+H+:@H+X+X+H+X+f$0%O~#{E@,..=.=.=@+@+N.==}.}.}.s)u+Q-u+!@!@!@c,!@6>!@!@6>$#$#$#6>$#$#$#q!R!q!$#q!q!q!d-d-$#d-d-$#q!{~{~{~d-{~d-{~5~d-M>1]P;&>&>P;P;P;P;P;P;P;P;P;P;P;P;P;P;P;P;P;P;P;P;P;P;P;P;P;P;a,N^==a,P;P;P;P;P;P;P;P;P;P;P;P;P;P;P;O^h=D^P;P;P;P;P;P;P;P;P;P;P;P;P;P;P;P;P;P;P;P;P;&>&>&>/>>)&>>)&>P;#'c._!)'5+5+{~d-{~5~{~d-{~{~d-{~d-{~d-d-d-N>E)P;d;b=e=b=e=*-----F=J>;;b-'.!@u+u+Q-u+}.Q-N.N.N.N.y.y.E@V~P^b%Y+Y+H+H+Y+X+:@Y+Y+H+:@H+8@F+Q^x;J&N#q@s._.X./+d-m^u+}.R^    ",
"      S^q #&i>4;==n*~.~.W.q@f.N##+R+y^T^U^g$Y+X+X+H+H+:@Y+X+i@N!V^*~E@E@,.,.,..=M>@+y.N.N.N.}.}.Q-u+u+Q-u+u+u+6>6>u+,.y.$#_!6>q!R!q!$#$#d-R!$#d-d-q!q!d-d-$#q!R!{~d-d-{~d-{~{~{~S.,=D-P;&>>)P;P;P;P;P;P;P;P;P;P;P;P;P;P;P;P;P;P;P;P;P;P;P;D^I]6~{~#+b,K=P;P;P;P;P;P;P;P;P;P;P;P;P;P;P;W^P;P;P;P;P;P;P;P;P;P;P;P;P;P;P;P;P;P;P;P;P;P;P;P;>)&>>)&>&>&>P;P;j=S.{~d-{~d-R!$#$#$#$#$#d-q!q!R!d-$#d-d-R!r>X^>;'-E=d=e=e=*-I=I=G=,-=-#,a!y.!@Q-u+u+}.c)==N.M>y.y..=,.Y^(^b%H+Y+X+X+Y+H+Y+H+H+X+H+X+F*Z^`^s*^*^*q@d@~.).5+$#!@u+,.n     ",
"       /M i>i>y ==W%~.~.s.s.^*s*#+D@R+./+/K!H+H+Y+X+H+X+X+X+`+1{@/o)S.N,,.,.,.@+@+y.y.==N.==Q-==s)Q-u+Q-u+}.s).=4+N.i>v s)!@a!$#6>$#$#_!$#$#$#_!$#$#$#6>_!$#_!$#d-q!q!R!$#$#R!c,c,W)P;P;&>&>P;P;P;P;P;P;P;P;P;P;P;P;P;P;P;P;P;P;P;P;P;#/7~u)N,====$/v;P;P;P;P;P;P;P;P;P;P;P;P;P;P;P;P;P;P;P;P;P;P;P;P;P;P;P;P;P;P;P;P;P;P;P;P;P;P;P;P;P;&>>)&>&>&>&>P;%/v }.{~{~{~d-d-$#d-q!$#d-d-d-q!R!R!$#R!d-q!.=S!}^C-E=d=b=c=c=*-I=;-,-E=t>A$,.u+}.}.}.|$==y.M>@+.=.=.=E@&/*/C#j@X+:@X+Y+X+X+X+:@H+H+F+=/-/ )s*N#N#W.s.~.).G{3{!@u+,.<     ",
"      ;/M #&i>0.9+v%].~@W.s.:.^*J&s*z.>/,/a$_@H+X+X+X+Y+H+H+e$'/*=n~X.N,S.E@N,.=.=N.N.y.N.==N.==Q-Q-.=X.*=|$;.<{)/I~!/m!;=@+!@$#$#$#_!q!6>$#_!6>$#$#$#$#$#q!6>d-q!d-R!d-R!$#d-.=u)_{P;&>&>P;P;P;P;P;P;P;P;P;P;P;P;P;P;P;P;P;P;P;P;D^')L'N.N,$#d-N,m>K=P;P;P;P;P;P;P;P;P;P;P;P;P;P;P;P;P;P;P;P;P;P;P;P;P;P;P;P;P;P;P;P;P;P;P;P;P;P;P;P;P;&>&>&>&>>)P;P;~/r>d-d-q!d-$#$#6>_!_!_!$#_!6>$#$#$#$#q!$#q!N.T>{/>;E=E=b=c=e=0-I=F=F=e=H!x d.Q-====Q-==N.y.M>@+@+@+@+E@s!]/&&(@H+H+X+X+H+X+H+X+H+_@^///w>R+J&s*f.q@d@~.n-G{$#n^}.k{C$    ",
"      h{a.$.++M%<.v%(.~.W.q@f.^*s*s*D@D@&'(/i@X+H+X+Y+Y+H+Y+R#_/{{A+X.S.E@E@.=.=@+.=y.y.@+==N.==E@<.c.M%#>,>1>H=;;/>C=P;:/E@u+_!!@6>!@!@!@_!!@!@!@!@!@!@6>!@6>6>_!$#$#_!_!6>!@|$%'P;&>&>/>P;P;P;P;P;P;P;P;P;P;P;P;P;P;P;P;P;P;</[/:,y.E@!@R!q!$#6>}/P;P;P;P;P;P;P;P;P;P;P;P;P;P;P;P;P;P;P;P;P;P;P;P;P;P;P;P;P;P;P;P;P;P;P;P;P;P;P;P;P;P;&>&>&>&>&>P;e^%.s)d-q!$#q!d-$#_!$#$#6>$#q!$#$#$#6>$#_!6>$#u+A$|/>;e;J=e=c=d=c=--F=H=;-p-0!9+}.N.======N.@+,.@+.=.=,.S.1/2/7$C#X+Y+X+X+X+H+H+:@X+<@3/x;#+R+J&^*:.f.A&~.#+G{$#n^}.k{r     ",
"      4/x #&N M%'.##].~@W.q@f.N#s*R+z.C*(>5/H+j@:@Y+H+H+H+X+q+6/7/X.E@,.S.S..=.=.=@+N.y.y.N.N.r>1. ';>t)C=C-E=9-E=9-b=B=$,E@6>!@!@!@6>!@!@a!_!!@!@!@!@6>6>!@_!$#$#_!$#$#_!$#M>;='-P;&>&>&>P;P;P;P;P;P;P;P;P;P;P;P;P;P;P;P;8/ 'Z.O>N.6>$#_!_!$#.=m>P;P;P;P;P;P;P;P;P;P;P;P;P;P;P;P;P;P;P;P;P;P;P;P;P;P;P;P;P;P;P;P;P;P;P;P;P;P;P;P;P;P;P;/>>)&>&>&>P;9/@+q!q!$#d-$#d-_!$#$#$#6>$#$#6>$#$#$#_!$#6>$#$#@+0/C=J=E=e=e=d=I=-->-H=;-=>a/!+c)========y.y.@+@+.=,.N,S.1/2/b/C#X+X+X+X+X+H+X+H+J@c/z.D@D@s*J&J&f.s.d@].#+3{d/u+}.,.q~    ",
"      e/M $.M%M%&#w%].~.d@s.f.J&J&J&R+D@C*f/g/C#X+H+H+X+H+H+>!h/7/N>d.X.d.d.E@S.,.N,.=@+@+y.9+i>i/;;!-I=F=*-c=d=9-9-J=*>2'E@!@c,c,u+u+u+c,c,!@c,!@u+u+!@!@c,!@!@!@!@!@!@6>!@N,l!P;&>&>&>P;P;P;P;P;P;P;P;P;P;P;P;P;P;j/T)k/-.9+==_!_!$#$#$#$#u+Q-^~P;P;P;P;P;P;P;P;P;P;P;P;P;P;P;P;P;P;P;P;P;P;P;P;P;P;P;P;P;P;P;P;P;P;P;P;P;P;P;P;P;P;P;&>&>&>&>P;P;/-N,6>$#q!$#_!6>6>6>6>6>!@6>!@!@6>!@!@!@!@6>6>6>@+v;C=J=E=d=9-c=*-;-;-H=,-C=b,[.N.==@+N.y.y.@+.=,.E@E@E@d.*~l/0%Z@H+Y+X+X+X+H+X+Z@{*m/(>z.D@#+s*^*f.s.~@(.R+3{!@u+1@E@y!    ",
"      n/M #&$.i>~@D$_.~.~.s.l+:.^*J&#+D@C*(>o/e$X+X+H+X+H+j@f$c~p/r>X.*=*=E@d.E@,..=.=,.,.,.d.q/K=D-,-H=>-*-I=c=e=9-b=p'b;E@!@k+!@!@c,u+c,c,c,c,c,u+c,c,!@u+c,!@6>_!!@6>!@r>+'N{P;/>&>&>P;P;P;P;P;P;P;P;P;P;P;P;r/s/M,!@S.y.a!!@6>!@a!!@!@!@9+R=t/P;P;P;P;P;P;P;P;P;P;P;P;P;P;P;P;P;P;P;P;P;P;P;P;P;P;P;P;P;P;P;P;P;P;P;P;P;P;P;P;P;P;P;&>/>/>/>P;H'q!}.6>_!6>$#$#$#_!!@!@6>6>6>6>!@!@_!!@!@!@_!!@!@@+%'B=J=E=b=9-c=c=-->-,-~-)-u/}>N.==y.N.y.y.@+@+N,S.S.S.E@o)v/w/_@X+:@X+X+X+H+j@x/y/|,s*R+#+#+^*:.A&s.d@A.W.d/$#u+N.t.y!    ",
"      A W #&++i>~.D$J%~.~.A&q@:.^*J&#+R+e.x)z/A/k@X+H+X+:@(@(@B/B,*=*=X.X.E@E@d.E@.=,.,.N,.=y.C/d=J>D-F=F=I=*-c=b=d=e;%>R=E@Q-Q-Q-Q-Q-Q-u+Q-Q-u+s)u+u+u+u+u+c,u+u+u+c,c,}.M>';P;&>&>&>&>P;P;P;P;P;P;P;P;P;P;|)$-<{p,d.!@!@c,c,!@c,c,c,c,u+}.R!s/P;P;P;P;P;P;P;P;P;P;P;P;P;P;P;P;P;P;P;P;P;P;P;P;P;P;P;P;P;P;P;P;P;P;P;P;P;P;P;P;P;P;P;P;&>&>&>P;K=D/!+a!_!_!_!6>6>!@!@u+u+!@c,u+c,u+u+!@!@c,u+c,c,!@,.E/Q;d;J=d=9-d=*---F=,-,-D=2'N>@+M>.=@+@+.=S.,.E@d.d.d.d.*~F/'*<@X+H+H+H+:@H+i@N!G/^,z.R+#+#+N#f.f.W.d@].~@d/!@}.@+N>b.    ",
"      y 6+#&i>M%d@g.M.].d@d@s.:.^*N#s*R+#+D]H/I/)#:@X+Y+H+k@k@J/K/9+N>O>N>d.*=d.S.E@E@E@N,X.!@L/--D-,-F=F=c=c=d=b=9-b=B=4;E@Q-Q-Q-Q-u+u+u+Q-Q-u+u+Q-Q-u+Q-u+!@c,c,c,u+k+d./-K=P;&>/>&>>)P;P;P;P;P;P;P;P;P;P;4>*=r>u+!@!@c,!@k+u+c,u+c,u+!@E@6~L=P;P;P;P;P;P;P;P;P;P;P;P;P;P;P;P;P;P;P;P;P;P;P;P;P;P;P;P;P;P;P;P;P;P;P;P;P;P;P;P;P;P;P;P;&>&>>)P;#'d-N.c,!@u+u+c,u+u+u+u+Q-Q-Q-u+s)u+u+u+u+Q-Q-u+u+u+N,@'B='-e;d=d=d=*---F=H=~-'-P{*=.=N.@+.=@+@+,.,.E@d.E@X.X.o)n)b'_@X+H+H+X+H+j@C#M/0]t@C*#+R+J&J&^*s.d@d@M.~.n^d'N.@+A+L&    ",
"      ` 6+x.#&N ~.}%M.].].d@s.^*f.^*J&s*R+#+L;N/T{Y+X+Y+:@D#k@O/K/9+*=O>*=X.X.d.E@S.E@N,.=p,$#Y~F=A=,-G=;-*-*-d=e=b=E=Q;%.X.}.Q-Q-Q-}.c)Q-c)==}.}.}.Q-}.c)}.s)u+u+Q-Q-s)E@#,P;&>&>&>&>&>P;P;P;P;P;P;P;P;P;P/$#N.c,c,c,u+c,c,!@u+u+u+!@k+!@y.G^P;P;P;P;P;P;P;P;P;P;P;P;P;P;P;P;P;P;P;P;P;P;P;P;P;P;P;P;P;P;P;P;P;P;P;P;P;P;P;P;P;P;P;P;P;&>F)P;P;_,4+c,k+!@u+!@u+!@c,Q-Q-Q-u+u+u+u+Q-s)u+Q-u+s)u+s)Q-S.M{B='-E=b=d=d=*--->-G=~-!-({N>.=@+,..=N,,.S.E@d.E@*=X.X.!+Q/R/_@H+X+X+X+Y+<@!!e.z.e.C*s*#+N#f.:.q@g&d@M.~.n^}.}.@+A+S/    ",
"      3.x #&++i>].##D$M.].J%~.s.^*f.N#s*s*D@t;T/m&k@X+:@H+k@8@U/v'4+4+!+r>*=*=N>*=X.d.E@E@N>!@V/F=~',-G=;-0-I=c=d=b=b=p'%.*=N.N.|$========|$==N.==}.==N.N.==Q-}.Q-}.s)*=/-F!P;>)&>&>&>/>P;P;P;P;P;P;P;P;P;f]r>}.}.}.}.c)==Q-}.c)c)}.}.Q-9+m>6^P;P;P;P;P;P;P;P;P;P;P;P;P;P;P;P;P;P;P;P;P;P;P;P;P;P;P;P;P;P;W/X/P;P;P;P;P;P;P;P;P;P;P;P;P;&>/>P;z{m=Q-u+u+s)u+Q-Q-s)Q-Q-Q-c)c)Q-}.}.}.}.}.c)}.c)Q-Q-u+,.z~B=d;b=e=e=d=*-I=;-G=D-'-q'*=,..=.=,.,.,.E@S.E@*=X.X.*=O>7)1~i@X+X+X+H+Y+`+Y/S,e.C*R+#+s*J&f.f.s.d@~.].(.u+}.N.,.N>|.    ",
"      -+6+q i>i>~.##M.M.].~.~.d@:.:.^*#+s*D@D]Z/b'_@X+X+H+k@k@J/1'!+4+4+4+N>N>N>X.*=X.X.d.N>!@`/;-A=~-H=F=*-I=d=b=9-b=Q;x 9+M>y.y.y.N.@+y.M>y.M>M>M>y.M>M>y.N.N.N.N.@+r> (P;&>/>>)&>&>&>P;P;P;P;P;P;P;P;.(R!,.Q-}.Q-==Q-Q-}.}.}.}.Q-}.@+y.+(P;P;P;P;P;P;P;P;P;P;P;P;P;P;P;P;P;P;P;P;P;P;P;P;P;P;P;P;Z~p)7>D)r/P;P;P;P;P;P;P;P;P;P;P;P;P;>)&>P;@(X.s)s)Q-Q-u+Q-Q-s)Q-}.==}.Q-}.}.}.}.}.}.c)}.}.}.}.}.X.b;B=J=e;d=9-d=I=--F=,-D-D=q'N>,..=.=E@E@S.E@d.E@*=N>O>N>r>Y)#(i@X+X+Y+Y+F*$(%(^,C*C*D@#+s*t*f.q@s.d@~.M.~.}.}.@+,.N>D>    ",
"      o x #&++$.J%r.M.M._.~.d@s.f.:.^*#+s*D@D@S,6;i@X+X+X+k@(@5{1'f+4+!+4+9+r>N>X.*=*=d.X.N>!@Y~>-D-~-H=F=c=*-c=d=b=b=%>x r>M>@+N.y.N.M>y.M>y.@+N.y.M>N.N.y.==}.}.N.}>>=f;P;&>&>&>&>&>&>P;P;P;P;P;P;P;Z~R=e.N.======N.N.N.==N.==N.==N.[.b,w~P;P;P;P;P;P;P;P;P;P;P;P;P;P;P;P;P;P;P;P;P;P;P;P;P;P;&(*(*)S.f,%'P;P;P;P;P;P;P;P;P;P;P;P;P;P;&>P;('v r>}.}.}.}.}.c)c)}.}.====N.N.N.====N.N.|$N.N.==N.|$}.N>b>B=d;E=b=b=c=I=I=F=H=,-D=q'9+E@,.,.E@N,E@E@d.*=*=N>O>*=9+7)=(i@H+Y+X+D#_@-(;(t@C*z.D@J&J&^*:.f.d@d@].M.M.u+1@@+@+9+D>    ",
"      M~2.#&#&i>].g.W%M.].J%d@s.s.f.^*N##+D@n-c>>(_@X+H+H+(@k@U/v'f+4+4+!+r>*=N>*=X.X.*=E@N>!@Y~F=A=~-,-F=I=*-d=b=9-E=B=x r>y.N.y.@+y.@+M>M>y.M>y.@+N.y.y.y.N.==N.,.,.';P;&>>)&>/>&>&>&>P;P;P;P;P;P;P;G^E@y.N.N.N.N.==}.==N.N.====}.@+Q-I]P;P;P;P;P;P;P;P;P;P;P;P;P;P;P;P;P;P;P;P;P;P;P;P;P;e;,( {@+).9+u)v]P;P;P;P;P;P;P;P;P;P;P;P;P;P;P;P;u]O>@+N.N.====}.==N.==N.y.M>@+M>@+y.y.y.y.N.M>y.y.@+M>N.N>r'B=J=J=9-d=c=0-I=F=H=,-'-n,!+E@d.E@*=*=*=X.N>*=9+r>4+4+2)c!'(_@H+Y+X+_@P~Z/g,C*D@R+#+^*^*^*f.s.~.J%(.M.~.1@N.,.,.)(j,    ",
"      !(M #&#&++z.<+W%D$J%~.~@s.s.q@^*J&N##+R+y^~(F&H+H+X+8@(@U/{().!+).f,!+N>9+N>N>*=*=X.f,k+V/F=~'~-G=;-c=c=c=e=e=J=%>r^4+M>@+y.@+N.y.y.y.@+M>N.N.N.M>y.N.M>N.==N>l=K=P;&>&>&>&>&>&>&>P;P;P;P;P;P;v]+'r>N.N.==N.====N.}.N.N.==N.==r>j]P;P;P;P;P;P;P;P;P;P;P;P;P;P;P;P;P;P;P;P;P;P;P;P;](^(i>E@!+.=N.N>/(P;P;P;P;P;P;P;P;P;P;P;P;P;P;P;P;=>u;9+N.N.}.N.N.N.==|$N.==@+M>y.y.y.y.N.N.@+y.M>@+N.y.N.y.*=E'B=J=J=b=b=e=*-I=--,-D-D=n,!+d.d.E@*=X.X.X.N>*=r>9+f,4+K,((_(<@X+X+:@W+:(|,D@z.s*s*#+^*:.:.s.s.~.(._.w%q@N.<(@+[(!+w,    ",
"      _^t #&#&i>=;<+##D$A.~.~.s.s.f.J&N#^*s*s**;l,D#X+H+H+(@k@,~1'}><.).f+f,4+9+9+9+r>X.r>4+!@Y~G=A=,-,-;-*-*-e=b=9-E=B=M !+.=,..=,..=.=,..=.=,.S.,.,..=N,N,.=@+@+d.S-P;/>&>&>&>&>>)&>&>P;P;P;P;P;P;}(X..=M>y.M>@+y.y.N.N.========N.d.G^P;P;P;P;P;P;P;P;P;P;P;P;P;P;P;P;P;P;P;P;P;P;I'|(M P-d.y.==N.<.,=1(P;P;P;P;P;P;P;P;P;P;P;P;P;P;P;P;o-X.N.}.==|$==N.==N.==N.N.y.@+M>y.M>y.M>y.y.y.@+N.@+y.y.y.X.@'B=J=E=b=d=d=c=I=;-H=J>D=n,f+E@E@d.*=*=*=*=N>*=9+9+!+f,j'((2(<@H+H+X+C#5/(>z.n-#+R+#+^*:.:.s.W.~.(.M.##q@@+,.,.[(4+w,    ",
"      3(M %.#&++e.g.w%D$M.~.J%d@W.f.^*N#^*#+s*};4(%^:@H+X+D#_@c~5(<.<.'.!+4+4+!+r>9+9+r>N>!+.=A{I=J>D-G=F=I=*-c=e=b=b=%>e/4+.=.=,..=S..=,.,..=S.,.,.,.,.,.,.,.@+e.K>6^P;&>&>&>&>&>/>&>&>&>P;P;P;P;}^/-'.l'.=@+@+@+@+@+.=@+.=@+@+@+q-m>C=P;P;P;P;P;P;P;P;P;P;P;P;P;P;P;P;P;P;P;P;()2'w+}>).y.M>@+N.S.S.P=P;P;P;P;P;P;P;P;P;P;P;P;P;P;P;P;P;/-r>N.y.y.M>M>N.M>y.@+M>N.@+@+.=.=,..=l'@+@+@+.=.=.=.=.=,.r>6(%>J=b=d=9-d=c=I=F=G=,-!-n,4+d.d.X.d.p,*=*=N>r>r>!+9+9+2)7(8(<@H+X+(@9(0(s*z.C*#+s*R+N#:.:.A&d@~.].M.D$f.<(,.E@E@!+N+    ",
"      e/v 6+%.#&[.B.g.##M.(.].d@g&s.^*f.N#J&J&A'a(9(g$Y+Y+X+q+b(c(<.).).).4+4+!+9+9+r>N>N>f,d.d(d=D-~'G=F=I=0-c=b=e=b=B=b>!+.=.=,.N,,.,..=,.,.,.,..=,..=S..=,.N>.=y=P;&>/>&>&>&>&>&>&>&>/>P;P;P;P;A-!+E@.=@+.=.=@+@+.=.=@+@+.=@+d.@+-)P;P;P;P;P;P;P;P;P;P;P;P;P;P;P;P;P;P;P;`]})'{[.4+.=.=@+.=.=@+'.>=w~P;P;P;P;P;P;P;P;P;P;P;P;P;P;P;P;e(y.S..=.=.=@+.=.=y.M>N.@+M>.=.=@+@+@+@+@+.=.=@+.=@+@+.=@+@+N>v{B=E=E=b=d=d=*-I=>-G=,-;;b;e.d.*=X.r>*=N>*=9+r>4+9+).!+f(0'g(f$X+X+F+h(G>C*D@R+R+N#J&N#^*f.s.~@{.].M.v%:.@+,.t.X.<.j,    ",
"      i(J W 6+$.N,%@##v%D$M.(.~.~.s.s.f.^*N#^*q@y-j(C#H+H+H+q+,!k(q-&#[.'.'.<.).!+f+).9+9+4+*=3;*-~'J>F=G=I=c=c=e=9-9-B=*!<.N,S.E@S.E@E@S.S.E@E@E@E@S.E@E@S..=t@l(d=&>&>&>/>/>&>>)&>&>&>>)P;P;P;f;M !+@+,.N,,..=S..=.=,..=,.S.@+t@6~F!P;P;P;P;P;P;P;P;P;P;P;P;P;P;P;P;P;c;m(!@P-E@@+@+.=@+.=.=.=.=d.P=P;P;P;P;P;P;P;P;P;P;P;P;P;P;P;P;R;n('..=.=.=@+@+@+.=@+.=.=@+.=.=S..=.=,.,.S..=S.,..=S.,..=.=.=9+o(B=E=b=9-c=d=c=--F=H=A=T-6~J&X.r>*=N>r>r>r>4+!+!+!+f+<.p(q(,$g$H+D#r(K;z-C*s*#+#+N#^*^*f.A&d@~.J%M.D$##n-,.E@X.N>[.-.    ",
"      s(J %.x #&S.B.<+##D$M._.].~.d@s.q@q@^*^*t(u(X;_@X+X+H+R#v(9,&#[.'.'.).<.!+4+f+!+4+4+4+[.P{d=A=D-,-H=;-*-*-e=d=d=Q;!>).d.E@E@d.d.X.X.d.C,d.E@d.E@d.E@d.X.S.w(P;&>>)>)&>&>&>&>>)&>/>>)&>P;P;x(t@N,,.,.,.,..=.=.=.=,.,.,.,.E@|$;{P;P;P;P;P;P;P;P;P;P;P;P;P;P;P;P;;{9)d-D@N>.=,.,..=N,.=,.,.,.<.u)%>P;P;P;P;P;P;P;P;P;P;P;P;P;P;P;P;S;5+N>.=@+l'@+@+@+@+.=.=,.@+@+,..=,.,..=N,,.,.,.,.,..=,.,.,.,.).G!T-J=e=e=d=c=*-I=F=,-D-e=,=J&X.N>N>r>N>r>r>4+9+).!+}>'.p(y(,$8@H+(~8(z(A(D@s*#+s*N#^*^*s.W.~@~.].M.D$g.R+H^t.X.m,<.B(    ",
"      C(I x x #&6>=#g.g.D$D$M.J%~.d@W.s.:.f.^*^*D@g-W+X+H+X+;$D(t@.,&#&#[.'.<.).<.}>}>4+!+).C*q,J=A=A=G=,-F=*-*-9-b=b=p'^('.X.X.d.d.X.X.*=*=X.d.E@d.d.E@d.d.[.|^P;P;&>&>&>&>&>&>&>&>/>/>&>&>P;,)w+4+E@E@E@S.E@S.E@S.S.E@E@E@E@t@:/P;P;P;P;P;P;P;P;P;P;P;P;P;P;P;P;E(#&D@r>E@E@E@E@E@E@S.E@S.,.S.!+o-P;P;P;P;P;P;P;P;P;P;P;P;P;P;P;P;v]&,#+.=S.,.,..=N,N,.=N,.=N,,.S.S.E@E@S.S.S.,.S.E@N,E@,.S.E@S.,.E@K'C=b=e=b=c=*-----F=,-I=F(u;D@N>r>*=r>9+N>9+4+4+).f+'.).l)G(U,k@X+T{_'t@R+D@s*#+s*N#^*^*s.s.d@~.(.M.M.g.t@,.X.N>k![.),    ",
"      H(w+x x $.G{q.g.####D$M.].J%d@~@W.f.:.f.:.N#I(i@X+H+Y+h$J(K(G>t@q-&#[.[.<.<.}><.).!+9+f.L(C-J>J>~-H=;-*-*-d=9-e=)-G^'.*=*=d.X.*=*=*=*=X.*=X.*=X.*=X.N>!+M(P;/>>)&>/>&>&>&>/>&>&>&>&>P;P;N(z.*=E@d.E@d.C,d.d.X.d.E@d.X.4+==O(P;P;P;P;P;P;P;P;P;P;P;P;P;P;P;P;F^t@E@d.d.X.d.d.E@d.X.d.d.d.D@+'w~P;P;P;P;P;P;P;P;P;P;P;P;P;P;P;P;I'N.*=E@N,E@S.E@E@E@N,S.S.E@,.E@d.E@E@X.X.X.E@d.X.d.E@X.E@d.E@4+P(,))-E=9-e=d=*-----,-J>*-^>x z.9+N>4+4+f+&#C*<.!+}>U;[.&#5(`)f$D#X+F+Q(R(D@#+#+s*J&:.:.s.s.d@~.].].D$w%<+e.,.N>A+9+[.V,    ",
"      S(v+x x ++K&q.r.r.##D$D$M.~.~.~@d@s.f.:.^*V;T(F+Y+H+X+W+U(V(};P-t@P-&#q-'.'.'.[.<.).f+s.W(--J>J>D-G=>-*-I=c=9-9-R;%-4+N>N>*=p,d.*=X.X.*=X.X.*=X.d.X.N#k='-P;&>/>&>/>&>>)&>&>&>&>&>P;P;X(k~t@d.d.d.E@E@E@E@d.X.X.d.d.d.s**!P;P;P;P;P;P;P;P;P;P;P;P;P;P;P;P;-,c.4+X.X.d.d.d.d.E@E@d.E@E@f,*=Z]P;P;P;P;P;P;P;P;P;P;P;P;P;P;P;P;P;N(z.S.d.d.E@X.E@d.E@d.E@d.d.X.d.X.X.*=X.*=*=*=X.*=*=d.X.X.X.*=P- {f;>;b=d=b=d=0-c=>-,-~-9-Y(m=e.r>4+).J&s.N.i>*)-=e.'.[.q-Z(`(q+X+(@-% _x;R+s*t*^*:.:.l+s.A&J%J%].M.W%##B.!+E@9+9+9+U;      ",
"        |.2.2.i>1.%@B.r.D$D$W%M.J%J%d@~@s.s.s.:.V;._p+X+:@X+C#+_])A(P-t@P-q-q-'.[.q-'.'.).).s*#&@_F=J>D-H=----*-d=9-9-u>](w+'.*=*=r>N>N>r>*=*=*=r>*=N>O>).X./(P;J'&>&>/>/>>)&>&>/>&>P;P;d=#_$_4+*=d.X.*=X.X.*=X.X.d.X.X.*=).6>%_P;P;P;P;P;P;P;P;P;P;P;P;P;P;P;P;^-z.X.E@X.E@E@E@E@X.d.E@X.d.&#u)))P;P;P;P;P;P;P;P;P;P;P;P;P;P;P;P;0>-.!+d.E@d.d.d.d.d.E@E@d.d.d.d.*=*=X.*=*=X.X.X.X.X.X.X.X.*=d.X.D@&_D=C-E=b=d=c=*-*---F=~-C-1].=q-P-f.q-#&*_u]'>i>z.[.q-q-e.x)K^u!H+g$'^=_y^#+#+^*f.f.f.A&A&d@~.].M.M.##g.g.!+E@m,!+f+U;      ",
"        w+s x q *.w%G@<+g.##W%M.M.~.~.~@W.s.f.q@+-._F+H+X+H+X+z,-_L;D@z.t@t@&#&#q-q-&#[.[.).R+A$g=c=D-~-F=G=I=*-c=9-b=!-h^>=z.*=*=*=*=*=r>N>r>*=N>N>N>N>D@,=C-&>L=/>&>&>>)&>&>&>P;P;P;;_,=q-P-*=*=X.*=X.d.*=X.X.d.*=X.*=*=e.>_P;P;P;P;P;P;P;P;P;P;P;P;P;P;P;P;,_-=t@d.*=X.*=*=X.d.X.X.*=d.*=).1]P;P;P;P;P;P;P;P;P;P;P;P;P;P;P;P;P;0)P-N>X.*=*=*=X.X.X.X.X.*=X.X.d.N>N>N>*=N>N>N>O>r>r>*=N>N>O>*=N>s.q//>J=e=e=b=0-*-I=;-,-,-R;u]A&f,M V'v;G!'_M%R+J&[.q-q-q- ,)_!_F+X+_@b'~_^*s*J&^*:.f.s.s.s.d@~.(.M.D$w%<+D$9+N>2{f+[.<.      ",
"        K v a.#&I l+q.r.g.##D$M.A.J%~.d@d@s.q@A&*;{_`+H+H+H+Y+K@]_z-z.e.z.&#&#&#&#q-&#[.[.).P-N>^_'-J>D-F=H=I=I=c=d=e=d;C=/_f.9+r>9+9+r>r>r>9+9+r>9+9+!+).;>P;L=O;&>&>&>&>&>>)P;P;2>$,N>C*!+*=*=*=N>*=N>*=N>*=*=*=X.X.*=O>,.$>P;P;P;P;P;P;P;P;P;P;P;P;P;P;P;P;G'^*X.*=X.d.*=X.X.X.*=X.*=X.t@;=>;P;P;P;P;P;P;P;P;P;P;P;P;P;P;P;P;0>x z.X.X.X.X.*=*=X.X.X.d.X.*=*=*=*=N>*=*=*=O>N>N>O>N>N>N>r>*=N>f,!+9>P;J=b=9-b=I=c=--G=H=,-E=,>0,/{H=(___v s*:.[.'.q-q-P-t@};:_u^i@Y+_@#(+-J&J&J&f.^*q@s.s.d@~.~.M.M.D$w%/&].9+N>!+<.U;9+      ",
"        i>J x x x &#^.r.}%####n*M.].~.d@~@W.f.A&J&<_J@H+Y+X+H+F+o/A(R+e.z.t@t@[.q-q-&#'.'.'.'.d@q)u>[_D-G=H=I=c=c=c=9-e=P;}_^*4+9+9+r>9+9+9+9+9+r>9+r>D@,=&>P;J'L=/>&>&>>)P;P;0>P{5+J&r>*=N>N>*=O>N>*=N>*=r>N>*=N>O>N>N>J&#>P;P;P;P;P;P;P;P;P;P;P;P;P;P;P;P;>{!@4+r>N>N>*=N>N>*=N>N>*=N>9+'.P=P;P;P;P;P;P;P;P;P;P;P;P;P;P;P;P;P;L,J&N>*=X.*=*=X.X.*=*=*=X.*=d.X.*=r>O>*=*=N>*=N>*=*=*=O>r>O>N>N>|_+~/{&>d;e=9-b=c=*-F=G=H=A=D-I=%>1_q/x s.z.q-[.'.[.q-q-t@P-&'2_3_f$H+_@4_V;N#s*J&f.s.s.s.d@d@~.].M.D$D$g.B.d@N>N>!+i-U;5_      ",
"        a Z.v x W 9+~+r.r.##g.w%D$A.(.J%J%~.A&~@^*6_W+X+Y+X+X+J@7_s*#+z.D@e.z.&#t@t@P-q-q-'.'.].q,I=D-~',-G=>-I=*-d=d=b=&>/!q!&#f,f,9+9+4+4+4+4+!+!+<.[.;_P;L=L=L=&>&>P;P;'-[)&.q@[.N>9+r>r>9+9+r>N>N>*=*=*=*=*=*=N>*='.y.8_P;P;P;P;P;P;P;P;P;P;P;P;P;P;P;P;R=#+N>N>*=r>N>*=N>N>*=N>*=N>J&>=Z~P;P;P;P;P;P;P;P;P;P;P;P;P;P;P;P;|)4;t@*=*=*=O>r>*=O>N>N>N>N>r>r>9+N>N>r>r>r>9+9+9+r>r>9+9+r>r>N>r>J&u;X/)-E=b=b=d=*-c=;-F=,-*-J=9_E/I s*f.[.&#q-&#&#q-e.&#z.e.L;0_a_j@H+_@b_c_^*N#^*^*f.d@W.d@d@J%].M.D$##}%G@q@N>9+f+U;e.@+      ",
"        d_e_M M N ==3+r.B.g.}%##D$M._._.J%~.d@~@f_e><@X+H+X+X+Z@e>`^J&R+D@z.e.e.z.e.z.t@&#q-[.s.u)('H=A=,-F=;---0-d=d=e=K=T!4;^*).).!+f+).!+4+4+4+4+q@*)d=/>L=O;L=L=P;P;-)4;e.D@4+r>r>r>r>9+r>9+r>r>9+r>9+9+9+N>r>r>f,f.O{P;P;P;P;P;P;P;P;P;P;P;P;P;P;P;P;8{@+'.N>r>r>N>r>9+9+9+r>9+9+).4+%'P;P;P;P;P;P;P;P;P;P;P;P;P;P;P;P;P;3>t@r>N>N>O>*=N>N>N>r>N>N>*=*=*=r>9+9+9+r>N>r>r>N>r>r>r>9+r>9+9+r>N##>P;J=E=e=b=d=*---;-I=C=]~F^Z.J&s*q-[.[.q-q-&#&#[.e.e.=;z.g_h_T{Y+X+<@N-+-^*^*^*q@s.s.d@~@~.].M.D$v%w%g.%@s*[(!+<.U;D@m^      ",
"        i_c.u x ++3{q.F@B.g.g.}%D$D$_.(.].~.{._.j_x'k@Y+X+X+:@F$U=k_D]s*#+D@z.C*C*D@z.z.e.P-t@#+-.a>--A=A=H=F=I=*-*-d=b=E=&>l_W.'.).<.).<.).<.).<.t@4+Q>P;%>B=&>P;P;m_x~'.#+!+).).!+).).9+4+!+4+4+4+4+4+!+4+4+!+f,4+q-N.8)P;P;P;P;P;P;P;P;P;P;P;P;P;P;P;>-K>1*!+4+4+4+9+4+f,f,4+f,f,9+C*0!n_P;P;P;P;P;P;P;P;P;P;P;P;P;P;P;P;K=W-z.9+r>9+r>r>N>9+r>9+r>9+r>9+r>4+4+9+4+4+4+9+4+9+4+4+4+9+4+4+).e.t@u]P;E=E=b=c=d=*-b=D=-,q/%.s.z.[.'.'.'.q-t@t@&#P-&#z.z.z.R+A'o_i@Y+X+_@g'+-^*^*f.s.s.s.d@~.~.].M.D$##}%r.B.R+N>!+<.&#s*j+      ",
"        <,|.v M q V&}%q.B.r.g.##v%D$M.M.].J%~.p_q_!{X+Y+X+X+X+j@-%r_(-#+s*D@z.D@D@z.z.z.e.t@t@P-s*s_I=A=J>D-F=I=*-*-c=b=9-P;},&#q-).<.<.).<.'.<.).J& {%>B=B=P;P;t_u_<(s.'.!+).).!+!+!+!+).).).).!+).!+!+).!+f+!+).!+J&M,P;P;P;P;P;P;P;P;P;P;P;P;P;P;P;P;I]C*[.4+!+!+!+4+f+).).!+4+4+f,z.h=P;P;P;P;P;P;P;P;P;P;P;P;P;P;P;P;P;Q>9+[.4+f,4+4+4+9+!+4+4+4+4+4+!+!+4+!+).!+!+!+).).!+).).f+<.R+~@<.u+v_w_K=E=e=b=d=C-B=s'x_:+R+d@[.[.[.[.q-q-&#P-&#t@&#t@e.e.z.#+z.y_<@H+H+0&z_U*f.f.^*s.A&d@{.~.].M.D$####<+r.g.e.9+9][.e.s*        ",
"          *.u s 6+Z.].^.G@B.r.g.v%w%D$].M.(.J%f&A_j@H+H+H+X+Y+j@8@B_C_J&s*D@R+z.D@z.n-e.z.t@P-P-q@.~;-A=J>G=H=F=*-*-d=b=b=u>D_@+e.'.<.'.<.'.<.'.<.e.;>P;C=P;E_q/u.^*D@).!+!+).!+!+).4+).).!+4+!+!+!+).!+).).!+!+).<.N>F_P;P;P;P;P;P;P;P;P;P;P;P;P;P;P;5';=J&f+).!+f+f+).4+).).!+!+!+J&;=J=P;P;P;P;P;P;P;P;P;P;P;P;P;P;P;P;G_9)~@).f+!+f+).).!+!+!+!+).).!+).!+<.'.).<.).<.<.f+).!+q-s.#+I v_u]$'B==-E=E=9-J=P;H_I_I q@s*t@q-q-q-q-q-q-t@e.z.e.e.t@e.e.D@D@N#J_K_(@X+X+_@L_+-f.f.q@s.d@~.~.].M.A.D$}%##r.r.g.[.f+<.&#C*C*        ",
"          s I M v 6+:.B+B.B.B.U&g.g.##M.W%M.].z&,*(@Y+H+H+H+Y+X+J@M_N_s*J&J&s*s*#+#+D@D@D@C*C*C*f.+'>-~'~',-G=,-I=*-c=9-d=E=C-O_#+'.'.'.'.[.[.[.f.+'B=P;P;P_W-d@#+[.q-[.'.<.).'.}>'.).).).<.).).).<.).).<.<.).).!+d@R-/>P;P;P;P;P;P;P;P;P;P;P;P;P;P;P;y{z.<.<.).<.).).).!+).!+).4+&#t@Q_P;P;P;P;P;P;P;P;P;P;P;P;P;P;P;P;P;s/q-[.f+!+).).!+4+).!+).!+).).).<.).).'.}>'.'.<.t@R+#+J&6'O{W)_)P;P;>;J=J=E=;;C==>b-%.f.^*q-q-q-&#e.&#&#&#t@e.e.z.n-C*D@z.C*D@R+H-;'R_D#Y+X+Z@L_i;s.W.s.d@~.].].M.D$D$D$g.U&r.F@D$9+[.&#e.R+&#        ",
"          g~w+v M x.).L+=#h%B.g.##}%w%W%D$M.].1-A>$;X+H+Y+H+H+H+)#S_J&q@J&s*#+#+#+#+#+D@D@z.C*C*f./+0>~'~'~',-H=--*-c=c=d=e;C=N;d@q-q-q-U;q-q-C*r>k'P;m_<{z.d@&#q-U;'.[.[.[.[.'.[.'.[.'.U;[.'.[.'.'.'.'.[.[.'.'.R+@+T_P;P;P;P;P;P;P;P;P;P;P;P;P;P;P;U_x 1*).).<.'.'.'.'.'.<.).).}>d@V_F!P;P;P;P;P;P;P;P;P;P;P;P;P;P;P;P;P;b>q@!+).<.'.<.<.<.).<.'.'.}><.<.'.<.'.<.<.&#f.~.9+1.R=#,&-K=P;P;K==-D=d;C=P;W_[)w+s*l+q-q-q-q-q-P-P-e.t@t@e.t@e.z.z.C*D@D@z.R+#+i;X_g$X+Y+X+_@L_]=A&A&s.d@J%].]._.D$n*D$g.g./&^#~@f+i-&#C*s*X.        ",
"          b,1.v v 6+!@^.%@B.G@r.####v%D$M.M._.Y=V>J@X+X+X+H+H+H+<@Y_A_i;^*J&#+#+#+s*s*R+D@z.z.z.J&).W)0-D-~'F=H=--*-c=c=e=b=%>-;r>z.&#&#&#&#&#W.W-k'|;X.f.=;q-U;&#'.'.'.'.'.'.[.[.[.'.'.'.'.[.[.[.[.'.'.[.[.q-[.s.S!/>P;P;P;P;P;P;P;P;P;P;P;P;P;P;P;F^#+P-'.'.[.'.[.q-'.'.[.[.[.t@q-%'P;P;P;P;P;P;P;P;P;P;P;P;P;P;P;P;P;8/9+q-}><.'.}>'.<.).<.).<.'.).<.[.'.[.q-z.~.#+x Z_#,--P;P;&>T->;;;=-!-C-P;t'F^v d@s*&#&#[.t@e.&#e.e.z.e.z.e.e.z.D@z.R+R+R+D@D@R+#+T*`_J@H+X+H+Z@ :]=s.s.s.d@J%].].M.D$D$D$g.g.G@B.!.9][.e.C*:.Z-        ",
"          0,w+u v a.A$q.%@G@G@/&g.<+D$####D$u%.:a#<@H+X+Y+:@:@X+8@v^+:@:N#J&N#=+#+#+#+#+D@D@z.C*D@].q,M=#:J>,-F=H=--c=d=d=d=M=,-6~~.q-[.q-q-q-&#d._!W.z.q-q-q-[.q-'.'.[.[.[.'.[.'.'.[.'.[.[.'.'.'.'.[.'.[.'.'.z.C,$:P;P;P;P;P;P;P;P;P;P;P;P;P;P;P;8~=.:.[.'.[.[.[.[.[.[.'.'.'.[.J&l=K=P;P;P;P;P;P;P;P;P;P;P;P;P;P;P;P;P;D)q@[.[.[.[.[.[.[.'.[.[.q-[.'.[.C*q@#+[.V&j=s/K~P;P;O;>;>;>;K=;;K=L=P;=>r)M ^*s.q-t@&#&#&#e.e.e.e.z.C*C*z.C*C*D@R+R+s*#+#+s*s*s*%:y;B)J@X+X+H+_@&:]*d@~.~.~.].D$D$D$####g.r.B.h%G@=;U;e.=;R+!.*:        ",
"            b.u v s u r.{@%@G@r.g.g.######D$=:j-m&C#Y+X+H+X+H+:@:@-$-:]*f.^*s*s*J&J&J&#+#+R+#+D@=+D$W-;:~-J>D-H=H=I=*-c=d=e=9-P;u]d@e.&#t@t@e.[.D@#+t@q-q-q-&#q-q-q-'.[.[.'.'.[.[.[.'.'.'.'.[.[.'.[.[.q-'.'.'.f.b>P;P;P;P;P;P;P;P;P;P;P;P;P;P;P;P;>:~@[.'.[.'.'.q-[.'.[.'.[.[.[.J&+,P;P;P;P;P;P;P;P;P;P;P;P;P;P;P;&>P;,:}.R+'.[.[.'.[.'.[.'.[.'.q-&#s.].,.x 2'E-,-P;P;P;B=C=*>R;>;;;K=%>P;&-x=Z.N#A&t@t@e.t@t@&#e.z.t@z.e.C*z.z.D@C*D@D@=+R+s*s*R+#+J&J&m-5-':<@H+X+X+_@i*f&J%~.J%].M.D$n*w%g.}%g.B.G@G@B.[.&#=;C*R+t*          ",
"            X J u M t s*^.%@%@B.B.B.U&g.g.##X%~&T{X+X+X+:@H+X+H+X+i@):%=i;:.^*^*N#^*^*J&s*#+s*D@D@f.*=!:b=A=J>H=G=I=--*-c=d=b=>;()A$d@t@P-&#t@t@e.z.e.=;e.z.e.e.z.z.q-[.&#&#e.P-e.t@&#e.q-q-&#[.q-&#&#q-q-q-z.9+G!P;P;P;P;P;P;P;P;P;P;P;P;P;P;P;w_y~D@'.'.[.[.'.[.'.[.'.'.'.q-d@/-w~P;P;P;P;P;P;P;P;P;P;P;P;P;P;P;P;&>u_].q-'.[.'.U;'.'.q-q-e.R+g&t@u;X^~:{:P;P;&>L=C=C=T-*>T-R;C=T-P;E(]:x ~.D@&#q-q-t@&#t@&#t@e.e.z.z.e.C*D@D@D@z.z.R+D@#+=+R+s*#+J&^*^:/:F+D#X+H+Y+<@(:d&~.J%~.].A.D$D$D$}%g.g.B.B.G@v%U;&#=;=;N#e.          ",
"            -+X J u 2.@+}+q.%@B.B.B.U&r.g.u%3%_:h$H+X+X+Y+X+X+X+H+k@::<:d&f.f.:.f.f.:.N#^*s*J&J&J&t*r.@(c=J>A=A=G=----c=*-d=9-b=P;k/d@C*e.t@e.=;z.z.z.e.e.t@z.=;z.=;e.e.&#P-&#t@e.t@t@&#e.t@e.&#t@t@t@t@P-&#M.d_&>P;P;P;P;P;P;P;P;P;P;P;P;P;P;P;6-d@t@t@t@&#P-&#&#t@&#t@P-t@D@z.W)P;P;P;P;P;P;P;P;P;P;P;P;P;P;&>&>P;_)N.#+&#q-q-&#&#q-s*J%R+).[:E/S;%)P;P;P;B=%>Q;C=T-C=T-C=)-P;P;I>}:K :.~.q-P-t@P-e.t@e.=;e.=;z.z.s.:.D@D@D@D@z.z.R+D@D@#+#+#+#+J&J&q@#+|:;$X+X+:@Y+_@6_.;~.~.~.(.M.D$D$##}%}%U&B.B.q.q@[.e.=;s*:.9+          ",
"            1:=.v u 6+j)}+^.%@G@G@G@r.r.g.I&2:3:k@:@Y+H+X+H+Y+Y+H+X+`+4:r=f.^*^*f.f.:.J&^*s*s*s*J&N#{.:+0>,-D-~'F=H=>-c=*-c=e=b=)-;{<.D@C*C*z.D@D@z.n-C*D@z.C*z.z.C*D@C*e.e.e.t@z.e.z.z.e.e.z.e.z.z.e.t@e.^*X.8)P;/>/>P;P;P;P;P;P;P;P;P;P;P;P;P/_!f.t@t@&#&#&#t@&#t@P-&#e.z.d@5:w~P;P;P;P;P;P;P;P;P;P;P;P;P;&>&>&>P;^^].&#&#P-t@D@].g.$#u;6(z=&>P;P;P;&>O;%>%>%>*>B=C=C=C=J'P;6:x=w+f.s.z.P-t@&#&#&#e.e.z.e.e.e.J&M..'5=R+D@D@D@D@D@D@#+s*J&J&J&J&J&N#i;j;0%F&Y+X+X+X+<@N$2*].J%].].W%w%##w%r.g.$&B.G@q.s*&#C*R+s*q@,.          ",
"            q)j)H I M b.W%3+^.G@F@G@$&B.g.e#k&;$Y+X+H+H+H+:@H+X+Y+Y+C#7:f*s.s.f.s.f.q@f.f.N#^*N#!.^*^*:.8:H=[_A=J>,->-I=c=c=d=e=E=K=i(~.C*z.D@D@z.C*D@z.C*z.D@z.z.n-z.D@z.e.e.z.z.e.t@e.=;t@z.e.z.e.z.z.z.].7>L=/>&>&>&>&>P;P;P;P;P;P;P;P;P;6^O{g.e.e.e.e.e.e.e.e.e.e.e.=;D@#+7'P;P;P;P;P;P;P;P;P;P;P;P;>)/>&>>)P;9:y.s*D@s*^*~.E@*)[//{&>P;P;P;&>L=L=J'B=%>B=*>T-C=*>/>P;0:},%.W%:.D@C*C*C*D@D@C*z.D@D@R+R+J&~.z.a:n>b:f.#+R+#+s*#+#+J&s*^*^*J&^*^*^*]*z_i@X+X+X+H+H+<@c:3*W%M.M.D$####g.<+r./&B.%@q.g.n-C*n-s*N#s.            ",
"              |.X L v u z.F.{@%@q.F@B.^#G@Y%k$C#:@X+X+X+H+X+:@H+Y+X+k@':6,U*A&f.l+l+q@^*^*:.^*^*N#^*^*M.d_c=d:J>,-,-H=--I=c=e=9-9-L=Y(D@:.=+R+#+R+R+D@D@R+D@D@D@D@R+D@D@R+C*z.z.z.z.z.z.C*z.z.C*C*z.C*z.#+<.;{P;&>&>&>&>&>&>P;P;P;P;P;P;P;P;X('.D@z.e.=;e.z.e.e.e.e.e.z.z.l+W->)P;P;P;P;P;P;P;P;P;P;P;&>&>&>&>&>P;P{##g.N#N.u)e:f:'-P;P;P;&>&>J'L=L=L=L=%>p'%>C=C=P;P;(!8=3'A&W%z.D@C*z.C*z.C*z.z.D@D@D@J&W%C*n/g:d=>-1.M.N#t*J&J&J&J&^*J&:.f.:.f.:.q@]=z;J@H+X+X+H+Y+C#l#h:;&n*D$##D$D$g.g./&B.G@%@^.W%e.R+n-N#:.l+            ",
"              %./#K K q @+*+L+q.u@%@^#G@P@i:X+X+:@Y+X+X+Y+X+X+:@Y+Y+X+Z@j:R&s.s.d@s.s.f.q@:.:.:.f.f.:.D$!@^>F=J>A=F=F=>-I=0-d=c=b=!-/'7>B.#+=+#+#+#+#+#+#+R+#+R+D@R+D@R+D@#+D@C*C*C*z.z.z.D@D@z.D@C*n-D@].k:P;P;&>&>&>&>&>&>>)P;P;P;P;P;P;l:V_~@D@z.C*D@n-z.C*C*C*z.n-z.#+f.m:P;P;P;P;P;P;P;P;P;P;&>&>&>&>&>&>P;n:6>y~q>o:W/P;P;P;P;&>&>&>/>/>%>L=L=L=%>%>%>%>J'P;o!L,Z.].d@s*C*D@z.C*C*C*C*D@z.C*D@D@].s.P#9>c=d=*>,>#+s.N#J&s*J&J&J&^*^*f.:.^*f.f.A&p:.^C#X+X+X+H+H+(@w$q:)*D$D$w%##r.g.r.B.B.G@q.L+~@&#C*=+N#f.#+            ",
"              O{r:I K M c.q.}+^.{@%@G@%@H#s:i@H+Y+X+X+H+X+X+X+X+X+X+X+)#t:r=_.W.s.s.s.W.q@f.f.:.:.^*:.s.d@N;M=2;D-A=G=,-I=I=c=c=c=9-&>;>f+q@#+#+R+#+s*s*#+#+#+s*#+s*#+s*#+s*s*D@D@D@D@D@D@D@R+=+D@=+R+u:q-m_P;&>&>F)&>&>&>&>&>/>&>P;P;=,!=$#(.D@R+R+R+R+D@D@D@D@D@D@#+D@##0!_{P;P;P;P;P;P;P;/>&>&>>)&>&>&>/>&>&>c;$-v:P;P;P;>)/>&>&>/>&>&>/>L=O;L=L=p'%>Q;P;P;}^r)M W%W.R+R+R+D@D@D@R+R+R+D@D@=+#+s.W%1.@]t'C-,-F=w:T;r.^*N#N#^*^*^*N#^*f.q@s.s.s.f.z&x:y:j@H+Y+X+X+H+X+F+z:V%M.####}%U&r.$&B.%@%@q.%@!.z.=+^*t(d@N>            ",
"              _,-.L I u w W%*+^.^.^.G@5@c#A:Z@X+H+Y+H+X+X+Y+X+X+H+H+Y+0&B:C:1-d@d@d@d@d@W.s.f.q@f.f.l+f.B.i>p-F=~'J>,-F=;---0-c=b=d=d=&>6~g.J&N#J&s*#+#+s*#+R+#+#+s*R+s*#+#+#+R+D@R+R+R+D@D@D@D@R+R+D@r.M,P;P;&>&>&>&>&>>)&>&>P;P;D^L,X~M.~.R+D@D@D@D@D@D@D@=+D@D@#+D@^*s*1^P;P;P;P;P;P;&>&>&>&>&>&>&>&>&>&>&>&>L=P;P;P;&>/>&>&>>)&>&>/>/>L=J'L=L=B=%>P;P;D:e:=.~@}%s*s*#+#+s*s*#+s*s*#+s*s*s*~.g.'{E:0>B=d=,-J>J=Y(r>~.:.f.f.^*:.f.f.q@s.W.l+q@f.d@/;F:h$X+X+Y+Y+H+Y+H+e$G:!*U&##g.##B.B.r.%@F@%@{@G@C*=+s*N#t(_.              ",
"                Z.Z.I K v !+[+^./.{@-#P@,#x$X+X+X+H+H+Y+Y+X+X+Y+H+H+X+H+K@H:_=J%~.J%~.~@d@s.s.f.q@f.f.q@~.M.Y'c=~'J>D-H=G=--*-*-d=9-b=R;G!4+^*N#t*N#J&J&J&J&J&s*J&J&s*J&J&J&s*J&#+R+#+#+#+#+#+#+#+#+~@,.I:P;&>&>/>&>&>&>&>&>P;P;P=i>M.d@J&#+#+#+D@D@D@D@D@R+=+D@D@D@D@M.l=))P;P;P;P;&>&>&>&>&>/>/>&>&>&>>)&>&>/>P;>)&>&>F)&>&>&>&>&>/>>)L=L=L=L=O;&>P;(!F^J g.s.J&#+#+s*#+s*#+#+R+#+#+#+#+^*r.}.V'[,p'J=F=F=J>A=d=2'G@^*f.^*:.^*:.:.q@q@f.A&s.A&s.z&Y-9$W+X+X+H+:@:@H+H+J@5*J:e#####r.G@G@B.G@q.q./.M.C*t*N#t(A&~.              ",
"                K:1.Z.I w u.{+~+^.q.*@Z#G$i@H+H+H+:@H+H+Y+H+Y+H+H+X+X+X+<@e> *f&{.{.~.~.d@d@s.W.W.s.W.s.d@g.T>2;[_~'A=~-,->-I=*-*-c=9-E=L=L:B.^*^*N#N#^*^*N#^*^*^*^*N#^*^*N#^*N#^*J&J&J&J&J&J&J&J&s*w%d,P;&>&>>)&>&>&>P;P;P;@~6~:.##N#J&N#J&J&s*J&J&J&J&J&J&J&N#J&J&N#~@>>P;&>&>&>&>&>&>/>/>>)/>>)&>/>&>&>&>&>&>/>&>&>&>&>&>&>&>>)&>&>L=L=L=%>P;P;}^g;I D$n*s*s*J&J&J&J&s*J&J&J&J&J&#+f.M.[.~=;{&>'->-F=F=,-~';-m!E@s.s.q@l+f.f.q@q@q@q@W.s.s.W.d@v-M:;$X+:@X+X+X+Y+H+H+8@N:O:P:g.g.B.G@B.^#%@%@q.~+s.J&N#:.t(].=;              ",
"                Q:b.X H J w+W%M+^.L+C@R:S:T:T{C#Z+X+X+:@H+Y+X+Y+H+Y+H+:@X+<@R%z&~.~.~.~.d@~@~@W.A&s.d@s.s.d@d@>>I=#:J>D-G=H=--c=I=c=b=b=p's^=.##N#N#^*J&^*^*^*N#N#J&^*^*N#^*^*^*N#^*J&N#J&J&J&J&J&:.f,~~P;&>&>>)&>&>P;P;v:U:t@|%s.s*J&s*N#J&J&N#s*s*J&J&J&J&J&J&J&J&D$|]C-P;&>&>&>&>&>&>/>>)&>&>/>/>/>>)/>&>&>&>&>&>&>&>/>&>>)/>&>&>L=L=L=P;P;R,e:G-].U&f.^*^*^*^*!.^*N#^*N#^*J&s*^*r.N#m{V:;;C=c=*->-H=H=~-D-M=W:##f.s.s.f.f.s.s.q@s.s.s.d@~@d@o;X:S_W+H+H+X+H+Y+X+H+H+X+;$Y:Z:r.r./&G@G@G@%@^.~+q.:.N#:.:.A&D$]!              ",
"                  '{Z.L L u 9+F.~+B+%@~+]@`:/@b$h$j@X+X+H+X+Y+X+X+H+H+Y+X+W+ <t%{.~.~.~.~.d@d@s.s.s.s.s.s.A&r.T>=>J>J>J>F=,-F=I=I=d=c=d=d=P;v{:.d@^*^*N#^*N#^*N#N#J&N#N#N#^*^*N#N#J&!.N#J&J&J&N#s*G@u_P;P;&>>)/>P;P;Q{ 'u+.<:.J&N#J&s*t*s*s*J&J&J&s*J&J&J&J&N#J&s*f.d@%'P;P;&>>)&>&>/>&>/>&>/>/>&>/>/>/>/>&>&>&>/>&>&>&>>)>)&>/>>)%>J'P;P;&!g;J G@~.f.N#^*^*^*J&N#^*^*^*N#^*N#^*~.d@u'>>C=R;E=*-c=--,-G=H=D-*-+<-.##A&s.s.s.s.s.s.d@~@~.~.J%~.~.;&P&_@X+X+H+H+H+X+H+Y+H+Y+Z@@<#<^#G@^#%@%@%@{@q.3+D$s*N#t(q@(.(.                ",
"                  #*Z.Z.Z.v d-{+[+~+^.^.q.s#4@c#$<<@W+H+H+H+Y+X+X+X+:@X+H+8@=$%<z*].].(.J%{.~.J%d@d@~.~@~@~.M.:.Y'd;~'D-D-H=,-F=*-c=*-b=d=E=;;l{B.J&:.f.f.f.f.:.:.f.f.:.^*f.^*f.f.f.:.f.N#^*^*N#_.N.>{P;/>>)P;P;K=8=I)^#~.#+N#s*J&s*s*J&s*J&t*J&s*J&s*J&N#N#s*J&J&r.u;*-P;&>&>>)&>&>/>&>&>/>&>&>>)/>&>&>/>&>&>>)&>/>&>&>&>/>&>L=L=P;P;r/u]1.M.g.^*N#J&N#^*^*N#^*N#^*^*^*N#^*^*##N>1)h^P;b=c=c=c=I=--G=,-,-~-'-*_B.s.s.s.W.A&s.s.s.d@d@~@~.J%~.~.Y=&<W+H+X+H+X+X+Y+X+H+:@H+H+*<=<e#h%%@%@u@q.q.~+^.~@!.:.l+~@(.s.                ",
"                  j]c.w+Z.H Z.J%J.B+^.^.L+%@^.4@t#-<;<;$j@:@H+H+Y+X+Y+X+X+j@J@><)*D$M._.M.].].~.~.~.~.~.J%~.d@^./-e),-D-A=D-,-F=I=I=c=d=b=e=C=O^$#|%f.q@q@q@f.f.q@f.^*^*^*f.f.f.^*f.f.^*^*^*N#f.%@w=P;/>&>P;J'Z,i>].D$f.^*N#N#^*^*^*^*N#^*N#^*^*^*^*^*N#^*N#^*^*A&:.1^P;&>/>&>&>&>&>&>&>>)&>&>&>&>&>/>&>&>&>>)&>&>>)>)&>>)&>L=P;P;R,,(=.####q@N#^*N#N#^*J&N#^*^*J&N#N#^*^*N#D$)'.(P;C-b=e=d=0-*-;->-,-D-A=d=0=N.D$q@s.s.W.s.s.s.d@d@~@J%~.~.{.f&,<'<Z@X+X+H+X+X+X+X+:@H+H+:@W+)<!<r.F@q.u@%@L+3+G@N#:.q@s.{.M.J&                ",
"                  ~/!@Z.w+w+M 9+J.}+B+M+^.^.^.q.~<d#{<]<J@8@H+Y+Y+H+H+X+H+X+i@5*Z%t%D$W%M._.M.].].J%].].].].J%].].3;*-d:J>A=,-H=-->-0-*-d=d=d=P;E):.M.f.W.s.s.W.W.A&s.s.s.s.s.W.s.s.W.s.d@W.q@W%E@0/P;P;P;8)m>q@##f.f.^*f.:.f.^*:.f.f.:.f.^*f.f.f.f.:.f.:.f.^*^*D$i>^<&>&>/>&>>)&>/>/>&>&>&>>)/>&>/>>)&>&>&>/>&>>)&>>)&>&>P;P;/<[/M B.n*f.q@f.s.q@q@q@l+:.:.f.:.:.:.^*f.:.g.6>O(P;J=b=b=d=c=c=--;-G=,-A=J>b=w=G@s.d@d@d@d@d@d@d@~.~@J%~.J%(.(.s%H*)#D#X+X+X+X+X+Y+X+X+:@Y+X+W+G%I%e#%@{@{@q.^.[+D$s*q@l+d@(.g.                  ",
"                    Z.=.Z.Z.L c.q.&+M+3+M+^.q.q.%@%@*@e#(<c$`+Y+:@X+Y+X+H+H+j@F*~;U%##W%D$M.M.M.].].].].(.].].J%r.A$H_D-[_~'D-G=G=I=--*-c=c=e='-B=|;{@g&A&s.s.W.W.s.s.s.s.W.W.A&s.A&s.s.d@A&A&##F-P;P;9:0,[.R@~@:.f.f.f.f.f.f.f.s.f.q@f.s.q@f.s.f.f.f.f.f.q@q@f.###,P;&>/>&>&>&>&>>)/>&>&>/>&>&>&>&>&>&>/>&>&>&>/>/>&>P;P;W'^(A$D$=#q@f.f.q@f.f.l+q@f.s.f.s.q@q@q@s.q@f.(.:.{>P;e;e=e=b=I=c=I=F=G=G=D-~'c=Y(&#].g&~@~.{.J%~.~.~.J%].].].M.A.h&_<H$i@X+X+Y+X+H+X+X+H+H+X+X+H+(@K@:<B@q.^.{@q.3+^.l+t(l+W.J%_.M.                  ",
"                    <<x!w+w+*.I A&F.}+[+M+~+^.^.{@%@%@~<2#,@k$F+6*H+H+H+H+H+Y+C#[<T%;&##D$n*M.M.M.M.].].].].].].(.r.=)d=[_J>J>D-F=F=I=*-*-d=9-d=M=}<l=%@d@W.W.s.s.s.s.W.A&s.s.W.s.s.s.s.s.s.s.~.s'K'Q=N>g.W%q@l+s.f.f.f.f.f.f.f.f.q@l+q@q@s.f.l+f.f.s.s.q@s.f.r.y '-P;F)&>>)&>&>>)&>&>&>>)>)/>&>&>&>&>>)&>&>>)&>&>P;P;=,x(e_r.g.~.s.s.W.s.A&W.W.s.A&W.A&A&s.s.s.s.s.s.W.B.!=P;J=9-e=b=e=c=*-I=>-G=F=A=H=d:+'q.J%~@~.~.~.~.~.J%~.].].(.M.M.n*|&|<F+X+X+Y+H+Y+X+X+X+Y+X+Y+H+f$F+1<2<*@^.~+L+L+3+=#:.l+W.{._.g.[.                  ",
"                      ;.1.v+j+L >.h.%+$+[+3+~+L+^.q.u@%@}$d#p$3<F+(@X+X+H+Y+:@X+J@@*4<D$g.####D$n*D$M.D$n*D$M.M.M.G@,.`/b=2;A=A=H=F=F=I=I=I=c=e=d=B=X(q!B.~@d@d@d@~@d@d@~@d@d@d@~@d@d@d@d@d@d@s.*)A$G@].q@s.s.s.s.s.W.s.W.s.A&W.s.s.s.s.W.W.d@d@s.A&s.W.s.A&(.].E)P;&>&>&>>)&>&>&>&>&>&>/>&>&>&>&>&>&>>)&>/>&>P;P;5<r)v B.v%q@s.s.W.W.W.s.s.A&s.s.W.s.W.s.s.s.s.s.s.d@%@ {r/K=e=d=9-c=*-c=--F=H=D-A=~-K=3;].D$J%~.J%].].].].].].M.M.A.D$D$;&6<a'8@Y+X+H+Y+H+:@X+H+Y+j@_@W+7<8<9<^${@^./.M+3+%+M.q@~@~.J%_.<+                    ",
"                      0<v+w+w+H =.}%H.*+M+3+~+^.~+q.u@q.q.G@4#a<b<`+X+X+X+Y+H+H+_@c<d<y%g.D$####W%D$M.D$W%D$D$M.A.M.$+e<J>#:#:A=J>H=F=--I=*-d=c=e=e=P;I]t@B.~.J%~.~.~.~.~.J%~.~.~.~.~.~.~.~.{.g&[+B.{.d@d@~@d@d@g&d@d@~@~.d@d@d@~@d@A&W.A&s.s.s.d@s.s.s.s.W.%@W-#~P;>)&>/>&>&>&>/>/>&>&>&>&>&>&>/>&>&>/>>)P;P;f<L,M;##%@~.A&A&s.s.d@~.d@d@d@d@d@~.d@d@~@d@~.~@~@d@d@a+V&!/&>e;b=e=9-*-*-*-F=H=G=,-J>I=$!'{}$~.~.].].].].].].(.].].M.M.D$].=:k&i@H+X+X+H+Y+X+X+X+Y+J@W+v$g<h<i<|@q.^.^.3+3+[+/.A&W.~@J%W%##_.                    ",
"                      d);.v+w+Z.I !+k.&+$+M+3+/.L+~+%@%@%@Q@F@S+1#j<_@j@X+Y+:@X+D#W+k<l<##D$####n*M.D$D$D$D$D$D$M.M.n*%@I_e=[_J>J>D-G=H=I=c=c=c=d=e=J=O;u]~.M.~.J%~.J%~.~.~.{.~.~.~.J%~.~.~.J%~.~.d@d@~@d@~.d@d@d@~@d@d@d@g&d@d@d@d@d@~@d@d@d@d@d@~@d@~@d@]._.~>P;/>&>&>&>&>&>&>&>&>/>&>>)&>&>/>&>&>>)P;P;f;q)1.{@##].d@d@d@d@~@~.d@d@d@d@~.d@~@d@d@d@d@~@d@d@~.d@}%.=m<&>b=b=9-e=d=0-*-I=F=G=D-D-~'d=n</.].].].(.M._.M.M.M._.M.D$D$M.w%o<B%c:<@X+H+Y+Y+X+X+H+X+F+p<q<r<V@t#q.%@%@^.~+3+M+{+g.A&W.{.(.M.U&J&                    ",
"                        !@*./#*.I u./.h.$+{+3+3+3+~+^.{@^.^.%@q.P@~<j<;@D#X+H+Y+X+F*s<t<u#g.}%g.v%D$v%######v%w%D$D$D$G@.=X(>-2;~'D-,-H=F=I=*-*-0-e=d=b=P;/_G@##J%].].J%].].].J%J%J%J%].].J%J%].J%J%~.~.~.{.{.~.~.~.~@~.J%d@d@d@d@d@d@d@d@~.d@~.~@d@d@d@d@U&%.K=/>&>>)&>&>&>&>&>&>>)&>/>&>/>&>&>&>P;P;}^r)1.G@G@~.~@d@d@d@d@~.~.~.J%~.~.~.~.~.~.J%~.~.J%~.~.J%~.x%q-+,P;b=e=9-d=c=*-I=I=>-H=,-J>A='-u<W%}%M._.M.A.D$D$D$D$D$D$D$w%D$##U&v<m%e$:@Y+H+H+H+Y+:@V]8@w<x<B@-#%@q.^.~+^.^.~+[+&+~+(.~@(.M.W%v%$*                      ",
"                        K:c.b.w+w+Z.#+k.*+{+}+3+3+~+^.^.{@{@%@q.G@S+-#y<T{H+H+X+X+H+)#z<v#r.######v%##D$####D$w%D$D$W%D$I.e/N{J>A=~'J>F=H=>-I=*-*-c=b=d=!->;!=~<g.].].J%].(.].].].].(.J%(.].].].(.(.].].~.~.~.~.~.~.~.~.~.J%~.~.~.J%~.J%~.J%~.~.~.~.~.J%~.B.%'P;&>&>>)&>&>&>>)/>&>>)&>&>&>&>L=P;P;{/x=-.r.q.].J%J%~.d@~@{.~.~.~.~.~.~.~.J%J%{.~.~.~.~.~.J%~.~.r.d@L,P;'-9-b=b=c=I=0---F=H=F=J>D-c=$!-.B+M.M._.M.D$D$M.D$M.D$D$D$######u#A<B<<@Y+Y+X+Y+X+j@)#X-C<P@*@%@%@q.q.^./.~+B+B+}+&+%@A&(.].n*n*<+M.                      ",
"                        D<u+B$1.b.Z.G{G.G.*+{+$+[+{+/.~+~+^.^.q.q.q.S+E<F<i@X+Y+X+Y+C#.^!$Z:r.r.g.}%}%##g.##g.####W%D$M.|%q.@(d=2;D-A=~-F=H=-->-*-*-d=e=b='-K='=R@W%].].(.].].(.].].].].].].]._.J%].].].].~.~.~.~.~.{.J%J%{.J%~.{.~.~.J%~.~.~.~.J%J%J%~./.W-|)P;/>/>&>&>&>&>&>&>&>&>>)L=J'P;P;G<i=4=M+##].~.~.~.~.J%J%J%_.J%J%].].J%]._.].].].].].J%].].].].##d@v>P;J=d=9-9-d=*-0-*---H=H=D-~',-I=7>}+D$D$D$n*D$w%D$W%D$D$W%D$w%##w%g.e##%F+:@H+H+H+H+F&W+H<I<4@q.G@Q@q.q.^.^./.L+3+3+$+*+n*J%].(.n*##%@                        ",
"                          k~j,1.1.v+v+d@m.H.%+&+*+[+M+~+B+M+~+L+^.^.q.J<K<L<F+Y+X+X+X+i@M<P@B.r.g.g.r.<+g.U&g.U&g.g.g.}%g.G@J&^~c=2;A=A=D-H=G=F=--*-I=c=9-e='-C=)=q.r.M._.M._.M.M.M.M.M.M.M.M.M.M._.M.M.M._.M.M.].].].].].].].].].].].].].].(.].J%].].####N<P;O;J'L=L=%>J'L=L=%>L=L=O;P;P;O<F^A$B./.J%~.~.~.~.~.~._.].].].].].].].].].(.(.].].].].].].].].G@W.F^P;'-9-d=d=d=c=0-;-I=F=F=~'D-J>E=|(r.##D$D$W%D$##v%D$##w%##D$##}%####4<P<m&D#Y+Y+X+H+_@>%}@~<&@G@%@%@q.{@^./.B+M+B+[+{+&+q.~._.A.n*v%<+g.                        ",
"                          Q<u.b.1.b.w+3{h.F.G.%+&+}+}+3+3+3+/.~+^.q.q.^.p@7#=%n&H+X+H+C#R<@$w#/&r.g.g.r.g.r.g.r.g.####g.g.##*+S<T<I=2;D-J>~-H=G=>-*-*-*-c=d=b=K=)-2'~+B.D$D$M.D$D$D$D$D$D$D$W%n*D$D$W%D$M.D$W%D$W%D$].M.M.A.M.M.M.M.M.M.A.M.M.M.M.M.A.~+i>|)/>L=J'L=L=J'L=O;L=J'J'P;P;{/u]{]%@q.D$].].].(.].M.M.M.M.M.M.M.M.A.A._.M.M.M.].M.M.M.A.M.M.].F@N#U<P;D=b=b=9-d=c=*-I=I=F=G=G=D-#:d;~:=;%@W%W%D$M.######w%##D$D$######g.,&V<W<`+X+H+Y+X+)#T#X<5@]#G@%@u@{@{@{@^.L+B+3+3+[+$+G.D$J%n*n*D$v%q.:.                        ",
"                            5+1.=.b.b.B$~.o.H.G.H.$+}+}+}+}+3+B+L+/.^.q.%@a@Y<M-j@X+X+X+;$Z<`<e#h%r.B.$&r.r.r.B.r.<+g.r.r.g.r.*+9)`~H=A=A=D-H=H=G=I=--*-0-d=b=e=D=K=_,(.B.M.D$D$D$n*M.D$D$M.W%M.D$D$M.W%D$D$D$D$W%D$W%M.D$M.M._.M.M.M.M.M.A._.M.M._.D$g.P_P;%>J'L=L=L=O;L=L=L=P;P;c=b-I *+r._.M.].M.A.D$D$W%D$W%W%D$W%D$D$D$W%M.M.D$D$D$D$M.D$D$W%M.D$q.9+l!P;E=b=9-c=c=I=c=--;-H=,-H=A=D-d= [V&$+######|%g.g.<+U&g.g.r.r.g.r.g.$*v#:<2!D#X+H+X+i@Y;.[p@q.Q@%@^.q.^.^.L+L+3+[+}+}+*+G./.].].D$v%w%$&B.                          ",
"                            +[j)1.=.=.H N.m.m.G.I.&+%+%+{+%+M+M+~+/./.~+{@B+H#:&;$j@Y+Y+Y+i@@[s#B.B.r.B.r.B.r.r.B.r.U&g.g.g.r.B.~+#[0-N{#:J>A=D-G=F=----*-*-c=b=e=D=P;g;s.3+w%##D$##D$##D$##w%##w%##########v%##D$####D$v%####W%M.M.M.M.M.].M.M.].M.=#x $[J'%>O;L=L=J'%>%>P;P;f;v>c.R@3+M.M.M._.M.D$D$M.D$D$n*D$D$W%D$D$M.D$D$D$D$D$D$D$W%D$D$W%D$D$U./+}/P;'-b=9-9-c=*-I=--I=H=G=G=~'D-H=%[u)*+####g.####g.g.U&g.g.r.r.<+r.g.B.{$!${*_@H+H+j@`+&[*[=[q.^.q.{@^./.~+B+M+~+[+[+$+*+G.F.U&W%w%v%g.r.F@W%                          ",
"                              -[L&=.1.1.=.D$c@G.G.F.*+{+%+}+{+3+^.~+L+~+q.{@|@;[>[i@Y+H+X+C#C',[]$B.r.B.B.r.r.r.$&r.g.r.g.r.r.g.G@g.q)J=d:#:J>J>D-G=;-I=I=*-I=c=9-b='-J'{^$#F.D$w%w%D$D$w%w%w%w%v%w%D$D$w%w%D$##w%D$##D$####D$######D$D$n*D$W%D$D$v%G@W)P;p'p'%>B=B=B=&>P;=,'[c.L+q.}%D$M.W%n*D$##w%D$####D$########v%##w%##D$D$D$M.D$M.D$M.D$W%w%U.` z=P;E=b=b=9-d=*-*-I=I=>-F=H=D-~'H=J>u_~+g.D$}%######}%r.g.r.g.g.U&r.g.r.B.r.x*i@Y+H+X+_@)[![i<%@q.^.{@q.q.^.3+3+B+B+}+&+&+$+H.t#W%n*w%v%g.r.^.                            ",
"                              5]$#=.1.b.w+u+J.U.I.G.$+$+}+}+}+[+3+~+^.~+~+{@%@O@,@A^g$H+Y+H+i@)[r.e#B.B.r.r.B./&r.B.r.<+g.r.r.r.g.^.^*1]b=d:#:~'~',-G=>-I=I=I=*-c=d=b=d=P;E,#&H.G@D$D$####D$D$##D$####w%######w%##w%########D$w%##v%##w%##D$w%##D$F.~[{[P;B=%>%>%>P;P;#~][w+}+{@D$######w%D$D$##w%##v%D$D$D$w%##D$v%##w%w%##########w%########q.G@^[9{L=d=e=b=d=c=*-0-I=I=G=H=D-~'~'D-E=E:%@%@##r.g.g.g.g.<+B.B.r./&B.B./&B./&2#/[_@([H+X+`+_[:[*@}$q.{@^.~+L+~+3+B+[+[+}+$+&+G.I.G.U&M.##g.$&B.%@W%                            ",
"                                $#A$K&=.=.1.d@j.I.F.$+*+&+}+{+[+B+3+~+L+/.q.^.^.V@<[i@H+H+H+k@i@q<V@G@G@r.r.B.r.r.r.r.r.g.r.g.g.g.g.~+[.-)!-d:~'J>A=D-H=F=I=0-c=0-d=c=9-e=>)[[>_|%3+D$##D$####w%##w%########D$##w%##w%w%##w%####v%v%##D$w%####D$G@<+A~P;*>C=T-P;P;a=x(.'q.H.g.D$########D$##D$w%####w%w%v%##w%w%##D$######D$D$##########D$}%$+e.},L=T-d=e=b=b=e=*-I=I=I=F=,-H=~'A=J>=-[)D$q.}%r.g.g.g.U&r.r.r.B.r.B.B.r.r.G@4@`:}[_@X+Y+i@|[*[p@%@{@q.L+^.^.~+/.3+[+{+{+[+*+F.H.I.^.M.##g.g.r.G@{+                              ",
"                                1[D;K&=.=.1.$#*+U.G.G.$+$+%+[+[+3+M+L+~+^./.{@^.*@2[[<J@Y+X+Y+F&3[4[{$G@B.r.r./&B.B.B.r.r.<+g.r.r.r.##~+u.5[d=6[A=A=~'D-F=F=;---I=*-d=c=9-b=M=P;F'N.H.g.####w%D$D$D$v%######D$####D$w%########w%######w%##D$D$##M+x 0-O;*>J'P;o!},-.H.%@r.######D$D$v%##D$D$##w%v%D$D$w%####D$##w%##w%##v%w%##v%########r.&+#&g=P;d;9-9-d=9-c=I=I=*-I=F=F=F=,-A=~'b=1]q-q.g.##<+g.r.g.r.r.B.r.B.$&r.r.r.r.Q@g.3-e$X+H+W+7[9<d#q.{@q.^.L+L+^./.M+[+}+[+{+%+&+H.G.H.g.n*g.g.U&$&/.8[                              ",
"                                  c)B$A$K&K&j+#+o.H.H.G.&+}+[+{+}+B+B+L+~+^./.q./.O@9[_@D#H+H+X+J@R*G#v@B.G@r.r.B.B.r.r.r.B.r.g.g.g.U&##H.c.S>d;6[#:~'D-,-,-G=----*-I=c=c=d=d=E=P;E,l{q./.D$##v%##########D$##w%##w%w%w%##w%w%##w%##D$######w%##%@Y'P;P;P;0[i=A$[+3+w%v%w%####D$##w%w%####D$##w%w%D$##D$##D$D$##D$D$##w%######w%##w%B.3+~@a[t'P;e=b=b=d=c=*-*-I=----H=G=H=J>D-D-M=1]'.~+g.U&g.r.<+<+r.B.r./&r./&r.r.r.r.B.*@b[;@X+H+<@c[d[*@q.q.^.{@~+^.~+L+B+B+{+}+}+$+&+H.H.U.q.M.}%U&r.B.^#3+                                ",
"                                  e[q]K&A$K&1.;.~+h.H.I.I.&+[+[+[+}+3+~+~+L+L+/.{@P@K#f[J@X+H+H+X+e$%%u#e#B.B.B.B.$&r.r./&B.r.<+g.U&g.g.g.&+6'^'E=E(#:~'~',-G=H=F=--*-*-*-c=c=b=e=B=!-x(_!k.G@w%####v%##############D$w%D$##v%w%w%##D$######w%q.x T-P;6:u].'q.&+g.##v%######w%##D$##w%w%##############D$v%##v%w%####w%v%####D$D$##~+~<M%8{P;>;9-e=e=b=d=*-c=*-;-F=G=H=,-~'J>#:D=1]&#}+g.##g.g.g.r.r.r./&B.r.B.B.r.B.r.B.g[h[i[F&H+(@j[#$r#q.%@q.^.q.~+/.~+~+3+3+{+[+%+$+*+H.I.*+}%##g.r.G@B.^.B.                                ",
"                                    k[|.K&=.=.*.!+l.H.H.H.$+$+}+[+}+M+B+~+^./.~+{@^.5@l[D#j@X+:@X+(@Y*m[V@%@$&B.r.r.B.B.B.r./&r.r.<+U&<+g.##%+u.l~b=E(#:D-D-,-G=H=F=--I=c=*-c=b=b=e=E=P;$'n[f.}+g.D$v%D$D$D$####D$####w%D$w%####D$D$w%w%####D$V.{>C-i=A$T.G@g.D$########v%w%##D$########D$##w%D$##v%######v%##w%D$####D$####D$B.H.!@i=}^J'E=9-b=d=e=c=I=I=c=I=,-G=,-A=A=J>#:E=b{q-/.|%}%r.r.r.g.g.r.r.$&r.r.r./&r.r.B.v#o[k$J@X+D#i@M*S+-#q.%@^.{@L+^./.~+^.B+[+}+}+[+*+H.G.T.q.D$##g.$&^#G@$+                                  ",
"                                    p[$#=.A$=.|.V&g.V.F.F.G.$+$+{+[+[+3+M+/./.~+~+^.^.u@M$<@X+X+H+:@g$[@q[I#B.G@B.B.B.r./&B.r.r.B.r.g.g.g.g.##H.c.^~b=#:#:D-J>J>D-F=H=>-I=*-I=*-d=9-b=c=)-&>t>+'##$+B.####v%##w%##w%w%####w%w%v%w%w%##########~< {Z.~<I.w%##D$D$D$w%########D$##D$####D$w%############w%D$v%####D$D$D$##w%~<3+:.G'$!P;C-9-9-b=c=c=*-0-c=;-F=F=F=H=D-D-J>,-9-E)}>3+g.g.r.g.r.g.r.g.B.B.B.r.B.B.r.r.r.u#q#r[i@X+H+F*s[h<^$q.q.^.^./././.~+B+3+[+}+}+$+$+F.I.H.}+D$|%r.$&B.G@3+B.                                  ",
"                                      M>|.A$K&|.w+d'T.U.G.G.&+&+}+}+[+B+3+^./.~+/.{@q.5@#$t[H+X+X+X+H+i@u[v[I&h%B.r.r.B.B./&/&r.r.g.U&U&g.g.g.g.~+[.w[b=[_2;A=D-A=G=,-H=F=--I=c=*-c=e=9-9-'-B=K=N<++g.h.U&w%D$##w%##D$##w%##D$####D$######D$D$##F@[+<+##D$v%v%##########D$####D$######w%######w%######w%D$w%D$D$D$w%##G@x['.x~E,p'%>9-9-d=9-d=c=*-I=*--->-F=H=~-D-A=~'~-*-i=n*u@####g.g.g.<+g.U&r.r.r.B./&r.r.r.r.%@]#y[)#X+X+k@b$z[|@G@%@^.{@q.~+^.^./.3+3+[+}+{+*+$+I.H.J.^###$&$&G@=#Q@}+                                    ",
"                                      A[c,K&V&|.=.K&J&k.G.G.H.*+$+[+}+[+}+~+~+L+/.^.~+|+B[C[W+:@X+X+X+X+i@D[E[P@G@G@B.r.$&$&B.r.r.B.r.g.r.g.r.r.g.^.R+v>c=~'2;D-J>~'H=G=F=H=I=*-I=c=*-c=b=9-b=E=/>b=u<W(].3+G@####D$v%##D$####v%D$w%##w%##D$v%##w%####D$####v%w%##########w%##w%######w%w%D$##D$D$####D$##w%##v%r.%@%+*=*!g=P;K=E=b=9-d=b=c=*-*-*----->-,-,-G=D-D-A=F=~-^{##%@g.r.r.g.r.U&g.<+$&r.B.r.r.$&r.r.r.3#*@F[c^G[Y+X+;$H[&@q.q.{@^.L+/.L+~+^.3+M+}+}+}+$+*+H.G.H.^.##g.$&G@F@%@3+I[                                    ",
"                                        s)c.A$A$|.B$;.^.n.H.I.I.*+$+[+[+{+3+B+/.^.^.~+{@z$J[K[Y+X+:@H+X+X+i@+%~<~<B.B.r.B.r.r.r.B.B.B.g.g.r.<+g.g.r.[+M.L[d:;-d:~'D-J>D-,-H=H=>-I=*-*-c=*-c=d=9-9-'-P;}^+(R=t@%@U.G@D$w%##D$##w%D$##D$######D$w%####w%####w%##D$##w%D$##D$D$####D$##w%############D$####v%D$/.m.J%$#M[={Q;/>b=b=e=9-e=d=I=c=I=I=I=--G=G=D-,-A=D-A=c=0>v_^.q.g.g.r.<+g.g.r.U&B./&r.r.r.r.$&/&B.G@N[O[P[f$H+X+i@Q[r$*@%@^.^.^.~+~+~+L+^.B+}+}+}+{+*+F.F.H.H.<+##r.G@%@G@^.*+                                      ",
"                                        R[d.A$V&:=A$/#d.m.G.G.G.*+*+}+[+}+3+3+3+^.^.^.q.5@S[a$<@X+X+H+H+Y+j@W+T[h%;#B.r.r.B.B.B.B.B.r.r.g.r.<+g.g.r.r.G@}+m{@_e=6[A=~'J>D-J>,-,->-F=I=c=I=c=c=d=b=e=e=!-*>%>w; 'U[d@k.q.####D$##w%D$############v%D$####D$w%##D$##D$####w%D$D$D$##D$D$D$######w%##w%##U&H.h.M>,=^_O<%>*>e;b=e=9-9-d=d=0-*-c=I=F=F=,-H=H=J>D-A=[_b=O(M H.B.g.<+U&g.U&r.g.r./&$&B.r.r.r.B.r.r.r.w#V[W[_@H+X+(@z,X[2#q.q.q.^.^././.~+~+~+}+{+{+{+*+$+G.I.F.%@}%g.B.^#F@%@H.                                        ",
"                                          Y[d-|.|.|.A$=.q@j.H.G.G.&+$+}+}+}+}+3+/.^.L+/.L+]@Z[W+X+Y+X+H+Y+H+G[`[ }w#Q@/&B.r.r.B.B.r.r.$&r.B.g.g.r.g.r.r.r.%+.}!:e=D-[_#:D-D-A=D-F=,-F=F=I=--c=*-I=c=c=c=b=b=d;P;c=7-*_=.B.q.^.q.G@########v%w%w%######D$####D$####w%####w%##v%##w%##w%##D$##r.%@3#q.M+z.n/|(O=P;&>b=b=b=d=e=c=c=0-*-I=c=--F=F=G=G=D-A=A=~'[_G=b=E),.$+}%g.r.g.r.<+g.g.r.$&B./&$&r.B.r.r.r.G@w#+}7[W+H+X+H+J@@}-#q.%@q.q.^.L+^.^.3+3+~+}+[+[+$+&+H.H.E.~+##$&^#^#%@%@b@~+                                        ",
"                                            d.|.V&|.V&B$Y.a+k.G.F.I.$+}+[+[+}+3+3+/.~+~+~+]@#}<@H+X+:@H+H+:@X+Z@::$}4#G@h%r.B.B.$&B.r.$&r.r.r.r.g.r.g.g.r.r.I.J&U!%}I=6[A=D-D-J>,-H=H=H=F=I=--0-0-c=d=c=d=e=9-b=!-P;B=t'O=U!u;X.J&~+i.*+~<r.w%##########D$####v%w%w%w%D$##D$D$D$D$##F@M+h.D.g.[.c.c-v{ [}^P;O;b=e=9-e=9-d=c=0-I=*-c=----F=G=G=F=D-J>D-D-d:d=s'&}M.}+g.##U&g.g.r.r.g.r./&/&B.B.r.r.r.r.B.r.*@W@`@i@X+Y+H+Y+*}=}*@%@q.^.{@~+~+~+L+3+B+}+}+[+}+$+$+I.G.%+U&g.B.^#G@q.~<T.                                          ",
"                                            -}y.A$-.V&|.v+E@h.H.G.G.$+&+}+{+[+}+B+~+~+~+~+f#;}>}j@X+H+H+X+X+X+H+Z@,}$}{$G@B.B.r./&/&/&B.B.B.B.r.g.r.g.g.g.U&##3#%@e<H!b=d:E([_A=J>D-~-H=H=>-F=----*-I=I=d=c=c=b=d=e=J=M=)-*>p'w_e,q'6~M u+##V.h.*+~+q.G@%@G@g.g.##r.%@^#G@L+L+T.k.k.q-'{T>n['}`]'-L=C=K=D=b=e=9-b=e=d=d=d=I=0-c=*--->-F=F=H=,-D-D-J>[_A=!-]>W 3+%@g.g.r.<+r.g.g.U&g.r./&B.B.r.B.r.r.r.B.b@a<'$`+Y+H+H+H+x$y<q.v@{@^.q.^./.L+^.~+B+[+}+}+}+$+&+I.H.H.%@g./&G@B.q.{@*+%@                                          ",
"                                              )}y~V&-.|.:=K&N#k.F.I.I.%+&+[+[+{+{+M+3+~+/.3+!}~}0&H+X+H+X+Y+:@X+X+<@{}@&4@3#h%r.r.r.r.$&r./&r.r.r.r.g.r.g.g.r.}%U&G.u+A->---[_2;#:D-A=~'D-F=G=H=F=>-I=I=*-c=I=0-d=c=d=d=d=b=e=D=J'P;&>s'$>a,y{M[V)*)y c.V&-=s.M.D$[.A$-.w++'*)a[o:W)m<]}g]P;P;>;E=e=b=9-b=9-d=d=d=*-*-0-*---I=;->-H=,-H=,-~'A=A=~'~'d=E(@'9+G.####r.g.<+g.r.<+U&r./&B.r./&r.r.r.r.r.B.^$ $^})#X+Y+X+X+g$/},@2#%@^.{@~+^./.L+B+B+{+[+%+{+*+&+H.I.G.~+U&$&^#%@q.^.[+(}                                            ",
"                                                -]c.V&V&V&A$c.r.D.H.H.G.&+[+}+}+}+B+M+^./.3+&@_}K@H+X+H+X+X+X+H+X+H+_@:}<}I#=#B.B.r.B.r.B./&B.$&r.B.g.g.r.r.g.g.g.g.%+g.e/a-b=D-6[2;A=J>D-,-,-,-G=,-F=I=I=;-*-c=*-*-e=d=c=d=d=e=e=9-e;;;B=P;P;*>D=d=&!o!t)o![}o>z{s't)o!<)}}b=>;L=P;&>C=!-9-9-e=d=e=e=d=d=c=c=*-*-I=*-*-I=--F=G=G=G=H=D-A=A=J>2;--d=;>#&L+~+##r.g.r.g.g.g.r.g.B.r.B.r./&r.B.B.B.$&B.4#E<|}e$D#Y+X+X+X+p+3-^.~+^.^.^./.^.~+3+B+~+}+}+{+*+$+*+I.I.*+r.r.G@%@q.~<t#(}                                              ",
"                                                1}y.:=D>|.V&B$!@*+m.G.G.I.$+}+}+}+%+B+3+~+^.z$2}j[j@H+Y+X+H+Y+Y+X+H+H+f$3}@&{$3#G@r.$&r.r.r.B.$&r.B.r.r.r.g.r.U&g.g.U&r.%+d.X'('d=[_2;A=~'J>J>~-H=,-H=H=H=--I=--*-0-I=c=*-d=d=d=c=9-e=e=e=b=9-J=E='-'-'-J=D=D=D=C-!-d;D=J=J=J=E=E=b=e=e=b=b=b=b=d=d=d=c=*-*-c=*-c=;-I=I=F=F=G=F=G=,-D-J>J>~'~'b=%-k/^*}+U&g.|%g.g.r.r.r.r.<+B.B.$&B.r.r.B.B.r.r.B.I#x<3-F+X+H+H+H+X+j@4} #a@^.^.^././.^.~+3+3+}+{+}+}+$+$+H.G.G.B.}%$&%@F@q./.H.L+                                              ",
"                                                  5}5+|.c.-.D>L&4+k.T.I.I.*+$+&+[+[+{+M+3+/.5@6}Q'W+:@H+H+X+X+X+X+H+X+X+_@7}$}I#e#h%G@/&r.r.r.r.B.B.r.r./&r.r.r.r.r.g.g.##3+{@v+8}D-*-[_[_~'[_D-D-D-D-D-H=,-F=F=>-I=I=I=--I=*-*-*-*-*-c=d=d=c=d=c=c=c=e=e=9-d=e=b=e=9-9-9-d=d=d=c=d=d=d=d=c=c=c=*-I=I=0-I=--I=--F=G=H=,-H=G=,-J>A=A=J>[_F=c=9}|(!@G.G@g.r.r.g.g.g.U&U&g.r.r.r.r.$&B.r.B.B.B.r.G@N[+}`@u!H+H+X+Y+Y+X+Z@J!0}~+q.^.~+/.~+^.B+3+[+}+{+[+&+G.G.F.G.q.g.^#G@q.^./.}+F.                                                ",
"                                                    r>N+z+-.z+D>V&q@l.F.I.I.&+%+}+{+}+[+3+/.f#a}b}F+H+X+H+Y+:@H+X+H+:@H+Y+C#c}d}@#t#B.r.r./&r.B.r./&r.B.r.r.r.<+r.g.r.g.r.g.G@}+B.T>e}F=d=d:[_~'A=J>~'J>~-,-,-G=H=G=-->-F=;---*-*-c=c=*-*-*-*-*-d=d=c=c=d=d=e=d=d=c=c=Z~d=d=d=e=*-c=*-c=I=I=*-c=c=--I=I=I=>---,-,-G=F=H=,-A=~'D-D-2;[_!-`~@]1.u@[+<+}%r.g.g.r.<+g.g.<+r.r.B.r.B.B.$&$&$&/&G@G@V@7#f})#X+H+H+X+Y+X+X+J@g}5@q.^./././.^.B+3+%+{+}+[+&+$+I.I.I.^.g.G@%@%@^./.[+D.                                                  ",
"                                                    p[4+D>-.-.-.V&;.##V.G.H.H.H.$+{+{+}+{+3+}+B@h}b%X+X+X+X+X+X+H+H+X+X+H+H+C#Z@i}h%I&G@G@G@$&r./&$&r.r.B.r.r.B.g.r.g.g.g.r.<+r.r.}+f.l(a,c=F=D-[_2;J>A=D-~'J>,-G=D-H=G=,-,-F=;-;->---*-I=c=I=;-c=c=I=*-*-I=I=*-*-*-0-I=*-c=c=I=I=I=--*-I=0-I=F=>-I=F=F=H=H=G=D-G=D-D-J>J>D-~'[_~-*---y{0!r./.##g.g.r.r.r.r.g.g.r.$&B./&r.B.r.r.r.B./&B.B.Q@I#j}=%W+H+X+X+X+H+H+X+D#k}l}&@~+^.~+~+^.M+3+}+[+}+[+%+*+F.I.G.{+B.^#u@q.q./.~+m.^.                                                  ",
"                                                      m}}.-.-.j,-.K&m^L+k.I.I.G.*+*+{+}+}+3+~+n}o}<@D#X+H+H+Y+H+H+X+X+X+X+X+X+g$J@p}#<s#G@B./&B.$&r.B.B.r.r.r.r.r.U&g.g.g.r.r.r.U&r.%@h.s*6!Q_a=E=>-2;2;[_D-J>A=D-D-,-D-,-H=,-,-F=H=G=F=;->-I=I=I=>-I=----;-I=--I=I=--I=----I=I=I=--I=F=F=>-,-H=F=G=G=G=G=,-~'J>~'J>A=D-[_[_*-9-w;L,Z.].h.B.}%g.r.r.g.g.g.g.r.B.B.r.$&r.r.B.$&/&B.B./&B.u#v#@&q}_@X+X+Y+Y+H+H+Y+:@W+r}s}f#^./.~+~+B+~+[+[+[+}+*+*+G.F.H.&+$*B.%@Q@q.^.L+I.(}                                                    ",
"                                                        t}/+-.w,j,j,V&h#*+U.G.I.&+$+%+}+[+{+3+t+u}4&k@X+Y+X+H+X+H+X+X+X+X+X+X+Y+j@<-v}w}w#B.B./&r.r.r.B.r.r.$&B.B.B.B.g.g.r.U&r.r.r.r.r.q.3+g.i>'[F,'-I=[_[_2;#:J>~'D-D-D-D-D-J>H=G=H=H=H=G=H=H=F=>->->->-F=--;-F=F=F=;-;-;->-;-;-H=G=H=H=,-,-H=,-D-,-,-A=J>J>D-A=[_N{2;d=9-%_'>.'%@3+G@g.g.g.r.r.g.g.r.U&U&r.r.B.B.r.B.B.r./&B.r.B.r.^$1#N%*<<@H+Y+X+X+H+X+H+H+H+u!W#K+~+~+/.~+M+~+3+{+}+[+[+$+G.G.G.F.G@r.%@q.q.{@^.[+x}                                                      ",
"                                                          |_N+-.c.c.c.A$!+h.J.I.G.H.&+$+%+}+}+y}z},$g$Y+Y+X+Y+H+H+Y+Y+Y+Y+H+X+H+:@H+`+A}O[4@~<^#^#r.r.r.r.$&B.r.r.B.r.r.B.r.g.g.g.g.g.r.<+<+g.[+L+;.0,B},-I=;-,-N{N{#:#:[_D-D-D-J>~'J>,-~-~-D-D-F=H=H=H=F=G=F=G=H=H=G=H=H=H=H=G=G=J>,-,-,-,-A=A=A=A=~'D-[_#:A=#:,-----E(E)C}D}k.q.##U&g.g.r.g.r.r.r.r.g.B.r.B.r.r.r.r.r.r.r.r.$&B.G@4@t<E}J@8@X+:@X+H+X+Y+Y+X+H+C#F}G}H}L+^.~+3+B+}+[+}+{+*+*+G.H.H.H.^.r.%@Q@%@{@3+}+o.                                                        ",
"                                                          I}).j,c.c.N+j,V&z.V.I.F.G.G.$+$+}+}+^+J}K}Z@X+Y+Y+H+H+Y+X+Y+Y+H+X+X+X+X+H+Z+)#/=L}g.v#B.^#r.B.B.r.r.B.r.r.B.r.r.$&r.U&g.r.r.g.r.U&g.g.B.*+&+l+Z.X^T),)E=b=,-6[[_2;A=#:D-~'D-A=A=J>~'~'A=J>D-,-~-~-,-D-D-D-,-D-,-~-A=A=A=J>D-D-J>J>~'A=A=#:A=2;N{I=!-d=]~;>w=M}].T.B+##g.U&g.r.r.<+<+g.r.r.r.$&B.r.r.r.B.$&/&r./&r.r.B.t#*@N}O}F*j@X+X+H+X+X+H+Y+Y+H+H+J@P};}&@/./.3+3+}+}+}+{+[+&+$+G.H.G.~+B.G@q.q.~<~+B+n.3+                                                        ",
"                                                            Q},.-.D;w,c.c.;.s.k.G.H.H.&+$+[+[+]+R}H$<@X+:@H+Y+H+H+Y+Y+X+:@X+:@X+H+:@H+H+Z@_@S}T}4@G@B.B./&/&r./&B.r.r.B.B./&r.B.r.g.g.r.g.r.g.U&g.g.B.F@{@$+M.M%n,h=U}'-d=D-[_[_[_[_A=#:#:A=~'D-~'D-J>J>A=J>~'~'J>J>J>~'D-D-~'D-J>A=A=[_~'[_N{[_2;A=G=e=D=0=v{j=1.%@3+q.G@g.g.r.g.r.r.g.r.r.r.g.U&/&r.r.$&r.r.r.$&B.r.B.r.r.B.v@b@V}c[)#X+H+H+H+X+Y+H+H+H+X+X+:@i@W}5@3+^.M+3+B+}+[+{+}+$+*+H.H.H.~+h%G@%@/.^.~+/.J.X}                                                          ",
"                                                              Y}}.c.N+N+;.c.N+(.o.G.H.I.F.*+}+b@*#Z}_@X+X+H+X+X+X+X+X+:@Y+X+X+H+X+X+X+X+H+H+`+Y@`}d%]#B.h%B.r.r.r.B.r.r.B.B.B.B.B.B.B.U&r.r.g.r.g.U&g.<+U&g.r.$+i.D@L& |E'*,.|J>H=I=c=F=,-J>[_d:[_N{A=#:A=#:#:#:A=#:~'~'#:~'2;[_N{~',-G=;-d=--~-#:F({'=)/-5+##o.B+}%g.g.<+U&<+g.<+<+r.<+r.g.r.r.B.B.$&r.$&B.r.B.B.r.r.B.B.~<I#K<.&C#C#H+X+X+H+H+H+X+Y+Y+Y+X+Y+j@<@+|@|^.3+B+{+}+}+{+{+&+*+H.G.U.}+$*=#q.^.{@~+~+H.x}                                                            ",
"                                                                #|$#-.;.D;;.-./+D$j.I.F.I.*+%+%+K+$|F+g$C#Z@X+:@H+Y+H+H+X+X+X+X+H+H+H+Y+X+X+Y+i@Y*:$ $w#=#B.$&B./&$&$&/&r.r.r.B.r.B.B.B.g.r.r.g.U&g.r.g.g.<+r.r.r.u@H.U.g.f.N>e/V'C/]>$>~~.|9-*>M=!-E=I=*-0-c=c=I=c=*-*-d=d;'-K=%>G=-,%-^']>^(m'M%4+~@G@h.3+G@##r.r.g.g.g.<+g.g.g.r.U&<+r.B.r.r.r.$&B.B.r.r.B./&/&r.G@h%^$u#%|&|x$8@X+X+:@X+X+X+H+:@X+H+H+H+H+D#X+*|]@3+B+%+[+}+}+}+*+&+I.G.G.&+%@%@%@^.{@^./.%+=|                                                              ",
"                                                                  -|/+;.u.c.D;c.G{##D.I.G.H.$+&+;|*%>|,|{*=%C#b%;$`+i@<@C#D#X+Y+H+:@Y+Y+X+H+X+H+D#F+|[@$g[@#B.B.B.B.r.B.$&$&r.B.r.r.r.B.B.r.g.g.g.g.r.U&U&g.r.g.r.U&g.<+$&G@F@^.3+h.D$N.%.'|m')|!|v>A~B}{'~|!:{'!:~|!:!:S-d(v>.~'=7>;==.9+G@T.M+q.G@B.r.g.<+g.r.r.r.g.r.g.r.g.r.U&g.<+r.B./&r.r.B.B./&r.B.r./&/&/&B.3#g[{|]|C#<@Y+X+H+Y+:@X+X+H+H+H+X+Y+H+Y+H+D#^|/|*#3+3+}+}+[+}+%+$+H.G.H.&+G@B.q.^.^./.M+[+(|                                                                ",
"                                                                  _|:|u.;.x!;.j)c.5+D$k.I.H.H.F.H.<|[|}|A@||1|2|<#3|g}+>&|4|%^0&h$J@G+Y+X+Y+H+:@H+X+`+5|b#t<g[u#G@G@h%r.r.B./&r.r.B.r.r.B.r.B.r.r.$&U&U&<+r.<+<+r.g.r.<+r.<+g.U&U&g.$&^.%+J.i.6|q.g.d@<.<.<.<.[.<.'.<.'.q-~.##{+7|j.J.[+%@g.U&g.g.r.r.g.U&g.g.<+g.U&g.g.g.r.r.r.$&B.B.r.r.B./&r.B.r.B.r./&/&B.h%q.|@Q@$}[<x$k@X+X+H+X+Y+H+H+X+Y+X+X+H+H+X+X+H+(@7$a}*+[+%+}+}+}+*+$+G.H.H.}+^#=#Q@{@^.~+/.%+o.                                                                  ",
"                                                                    8|t@j)j)j)x!u.z+$#=#j.H.G.G.&+m+9|g#m+m+t+0|m+&@f#/.R@a|b|c|M$T#<@-$f$X+X+H+:@X+H+<@`+d|e|1#s#G@B.B.B.B.B.r.B.B.B.r./&r.B.r.r./&B.r.g.r.g.U&g.g.g.g.r.g.g.g.r.g.r.g.g.g.U&r.B.%@%@{@{@^.^.^.^.^.{@{@%@%@G@r.g.r.g.r.g.g.r.r.g.U&<+<+r.r.r.r.r.<+r.r.U&r.r.r.B.r.B.r.B./&r.B.r.r.r.r.B.B./&]#d%7#E}Z@_@Y+X+H+X+X+X+:@X+X+H+H+X+X+H+X+H+X+X+C#9#q.%+}+}+}+{+&+*+I.I.H.{+%@%@u@^.^.{@^.{+c@E.                                                                  ",
"                                                                      f|'.N+Y.*];.;.j,!@##V.H.H.H.H.*+$+[+[+[+%+B+B+B+~+3+S+&@t+&@p$g|h|>@i@Z@k@Y+H+X+H+Y+Z@0&E$q[I&]#G@B.B.B.r.r.r.B.B.B.B.r.r.$&/&$&r.B.r.B.r.B.g.<+g.g.r.g.r.r.r.r.g.r.<+r.<+r.U&U&r.g.r.g.<+r.g.r.r.r.r.g.g.g.r.r.g.r.r.r.r.g.U&<+g.<+<+<+r.r.B.B.r.r.B.B.B.r.B.r.r.r.B.B.r.r.r.h%G@G@;#w#f@i|j|;@k|X+:@H+Y+X+X+H+H+H+Y+j@j@D#D#(@(@G+D#j@<@l|[+*+}+{+*+$+$+H.G.F.{+G@=#^.^./.~+~+3+x[E.                                                                    ",
"                                                                        m|).D;u.;.u.Y.w,d-D$k.G.H.I.H.*+*+}+%+}+[+3+M+/.~+~+^.L+-#&@H}*@![n|o|p|i@_@Y+H+H+H+D#p+q}#%{<]#|@h%G@B./&r.B./&B.r.$&r.r.B.B.r.r.B.B.B.r.r./&r.r.g.g.g.g.g.r.U&g.g.<+r.g.r.g.r.g.g.<+r.g.g.r.r.g.g.U&U&g.r.<+U&r.r.U&r.g.g.g.g.g.r.r.B.r./&r.B.r.r.r.r./&r.r.$&/&r./&/&B.B.B.e#!<q|r|Z}F+Z@Y+H+H+H+X+X+H+k@$;J@p+K@i@<@_@X+s|5$j@<@f$t,t|T.*+}+%+*+%+I.I.G.$+G@%@^.~</.B+~+[+D.c@                                                                      ",
"                                                                          -]4+D;u.Y.u.j)D;G{w%o.G.I.G.*+*+%+{+{+}+[+B+M+3+~+~+~+~+^.q.~+|@|@^$c#u|v|K@C#H+H+X+X+;%_@W$w|`:5#v@B.G@^#r.r.$&r.B.B.$&r.r.B.B.r.B.B.B.r.B.B.B.B.r.r.g.g.U&r.g.r.g.g.<+r.g.g.U&g.g.g.r.g.g.g.r.g.r.r.g.r.g.U&r.r.r.r.U&g.r.B.r.B.B.B.r.$&r.r.B.B.B.r.r.r.r.B.B.r.r.G@B.Q@!<Y%x|f}J@_@D#X+Y+H+H+X+8@F+y|k@H$z|E$y<A|B|C|D|E|F|G|H|I|b#X#*#*+&+*+I.I.G.J.%+%@F@q.{@~</.3+{+n.x[                                                                        ",
"                                                                            J|K|u./+/+u.Y.;.d-].k.H.F.H.I.*+*+}+{+%+{+[+B+M+/.~+~+~+/.~+{@{@{@*@r#T}L|=%`+C#X+Y+:@H+(@O%M|N|o$O|I&3#G@B.G@B.r.B.r.r.r.r.r.r./&r./&B.B.r.B.r.r.r./&B.r.B.B.r./&B.r.r.g.g.r.g.r.r.r.r.g.g.g.r.r.g.r.$&r.B.r.r.r.B.r.r.B./&B.r.B./&r./&r./&r.B.r.B.$&r.r.$&B.h%G@u#v#P|#$3<f$W+:@Y+:@X+F&<@_@<@c<p}Q|_$U+($~<R|H}t+T+K+]@]@S|H}T|U|V|%+$+$+I.I.H.I.[+%@G@^.^.~+/.3+$+c@(|                                                                          ",
"                                                                              W||_D;Y.Y.Y.q];./+W.k.U.H.G.H.%+*+}+}+}+}+{+3+M+~+~+^.L+/.~+^.q.^.{@&@d#X|Y|Z|F+j@Y+H+H+H+_@;$-@`|`#F@O@t#B.B.G@r.B.$&r.r.$&$&r.r.$&r.B.r.r.r.r.r.r.B./&r.B.B.B.B.r.r.r.B.B.r.r.B.r.$&r.r.B.r.B.B.B.r.B.B.B.r.B.B.r.B.B.r./&B.r.r.r.r.r.B.r./&r.r.r.G@G@G@=#4#I#t< } 1.1;$D#H+Y+F$;$W++1@1#17#.#G@a@z$]@*@S+L+~+~+^.L+M+3+[+}+[+[+[+&+$+H.G.H.G.3+^#q.q.^.~+~+3+{+c@$1                                                                            ",
"                                                                                J|'.j)/+/+Y.Y.Y.5+#+m.T.F.G.H.*+$+[+[+}+}+}+B+B+~+~+^.^.^.L+^.{@q.{@q.f#]@U+|}J@Z@:@H+Y+Y+H+g$i@:@w<%10}&1;#G@G@B.B./&B.r.B.B.r.B.$&r.r.r.B.B./&B.r.r.r.r.B.r.r.B.B.r.r.$&B.r.r.r.B.r.r.r.r./&r.r.r.r.$&r.B.r./&r.r.r.B.B.B.B.B.r.r.B.B.r.B./&B.B.G@=#v#^$.$H|;<i@f$k@X+H+j@`+k@*1=1-1V@v#^$S+C@t#^.L+^./.^.~+^.3+~+B+[+[+}+}+}+*+&+H.G.I.H.3+G@%@%@~<~+B+3+%+D.p.                                                                              ",
"                                                                                  W|}>Y.Z-Z-Y.q]/+;.U;*+h.H.I.H.*+%+$+[+{+}+}+}+3+~+B+/./.L+L+~+/.^.{@^.q.]@^.;1o=i@k@X+X+X+X+H+D#x$G+E#>1,1v@]$]#Q@B.B.h%G@r./&r.r.B.r.r.r.B.B.r.r./&B.B.B.r.r.r.B.B.r.r.$&B.r.r.r.$&$&$&r.$&r.r.B.B.r.$&r.B.r.r.r.r.r.r.B.r.B.B.B.B.B.G@B.%@~<]$]#q#X[+>'1y|f$H+Y+X+Z@i@>}z@)1!1~1*@%@{@q.q.{@^.L+/.~+~+^.~+3+M+}+}+{+}+{+$+*+I.G.G.F.H./.G@q./.~<~+3+3+&+x[(|                                                                                ",
"                                                                                    K|P-/+/+/+/+Z-/+;.t./.k.G.I.G.%+$+*+}+[+%+}+[+B+3+~+~+~+~+^.~+~+^.q.^.%@C@2#{1b<i@C#H+Y+X+X+Y+H+D#`+Z@C']1^1![O|N[]#B.B.G@G@B.r.B.r.B.r.r.r./&r./&B./&r.B.$&B.B.B./&/&r.B./&r.B.r./&r.r.r.r.r.r.B.B.r.B.r.B.B.B.B.$&r.r.r.$&B.G@G@G@Q@I#B@/1z[c%I@S~i@<@H+X+Y+k@K@(1_1`#Q@J<S+%@q.^.^.{@^.^./.L+~+^./.3+B+3+{+}+}+{+[+*+%+*+F.G.G.H.q.B.q.q.L+~+~+}+*+o.x}                                                                                  ",
"                                                                                      :1:|Z-Z-/+/+/+Z-j)}.g.k.T.I.G.F.&+*+}+}+[+}+}+3+3+M+^.~+^.~+~+^.^.{@^.^.{@^$3+<1u&<@H+X+X+H+X+X+H+D#(@<@x$[1w|E|{|w#d%e#%@G@G@B.B.r.r.r.r.r.B.r.r.r.B.B.B.r.$&r./&r.r.r.B.B.r.r.r.r.B.B.B.r.r.B.B.B.$&r.B.r.B.r.r.r.$&B.G@=#%@C@J<}14[q<o|s|;@C#j@H+Y+Y+:@W+G+M<7#&@^$^.%@%@q.^.^.^.{@/.~+~+~+~+~+~+B+B+}+%+}+}+}+$+*+*+I.I.H.*+Q@G@^./.~+B+~+%+&+o.c@                                                                                    ",
"                                                                                        <^|1$#/+G{5+/+d-Y.!@~@h.h.H.G.F.*+&+*+[+}+}+{+}+M+B+B+L+/.~+L+/.L+^.^.q.{@b@B@3$11;$H+Y+H+X+Y+:@Y+Y+H+H+_@R#2131m#A#W@1#t#s#I#]#%@G@G@B.G@G@B.G@B.B.B.B.B.r.r.r./&r.r.r.r.r.B.r./&r.r.r.r.r.B.r.r.h%B.G@h%B.G@G@@#P@V@P@r.h<41:$ %l#e$F+j@X+H+Y+H+Y+<@_@51X<]$5@%@%@%@^.q.q.{@L+^.~+/.~+/.~+3+3+3+[+[+}+{+[+*+&+$+G.G.G.I.B+G@%@%@^.~+~+[+[+G.$1D.                                                                                      ",
"                                                                                          61s.n^/+G{G{y~G{/+5+&#%+h.G.I.I.I.*+&+%+}+%+%+}+}+M+B+B+/././.~+^./.{@^.{@-#C+S[9;`+Y+X+Y+Y+H+X+X+H+X+H+H+k@J@i@k@71'$i}8191r$v#01s#]#%@G@B.B.G@B.B.B.^#B.^#B.B.r.B.$&r.r.B.B.B.B.h%G@G@G@h%G@B.G@G@%@v@^$a1O@V<9<F#(<b1,|.1_@)#f$X+H+X+Y+H+:@H+<-c18<;#p@v@q.%@q.^.^.q.{@^.~+~+~+L+^.~+3+3+~+}+%+}+[+[+&+*+&+H.G.H.T.^.B.q.q.~<~+L+3+%+G.d1E.                                                                                        ",
"                                                                                            e1f1y.Z-R]5+d-R]G{Y.S.%@V.I.H.G.F.G.*+&+}+}+{+}+}+[+3+M+3+~+^.~+~+~+~+^.q.^.]@|#51F+X+H+H+H+H+H+H+X+Y+H+X+H+X+D#j@f$`+i@g1N$%$d}81i%/&V@v#]$P@]#t#t#Q@;#;#3#=#3#3#3#=#%@%@=#Q@=#Q@;#t#e#u#]#I&O|s#P@I<h12<i1j1k1<@x$<@(@G+H+H+X+:@:@X+X+X+D#`+l1.$d#~<{@^.^.^.^.~<~+/.^.~+/.^./.M+3+3+}+[+[+}+[+{+*+*+&+H.I.I.J.H.Q@%@u@{@B+~+~+%+%+U.m1m.                                                                                          ",
"                                                                                                n1!+y~d-$#d-R]m^Z-u+d@T.h.G.I.I.F.*+*+[+}+{+}+}+{+~+3+~+~+^.^.L+^.L+~+~+^.H#|#o1T{X+H+X+H+H+X+X+H+H+H+X+Y+X+Y+X+Y+H+g$)#b%i@p10$k1q1r1s1=@>#{|t1w@ $u11#1#q#q#q#1#q#q#q#q#V<E<w@r$![v1o#w1i}x1s<a'y1_@-$;$_@D#X+H+H+X+Y+H+H+X+:@H+X+J@c}J[K#O@%@^.^.q.^.^.~+^.^.~+~+^./.3+3+3+B+[+%+}+[+}+*+$+%+H.G.F.G.I.[+%@G@%@{@B+~+[+}+I.n.m1                                                                                              ",
"                                                                                                  z1#|R]3{$#d/d/$#5+G{U;~+V.G.I.H.I.$+$+$+[+}+}+[+[+}+B+~+~+~+^.~+^.~+/./.^.A1B1@1`+X+H+X+X+H+H+Y+X+X+:@:@Y+H+X+X+:@H+X+X+X+C#0&(~_@<@Z@k@k@k@P$7,l&C1F%D1v*D1D1D1D1v*D1E1m#9;l&F1D#D#8@8@C#(~i@<@C#D#Y+H+X+X+X+H+X+H+Y+H+:@X+Y+6*`+G1X[O@S+q.q.{@{@{@^.~+^.L+~+/.^.~+3+3+3+M+[+%+}+[+[+}+$+$+H.H.G.U.I./.G@%@u@^.L+/.3+[+I.x[C.                                                                                                ",
"                                                                                                    H1n1}.R]!@!@m^$#d/q]N.M.m.m.H.F.H.H.*+%+$+}+}+[+[+{+[+3+B+3+3+~+/.^.^.^.^.V@B1I1F+X+Y+Y+X+X+H+Y+H+X+:@X+X+X+X+X+X+X+Y+X+X+H+X+H+H+X+H+X+H+G+8@g$<@i@W+_@J@J@W+W+_@J@J1(~<@C#k@Y+X+H+X+H+H+H+H+X+X+X+H+Y+X+H+X+H+H+X+X+H+Y+j@;$K1U+r#%@{@^.^.^.~+/.~+/.~+~+~+3+3+M+B+}+[+[+{+[+}+*+$+*+H.I.H.H.H.3+%@^#Q@~<^.~+}+}+$+T.L1M1                                                                                                  ",
"                                                                                                      N1O1E@G{!@m^!@m^!@5+G{q-}+m.U.G.H.I.G.&+&+%+}+}+[+[+%+3+~+B+B+~+~+L+/.~+~+C+d+@<F+H+X+H+X+Y+X+X+H+Y+X+H+Y+X+H+X+X+X+X+X+X+X+H+X+X+:@X+X+Y+X+Y+H+X+X+Y+Y+X+X+H+H+X+X+Y+:@H+H+X+Y+X+X+X+X+X+Y+X+X+H+Y+Y+X+H+X+X+X+Y+H+H+D#e$P1X|Q1{@^.^.~+/.^.L+^.L+L+^.~+3+3+3+}+[+[+}+[+{+%+$+&+$+H.H.H.F.I.^.B.=#Q@^.{@L+3+}+$+h.m1k.                                                                                                    ",
"                                                                                                          1%q-$#!@!@$#m^d/!@3{<((.U.m.G.I.G.&+*+*+&+}+}+[+}+[+{+M+3+3+M+^.L+~+~+L+;|L#R1C#H+H+X+X+X+Y+X+H+X+Y+X+Y+H+:@H+X+X+H+H+Y+X+X+H+X+X+H+Y+X+X+:@X+H+H+Y+H+Y+H+X+H+H+X+H+Y+X+Y+X+H+H+X+X+H+H+H+X+H+H+X+Y+:@X+X+H+X+X+X+i@S1T1^${@{@^.~+L+^.^././.^.~+3+B+~+B+}+}+[+}+}+}+&+&+%+G.H.G.H.G.}+G@G@%@%@~<B+L+~+}+I.D.U1                                                                                                        ",
"                                                                                                            V1f1@+!@!@u+!@n^!@d/!@).G@V.F.G.H.I.I.*+*+*+[+{+}+}+}+}+}+}+3+3+~+/.^.L+t+W1X1g$Y+H+H+:@X+H+H+Y+H+X+H+X+Y+X+H+:@Y+g$_@W+J@<@g$k@j@-%&&N]N]&&N]R_H+X+k@C#_@i@(~<@F$X+H+H+X+H+X+X+Y+H+H+X+X+Y+H+X+X+H+X+X+X+X+X+F+Y11#|@{@^.~+^.^.^.~+^.3+3+B+~+3+}+}+}+{+[+[+&+$+*+I.I.H.H.H.F.%+q.G@%@q.~<^.~+}+3+*+&+Z1`1                                                                                                          ",
"                                                                                                               2.2'.d/n^u+!@n^n^d/3{>.N#L+k.J.H.I.H.G.*+%+&+}+{+[+}+}+}+[+3+M+M+3+~+S+t++2`+(@X+H+X+H+:@Y+X+Y+X+H+H+X+H+<@x$b%@2#2$2b<%2 }b|2|r$&2r$&2|#r$&2R:*2E|(<m%L$k1=2<@b%i@k@:@H+:@X+H+X+Y+H+X+X+Y+X+H+X+X+Y+X+H+R#E}T1&@L+~+/./././.^.^.~+3+3+3+{+}+}+[+[+}+[+*+%+*+H.H.G.I.J.&+B+^#F@q./.{@^.~+~+}+*+m.-2h.                                                                                                            ",
"                                                                                                                  ;2>2N.u+u+n^u+n^u+n^$#,.~@F.n.J.H.H.G.$+$+&+*+}+[+}+{+}+}+}+M+3+B+3+f#}$E$(~Y+Y+X+X+X+Y+H+H+X+D#8@(~<-K},2H|'2)2^.K+s#|@*#f#b@b@b@b@C@b@C@b@!2^$|@4@B@~2z[X#{2]2^2F+Z@D#H+X+X+H+X+H+Y+X+X+H+X+H+X+:@i@/2(2_2/.~+^.^.L+/.~+3+B+~+M+[+{+{+{+%+%+{+{+$+$+H.G.F.F.H.G.-#%@h%G@Q@/.^.^.3+[+}+G.(|Z1                                                                                                                ",
"                                                                                                                    :2O1'.n^>.1@1@>.d'}.u+k+r>w%T.h.T.I.G.G.I.&+&+$+*+}+{+{+[+}+%+{+}+3+]@<2{*Z@H+X+Y+:@X+X+8@`+<@g1t|F|)2!}[22#*@~+^.^.^.q.^.^.{@q.{@^.{@q.q.{@^.q.q.q.-#4@}2i<|27#12R*m&_@i@G+H+Y+H+Y+Y+H+H+H+H+Y+i@22<|C+^./.^.B+B+B+3+3+3+}+}+}+[+{+}+{+}+*+*+*+H.G.G.H.H.T.[+q.^#%@=#^.{@{@/.~+[+}+k.-2x[                                                                                                                  ",
"                                                                                                                        n11%E@u+d'}.1@}.32}.u+u+f+B.T.m.H.H.H.I.H.%+&+$+{+{+}+{+}+}+{+{+%+T|H@42D#X+H+X+(@x$Y$_[}@s}b@C+d#f#^./.^.~+~+^.{@{@{@^.q.{@{@^.^.^.{@^.^.^.q.^.^.q.^.~+*#C+o@R@L#5262F*`+:@X+:@X+H+Y+X+X+C#b$72e@3+~+3+3+B+B+M+}+}+%+}+[+}+}+[+*+%+$+*+G.H.H.G.E.G.}+q.B.^#G@q.^.^.^.B+/.B+H.`1m1                                                                                                                      ",
"                                                                                                                          82}1:|N.1@|$h#}.}.N.}.u+h#e.g.U.m.F.H.I.I.H.G.$+$+$+*+}+{+}+{+}+|+}$92`+X+k@F*02z@a2L+t+b@3+~+^.~+~+~+/.L+~+~+/./.^.^.~+^./.~+~+^.~+^.L+/.L+L+~+~+^./.~+^.3+B+*@S|D+ }b2_@_@D#X+X+Y+X+D#k@c2d23+B+M+[+}+}+{+{+{+[+}+}+}+$+*+*+$+H.I.I.I.G.G.U.[+Q@r.B.u@Q@{@^.{@~+/.3+}+x[U1E.                                                                                                                        ",
"                                                                                                                              |1I['.N.1@<(N.N.N.R{N.u+D}<.##H.m.U.H.H.H.I.G.$+$+*+*+}+}+}+}+d2e2f2x$f2g2h23+J#*+^.3+3+~+^././.~+/.~+~+~+/.~+L+~+L+^.~+L+~+/./.L+~+~+~+^.~+~+^.L+L+~+~+~+~+^.|@i2M#=@J$g$J@:@H+H+F+]|*#}+B+}+}+{+[+}+{+}+[+}+[+*+$+&+$+F.G.F.H.H.G.T.[+G@r.^#%@Q@q.Q@^.B+/.~+3+U.j2$1                                                                                                                            ",
"                                                                                                                                k2l21%*=32@+@+<(@+@+,.@+1@1@<.D$[+m.J.H.G.I.H.F.%+*+*+$+%+}+}+m2n2o22|;|m+T.}+B+3+B+B+~+M+~+B+/.^.~+/.~+~+L+L+^.~+^.L+L+/././.~+L+/.~+L+L+/.~+~+~+/././.L+^.~+~+o@e+a+p2q2x$G+i@r2d+d2}+}+}+}+[+{+[+[+[+}+&+$+*+*+G.H.G.G.G.U.I.B+B.g.B.%@G@q.q.{@^.~+B+B+*+p.m1H.                                                                                                                              ",
"                                                                                                                                    s2t2f.N>@+R{,.k{,.,.,.k{@+N.2{q@^.n.h.U.H.G.H.I.H.G.&+*+$+*+u2v2m+}+{+}+}+}+[+[+[+}+{+}+[+~+~+B+B+3+3+~+3+3+~+~+~+3+3+3+B+3+M+B+M+M+M+B+3+3+~+3+~+B+3+M+B+~+B+~+}+T|J+g}5&w2x2T|{+}+[+}+[+{+%+*+*+$+$+I.H.G.F.H.H.I.U.}+q.B.g.g.G@F@u@u@q.~+~+/.~+}+x[m1y2                                                                                                                                  ",
"                                                                                                                                        f/t2^*E@<(,.E@,.,.,.E@,.<(@+X.D@r.}+m.m.T.H.H.H.H.H.G.*+]+]+}+&+}+}+}+}+{+}+{+}+}+[+[+}+}+}+[+}+[+~+M+3+M+B+B+M+B+3+3+B+~+M+~+M+~+3+3+B+3+3+~+3+{+}+[+[+}+[+}+}+g#m+z2#1A2[+}+[+{+*+*+$+*+$+&+H.G.H.H.H.J.E.&+}+%@g.g.U&$&G@%@q.q.^.~+B+^.}+c@U1x}                                                                                                                                      ",
"                                                                                                                                            W|B2C2X.@+g{,.,.H^H^,.[(E@@+k{i-~@G@T.n.J.I.H.H.F.H.G.*+$+%+$+&+*+[+[+%+[+}+{+{+}+{+}+}+}+{+{+}+}+}+[+}+}+[+}+}+[+}+}+}+[+[+}+}+}+}+}+[+{+}+{+}+{+}+[+{+[+%+{+%+m2m2*+[+*+&+*+%+&+%+H.I.H.G.H.F.U.H.{+^.B.|%U&r.r.G@%@%@%@q.~+^.t#}+J.D2E2                                                                                                                                          ",
"                                                                                                                                                1%I[1*N>,.E@E@t.E@E@E@X.[(E@k{*=C*~.^.U.J.E.U.G.H.I.H.I.I.I.F.*+*+*+&+$+$+*+*+[+}+}+}+}+}+{+}+}+}+}+}+}+[+[+{+}+}+[+{+[+[+}+{+}+}+[+[+}+}+}+{+}+[+[+}+*+&+*+%+$+*+*+G.G.G.G.G.I.G.G.F.G.F.}+R@$&g.##g.r.G@G@=#%@%@~<~<^.B+[+D.m1M1                                                                                                                                              ",
"                                                                                                                                                    F2B2f14+X.[(A+X.[(X.X.X.N>X.E@E@9+=;(.{@%+U.h.T.H.H.H.I.H.H.I.I.*+&+&+&+*+$+*+&+&+*+$+}+{+{+}+}+{+[+}+{+{+}+}+}+%+}+[+}+}+}+%+}+}+}+}+$+$+&+%+$+*+*+*+$+&+G.G.I.G.G.H.I.J.J.H.&+}+^.r.##D$g.U&r.^#G@G@%@G@^.^.^.^.I.G2H2=|                                                                                                                                                  ",
"                                                                                                                                                        I2J2K2t@X.X.A+N>X.N>N>N>N>5_N>N>E@A+t@s.##B+m.l.U.H.G.I.H.H.H.F.I.G.H.&+$+%+&+$+&+%+%+%+&+&+*+$+*+*+*+&+*+&+%+*+*+*+$+$+%+&+*+&+*+*+$+*+&+$+&+H.G.H.G.H.G.F.F.H.E.T.I./.G@$&D$D$##U&B.r.^#G@h%B.%@{@q.{@/.I.G2U1E.                                                                                                                                                      ",
"                                                                                                                                                            K|L2t2s.!+N>5_k!m,m,9+9+9+m,9+)(9+N>9+&##+~.h%[+I.U.M2E.U.J.H.F.H.I.I.H.F.H.H.I.H.I.I.I.G.I.H.G.G.I.G.H.G.G.G.H.G.F.G.H.G.I.G.H.I.G.I.F.F.G.F.U.E.G.G.H.I.~+%@<+v%W%A.w%|%U&B.r.r.G@B.%@G@=#{@^.3+T.`1M1(}                                                                                                                                                          ",
"                                                                                                                                                                N2z1O2P2z.!+A+N>!+9+9+9+!+9+!+!+!+9+9+!+<.[.R+d@}%q.~+*+J.m.m.J.J.J.I.G.G.I.G.H.G.F.H.H.I.H.H.H.G.H.G.H.G.H.H.I.I.H.H.G.F.F.H.F.E.E.U.H.G.%+[+{@G@v%W%].M.W%D$n*v%U&U&r.$&$&^#G@=#Q@q./.*+x[Q2X}3+                                                                                                                                                              ",
"                                                                                                                                                                      R2S2t2d@=;k!!+2{!+f+<.<.f+!+!+<.[.<.<.<.f+!+<.e.J&l+].r.%@~+$+J.m.U.U.T.T.J.J.H.G.G.G.I.I.G.F.I.F.G.I.F.J.J.U.E.J.E.J.$+$+q.q.G@}%D$A.J%{.J%M.M.w%v%}%g.g.g.g.^#^#F@G@^#%@Q@b@T.p.T2I.                                                                                                                                                                    ",
"                                                                                                                                                                          U2V2t2W2.2e.[.<.9]i-<.[.U;<.<.U;[.i-&#&#&#U;$)<.9]&#=;R+t*!.:.].M.r.<+%@q.q.q.*+$+*+*+%+%+*+%+{@{@~<^.h%G@r.g.W%J%J%~@].J%d@~.J%_.n*w%D$D$##}%##g.U&r.r.^#^#$&%@%@~+n.Z1`1x}G@                                                                                                                                                                        ",
"                                                                                                                                                                                )}|1X2Y2].J&e.i-9]U;&#&#U;&#&#&#&#&#&#e.Z2e.=;e.e.=;t@&#n-R+n-n-R+R+n-=+R+=+s*s*s*t*^*N#^*N#t(l+q@s.W.W.W.d@d@~@{._.].M.n*M.n*D$D$##v%g.g.$&$&G@B.G@%@~+E.M1`2 3L+                                                                                                                                                                              ",
"                                                                                                                                                                                      3'f1.3W2+3].s*Z2&#&#Z2&#e.Z2e.e.=;C*C*C*R+R+R+s*s*=+R+R+s*t*s*t*N#N#!.:.:.:.:.l+f.q@W.W.A&A&~@~@~.J%J%].].].n*A.M.D$##}%##v%g.}%$&B.$&^#~+*+m.$1M1 3[%                                                                                                                                                                                    ",
"                                                                                                                                                                                              :|1%W2@3W2.2J&R+C*&#&##3=;#3R+C*C*#+=+=+s*s*s*J&s*s*s*!.N#N#:.t(f.f.l+l+l+A&W.A&A&d@J%J%{.J%_.(.].w%D$D$####v%##}%}%r.B.^.$3D.(|G2%3}+                                                                                                                                                                                            ",
"                                                                                                                                                                                                    )'k[P2&3$3*3}1].d@^*s*C*n-R+s*=+s*J&s*!.^*N#^*:.!.:.t(:.^*q@l+l+W.W.s.W.d@{.~.].].A.W%n*W%W%D$n*v%v%g.G@3#~+=3x[-3M1=3t2g.                                                                                                                                                                                                  ",
"                                                                                                                                                                                                              )};3W2>3@3Y2*3W2B.w%].W.!.t(:.!.:.:.:.t(q@q@q@q@q@A&l+A&~@~@{.(.~.].M.D$n*w%v%r.B.^.M+I.(} 3,3G2'3)3M.                                                                                                                                                                                                            ",
"                                                                                                                                                                                                                        C,!3n1.2B2~3{3]3]3$3$3Y2J28[8[r.r.g.B.r.B.8[B.8[G@G@q.3+$3*+ 3 3G2,3G2^3$3@3J2G@M.                                                                                                                                                                                                                      ",
"                                                                                                                                                                                                                                      c,/3E@*=#|L28[(3X2_3)3{3_3=3=3:3_3(}<3W2*3Y2f.J&D@D@e.                                                                                                                                                                                                                                    ",
"                                                                                                                                                                                                                                                                                                                                                                                                                                                                                                                                "};
